/* XPM */
static char * Door 1_xpm[] = {
"256 256 46 1",
" 	c #304F65",
".	c #315065",
"+	c #335363",
"@	c #345363",
"#	c #1B1B1B",
"$	c #537389",
"%	c #527289",
"&	c #567787",
"*	c #547588",
"=	c #395E78",
"-	c #3A5F78",
";	c #3E6376",
">	c #767474",
",	c #C8C8C8",
"'	c #897F75",
")	c #3C6177",
"!	c #3D6276",
"~	c #524C46",
"{	c #3B6077",
"]	c #335264",
"^	c #3F6883",
"/	c #557688",
"(	c #43764F",
"_	c #62A46A",
":	c #81BF7C",
"<	c #3D6277",
"[	c #4998ED",
"}	c #A7DBFF",
"|	c #537388",
"1	c #35586E",
"2	c #577B93",
"3	c #3F667F",
"4	c #3F6781",
"5	c #3E657A",
"6	c #3F6780",
"7	c #3E6377",
"8	c #3E6479",
"9	c #3F667E",
"0	c #345466",
"a	c #35576C",
"b	c #3E6478",
"c	c #3E657C",
"d	c #345465",
"e	c #AD823C",
"f	c #E4AC50",
"g	c #557687",
" ...+@ .################################################################################################################################################################################################################################################@@.@....",
" $$$%&%$################################################################################################################################################################################################################################################*&$$$$$.",
" $=====-################################################################################################################################################################################################################################################-;-----.",
" $=====-################################################################################################################################################################################################################################################-=-=---.",
" $=====-####>>>>>>>>,,,,####''''''''''''''''''''''''''''''''''''''''''''''''''''''''''''''''''''''''''''''''''''''''''''''''########''''''''''''''''''''''''''''''''''''''''''''''''''''''''''''''''''''''''''''''''''''''''''''''''####,,,,>>>>>>>>####====---.",
" $==-==-####>>>>>>>>,,,,####''''''''''''''''''''''''''''''''''''''''''''''''''''''''''''''''''''''''''''''''''''''''''''''''########''''''''''''''''''''''''''''''''''''''''''''''''''''''''''''''''''''''''''''''''''''''''''''''''####,,,,>>>>>>>>####==-)--=.",
" $-=-==-####>>>>>>>>,,,,####''''''''''''''''''''''''''''''''''''''''''''''''''''''''''''''''''''''''''''''''''''''''''''''''########''''''''''''''''''''''''''''''''''''''''''''''''''''''''''''''''''''''''''''''''''''''''''''''''####,,,,>>>>>>>>####;;;;!-=.",
" $-=-===####>>>>>>>>,,,,####''''''''''''''''''''''''''''''''''''''''''''''''''''''''''''''''''''''''''''''''''''''''''''''''########''''''''''''''''''''''''''''''''''''''''''''''''''''''''''''''''''''''''''''''''''''''''''''''''####,,,,>>>>>>>>####);=----.",
" $-====-####>>>>>>>>,,,,####''''~~~~~~~~~~~~~~~~~~~~~~~~~~~~~~~~~~~~~~~~''''''''########################################''''########''''########################################''''''''~~~~~~~~~~~~~~~~~~~~~~~~~~~~~~~~~~~~~~~~''''####,,,,>>>>>>>>####)=-=--=.",
" $-====-####>>>>>>>>,,,,####''''~~~~~~~~~~~~~~~~~~~~~~~~~~~~~~~~~~~~~~~~''''''''########################################''''########''''########################################''''''''~~~~~~~~~~~~~~~~~~~~~~~~~~~~~~~~~~~~~~~~''''####,,,,>>>>>>>>####==----=.",
" $--===-####>>>>>>>>,,,,####''''~~~~~~~~~~~~~~~~~~~~~~~~~~~~~~~~~~~~~~~~''''''''########################################''''########''''########################################''''''''~~~~~~~~~~~~~~~~~~~~~~~~~~~~~~~~~~~~~~~~''''####,,,,>>>>>>>>####=-----=.",
" %---==-####>>>>>>>>,,,,####''''~~~~~~~~~~~~~~~~~~~~~~~~~~~~~~~~~~~~~~~~''''''''########################################''''########''''########################################''''''''~~~~~~~~~~~~~~~~~~~~~~~~~~~~~~~~~~~~~~~~''''####,,,,>>>>>>>>####==----=.",
" %---==-####>>>>>>>>,,,,####''''''''''''''''''''''''''''''''''''''''''''''''''''''''~~~~~~~~~~~~~~~~~~~~~~~~~~~~~~~~####''''########''''####~~~~~~~~~~~~~~~~~~~~~~~~~~~~~~~~''''''''''''''''''''''''''''''''''''''''''''''''''''''''####,,,,>>>>>>>>####==----=.",
" $--====####>>>>>>>>,,,,####''''''''''''''''''''''''''''''''''''''''''''''''''''''''~~~~~~~~~~~~~~~~~~~~~~~~~~~~~~~~####''''########''''####~~~~~~~~~~~~~~~~~~~~~~~~~~~~~~~~''''''''''''''''''''''''''''''''''''''''''''''''''''''''####,,,,>>>>>>>>####==----{.",
" $--====####>>>>>>>>,,,,####''''''''''''''''''''''''''''''''''''''''''''''''''''''''~~~~~~~~~~~~~~~~~~~~~~~~~~~~~~~~####''''########''''####~~~~~~~~~~~~~~~~~~~~~~~~~~~~~~~~''''''''''''''''''''''''''''''''''''''''''''''''''''''''####,,,,>>>>>>>>####==-=---.",
".$--====####>>>>>>>>,,,,####''''''''''''''''''''''''''''''''''''''''''''''''''''''''~~~~~~~~~~~~~~~~~~~~~~~~~~~~~~~~####''''########''''####~~~~~~~~~~~~~~~~~~~~~~~~~~~~~~~~''''''''''''''''''''''''''''''''''''''''''''''''''''''''####,,,,>>>>>>>>####==-=---.",
".%--==-=####>>>>>>>>,,,,####''''''''''''''''''''''''''''''''''''''''''''''''''''''''''''~~~~~~~~~~~~~~~~~~~~~~~~~~~~####''''########''''####~~~~~~~~~~~~~~~~~~~~~~~~~~~~''''''''''''''''''''''''''''''''''''''''''''''''''''''''''''####,,,,>>>>>>>>####=-=----.",
".$-===--####>>>>>>>>,,,,####''''''''''''''''''''''''''''''''''''''''''''''''''''''''''''~~~~~~~~~~~~~~~~~~~~~~~~~~~~####''''########''''####~~~~~~~~~~~~~~~~~~~~~~~~~~~~''''''''''''''''''''''''''''''''''''''''''''''''''''''''''''####,,,,>>>>>>>>####=-=---;.",
".$--==--####>>>>>>>>,,,,####''''''''''''''''''''''''''''''''''''''''''''''''''''''''''''~~~~~~~~~~~~~~~~~~~~~~~~~~~~####''''########''''####~~~~~~~~~~~~~~~~~~~~~~~~~~~~''''''''''''''''''''''''''''''''''''''''''''''''''''''''''''####,,,,>>>>>>>>####=-===--.",
" %=-===-####>>>>>>>>,,,,####''''''''''''''''''''''''''''''''''''''''''''''''''''''''''''~~~~~~~~~~~~~~~~~~~~~~~~~~~~####''''########''''####~~~~~~~~~~~~~~~~~~~~~~~~~~~~''''''''''''''''''''''''''''''''''''''''''''''''''''''''''''####,,,,>>>>>>>>####=====--.",
".%--====####>>>>>>>>,,,,####''''''''''''''''''''''''''''''''''''''''''''''''''''''''''''''''~~~~~~~~~~~~~~~~~~~~~~~~####''''########''''####~~~~~~~~~~~~~~~~~~~~~~~~''''''''''''''''''''''''''''''''''''''''''''''''''''''''''''''''####,,,,>>>>>>>>####===----.",
".$=-====####>>>>>>>>,,,,####''''''''''''''''''''''''''''''''''''''''''''''''''''''''''''''''~~~~~~~~~~~~~~~~~~~~~~~~####''''########''''####~~~~~~~~~~~~~~~~~~~~~~~~''''''''''''''''''''''''''''''''''''''''''''''''''''''''''''''''####,,,,>>>>>>>>####===--=- ",
".%=-==-=####>>>>>>>>,,,,####''''''''''''''''''''''''''''''''''''''''''''''''''''''''''''''''~~~~~~~~~~~~~~~~~~~~~~~~####''''########''''####~~~~~~~~~~~~~~~~~~~~~~~~''''''''''''''''''''''''''''''''''''''''''''''''''''''''''''''''####,,,,>>>>>>>>####==---==.",
"]%--==-=####>>>>>>>>,,,,####''''''''''''''''''''''''''''''''''''''''''''''''''''''''''''''''~~~~~~~~~~~~~~~~~~~~~~~~####''''########''''####~~~~~~~~~~~~~~~~~~~~~~~~''''''''''''''''''''''''''''''''''''''''''''''''''''''''''''''''####,,,,>>>>>>>>####==-=--=.",
".$;-==-=########################''''''''''''''''''''''''''''''''''''''''''''''''''''''''''''''''~~~~~~~~~~~~~~~~~~~~####''''########''''####~~~~~~~~~~~~~~~~~~~~''''''''''''''''''''''''''''''''''''''''''''''''''''''''''''''''########################=^-=--- ",
".$-===-=########################''''''''''''''''''''''''''''''''''''''''''''''''''''''''''''''''~~~~~~~~~~~~~~~~~~~~####''''########''''####~~~~~~~~~~~~~~~~~~~~''''''''''''''''''''''''''''''''''''''''''''''''''''''''''''''''########################=------ ",
"./!=====########################''''''''''''''''''''''''''''''''''''''''''''''''''''''''''''''''~~~~~~~~~~~~~~~~~~~~####''''########''''####~~~~~~~~~~~~~~~~~~~~''''''''''''''''''''''''''''''''''''''''''''''''''''''''''''''''########################--===-- ",
".&;;-===########################''''''''''''''''''''''''''''''''''''''''''''''''''''''''''''''''~~~~~~~~~~~~~~~~~~~~####''''########''''####~~~~~~~~~~~~~~~~~~~~''''''''''''''''''''''''''''''''''''''''''''''''''''''''''''''''########################--=^==- ",
".&-;====####((((____::::((((####''''''''''''''''''''''''''''''''''''''''''''''''''''''''''''''''''''~~~~~~~~~~~~~~~~####''''########''''####~~~~~~~~~~~~~~~~''''''''''''''''''''''''''''''''''''''''''''''''''''''''''''''''''''####((((::::____((((####-=----- ",
".%-===-=####((((____::::((((####''''''''''''''''''''''''''''''''''''''''''''''''''''''''''''''''''''~~~~~~~~~~~~~~~~####''''########''''####~~~~~~~~~~~~~~~~''''''''''''''''''''''''''''''''''''''''''''''''''''''''''''''''''''####((((::::____((((####-=----- ",
".$-===-=####((((____::::((((####''''''''''''''''''''''''''''''''''''''''''''''''''''''''''''''''''''~~~~~~~~~~~~~~~~####''''########''''####~~~~~~~~~~~~~~~~''''''''''''''''''''''''''''''''''''''''''''''''''''''''''''''''''''####((((::::____((((####-=---=- ",
".$-===--####((((____::::((((####''''''''''''''''''''''''''''''''''''''''''''''''''''''''''''''''''''~~~~~~~~~~~~~~~~####''''########''''####~~~~~~~~~~~~~~~~''''''''''''''''''''''''''''''''''''''''''''''''''''''''''''''''''''####((((::::____((((####-=----- ",
".$====-=####((((____::::((((####''''''''''''''''''''''''''''''''''''''''''''''''''''''''''''''''''''''''~~~~~~~~~~~~####''''########''''####~~~~~~~~~~~~''''''''''''''''''''''''''''''''''''''''''''''''''''''''''''''''''''''''####((((::::____((((####-=----= ",
".$====-=####((((____::::((((####''''''''''''''''''''''''''''''''''''''''''''''''''''''''''''''''''''''''~~~~~~~~~~~~####''''########''''####~~~~~~~~~~~~''''''''''''''''''''''''''''''''''''''''''''''''''''''''''''''''''''''''####((((::::____((((####-==---= ",
".$====-=####((((____::::((((####''''''''''''''''''''''''''''''''''''''''''''''''''''''''''''''''''''''''~~~~~~~~~~~~####''''########''''####~~~~~~~~~~~~''''''''''''''''''''''''''''''''''''''''''''''''''''''''''''''''''''''''####((((::::____((((####-=--=-= ",
".%======####((((____::::((((####''''''''''''''''''''''''''''''''''''''''''''''''''''''''''''''''''''''''~~~~~~~~~~~~####''''########''''####~~~~~~~~~~~~''''''''''''''''''''''''''''''''''''''''''''''''''''''''''''''''''''''''####((((::::____((((####-==-=-- ",
".%======####((((____::::((((####''''''''''''''''''''''''''''''''''''''''''''''''''''''''''''''''''''''''''''~~~~~~~~####''''########''''####~~~~~~~~''''''''''''''''''''''''''''''''''''''''''''''''''''''''''''''''''''''''''''####((((::::____((((####-=-=--- ",
".%======####((((____::::((((####''''''''''''''''''''''''''''''''''''''''''''''''''''''''''''''''''''''''''''~~~~~~~~####''''########''''####~~~~~~~~''''''''''''''''''''''''''''''''''''''''''''''''''''''''''''''''''''''''''''####((((::::____((((####-=-=-=- ",
".%======####((((____::::((((####''''''''''''''''''''''''''''''''''''''''''''''''''''''''''''''''''''''''''''~~~~~~~~####''''########''''####~~~~~~~~''''''''''''''''''''''''''''''''''''''''''''''''''''''''''''''''''''''''''''####((((::::____((((####-=-===- ",
".$======####((((____::::((((####''''''''''''''''''''''''''''''''''''''''''''''''''''''''''''''''''''''''''''~~~~~~~~####''''########''''####~~~~~~~~''''''''''''''''''''''''''''''''''''''''''''''''''''''''''''''''''''''''''''####((((::::____((((####==-==-- ",
".$-=====####((((____::::((((####''''''''''''''''''''''''''''''''''''''''''''''''''''''''''''''''''''''''''''''''~~~~####''''########''''####~~~~''''''''''''''''''''''''''''''''''''''''''''''''''''''''''''''''''''''''''''''''####((((::::____((((####==--=-= ",
".$;==-=-####((((____::::((((####''''''''''''''''''''''''''''''''''''''''''''''''''''''''''''''''''''''''''''''''~~~~####''''########''''####~~~~''''''''''''''''''''''''''''''''''''''''''''''''''''''''''''''''''''''''''''''''####((((::::____((((####===---- ",
".%=!=-==####((((____::::((((####''''''''''''''''''''''''''''''''''''''''''''''''''''''''''''''''''''''''''''''''~~~~####''''########''''####~~~~''''''''''''''''''''''''''''''''''''''''''''''''''''''''''''''''''''''''''''''''####((((::::____((((####==----=.",
".$===-==####((((____::::((((####''''''''''''''''''''''''''''''''''''''''''''''''''''''''''''''''''''''''''''''''~~~~####''''########''''####~~~~''''''''''''''''''''''''''''''''''''''''''''''''''''''''''''''''''''''''''''''''####((((::::____((((####===-===.",
".$======####((((____::::((((####''''''''''''''''''''''''''''''''''''''''''''''''''''''''''''''''''''''''''''''''''''####''''########''''####''''''''''''''''''''''''''''''''''''''''''''''''''''''''''''''''''''''''''''''''''''####((((::::____((((####===-===.",
".%======####((((____::::((((####''''''''''''''''''''''''''''''''''''''''''''''''''''''''''''''''''''''''''''''''''''####''''########''''####''''''''''''''''''''''''''''''''''''''''''''''''''''''''''''''''''''''''''''''''''''####((((::::____((((####======= ",
".%=====-####((((____::::((((####''''''''''''''''''''''''''''''''''''''''''''''''''''''''''''''''''''''''''''''''''''####''''########''''####''''''''''''''''''''''''''''''''''''''''''''''''''''''''''''''''''''''''''''''''''''####((((::::____((((####======= ",
".$======####((((____::::((((####''''''''''''''''''''''''''''''''''''''''''''''''''''''''''''''''''''''''''''''''''''####''''########''''####''''''''''''''''''''''''''''''''''''''''''''''''''''''''''''''''''''''''''''''''''''####((((::::____((((####=-=-=== ",
".$===-==####((((____::::((((####''''''''''''''''''''''''''''''''''''''''''''''''''''''''''''''''''''''''''''''''''''####''''########''''####''''''''''''''''''''''''''''''''''''''''''''''''''''''''''''''''''''''''''''''''''''####((((::::____((((####-====== ",
".$===-=-####((((____::::((((####''''''''''''''''''''''''''''''''''''''''''''''''''''''''''''''''''''''''''''''''''''####''''########''''####''''''''''''''''''''''''''''''''''''''''''''''''''''''''''''''''''''''''''''''''''''####((((::::____((((####-====== ",
".$===-==####((((____::::((((####''''''''''''''''''''''''''''''''''''''''''''''''''''''''''''''''''''''''''''''''''''####''''########''''####''''''''''''''''''''''''''''''''''''''''''''''''''''''''''''''''''''''''''''''''''''####((((::::____((((####----===.",
".%==--==####((((____::::((((####''''''''''''''''''''''''''''''''''''''''''''''''''''''''''''''''''''''''''''''''''''####''''########''''####''''''''''''''''''''''''''''''''''''''''''''''''''''''''''''''''''''''''''''''''''''####((((::::____((((####==--===.",
" %==--==################################''''''''''''''''''''''''''''''''''''''''''''''''''''''''''''''''''''''''''''####''''########''''####''''''''''''''''''''''''''''''''''''''''''''''''''''''''''''''''''''''''''''################################==--===.",
" %==-===################################''''''''''''''''''''''''''''''''''''''''''''''''''''''''''''''''''''''''''''####''''########''''####''''''''''''''''''''''''''''''''''''''''''''''''''''''''''''''''''''''''''''################################-=--===.",
" %======################################''''''''''''''''''''''''''''''''''''''''''''''''''''''''''''''''''''''''''''####''''########''''####''''''''''''''''''''''''''''''''''''''''''''''''''''''''''''''''''''''''''''################################-------.",
" %==-==-################################''''''''''''''''''''''''''''''''''''''''''''''''''''''''''''''''''''''''''''####''''########''''####''''''''''''''''''''''''''''''''''''''''''''''''''''''''''''''''''''''''''''################################^------.",
" %==-==-####((((________________::::((((####''''''''''''''''''''''''''''''''''''''''''''''''''''''''''''''''''''''''####''''########''''####''''''''''''''''''''''''''''''''''''''''''''''''''''''''''''''''''''''''####((((::::________________((((####^---===.",
".$==-==-####((((________________::::((((####''''''''''''''''''''''''''''''''''''''''''''''''''''''''''''''''''''''''####''''########''''####''''''''''''''''''''''''''''''''''''''''''''''''''''''''''''''''''''''''####((((::::________________((((####^-=-=-= ",
".$======####((((________________::::((((####''''''''''''''''''''''''''''''''''''''''''''''''''''''''''''''''''''''''####''''########''''####''''''''''''''''''''''''''''''''''''''''''''''''''''''''''''''''''''''''####((((::::________________((((####^-=-=== ",
".%==-===####((((________________::::((((####''''''''''''''''''''''''''''''''''''''''''''''''''''''''''''''''''''''''####''''########''''####''''''''''''''''''''''''''''''''''''''''''''''''''''''''''''''''''''''''####((((::::________________((((####^=====- ",
" %==-===####((((####################((((####''''''''''''''''''''''''''''''''''''''''''''''''''''''''''''''''''''''''####''''########''''####''''''''''''''''''''''''''''''''''''''''''''''''''''''''''''''''''''''''####((((####################((((####======-.",
" $==-===####((((####################((((####''''''''''''''''''''''''''''''''''''''''''''''''''''''''''''''''''''''''####''''########''''####''''''''''''''''''''''''''''''''''''''''''''''''''''''''''''''''''''''''####((((####################((((####--=-==-.",
" $==-===####((((####################((((####''''''''''''''''''''''''''''''''''''''''''''''''''''''''''''''''''''''''####''''########''''####''''''''''''''''''''''''''''''''''''''''''''''''''''''''''''''''''''''''####((((####################((((####--=-==- ",
" $==-=<=####((((####################((((####''''''''''''''''''''''''''''''''''''''''''''''''''''''''''''''''''''''''####''''########''''####''''''''''''''''''''''''''''''''''''''''''''''''''''''''''''''''''''''''####((((####################((((####^==-=== ",
" $==-=;;####((((####[[[[[[[[[[[[####((((####''''''''''''''''''''''''''''''''''''''''''''''''''''''''''''''''''''''''####''''########''''####''''''''''''''''''''''''''''''''''''''''''''''''''''''''''''''''''''''''####((((####[[[[[[[[[[[[####((((####-==-=== ",
" $==-=;;####((((####[[[[[[[[[[[[####((((####''''''''''''''''''''''''''''''''''''''''''''''''''''''''''''''''''''''''####''''########''''####''''''''''''''''''''''''''''''''''''''''''''''''''''''''''''''''''''''''####((((####[[[[[[[[[[[[####((((####^==-=== ",
" $==-=;;####((((####[[[[[[[[[[[[####((((####''''''''''''''''''''''''''''''''''''''''''''''''''''''''''''''''''''''''####''''########''''####''''''''''''''''''''''''''''''''''''''''''''''''''''''''''''''''''''''''####((((####[[[[[[[[[[[[####((((####-==-=-- ",
" $==-===####((((####[[[[[[[[[[[[####((((####''''''''''''''''''''''''''''''''''''''''''''''''''''''''''''''''''''''''####''''########''''####''''''''''''''''''''''''''''''''''''''''''''''''''''''''''''''''''''''''####((((####[[[[[[[[[[[[####((((####-==-==- ",
" %-=-===####((((####[[[[}}}}[[[[####((((####''''''''''''''''''''''''''''''''''''''''''''''''''''''''''''''''''''''''####''''########''''####''''''''''''''''''''''''''''''''''''''''''''''''''''''''''''''''''''''''####((((####[[[[}}}}[[[[####((((####^=====- ",
" %-=====####((((####[[[[}}}}[[[[####((((####''''''''''''''''''''''''''''''''''''''''''''''''''''''''''''''''''''''''####''''########''''####''''''''''''''''''''''''''''''''''''''''''''''''''''''''''''''''''''''''####((((####[[[[}}}}[[[[####((((####^;===== ",
" %-=====####((((####[[[[}}}}[[[[####((((####''''''''''''''''''''''''''''''''''''''''''''''''''''''''''''''''''''''''####''''########''''####''''''''''''''''''''''''''''''''''''''''''''''''''''''''''''''''''''''''####((((####[[[[}}}}[[[[####((((####^====-- ",
".%======####((((####[[[[}}}}[[[[####((((####''''''''''''''''''''''''''''''''''''''''''''''''''''''''''''''''''''''''####''''########''''####''''''''''''''''''''''''''''''''''''''''''''''''''''''''''''''''''''''''####((((####[[[[}}}}[[[[####((((####^-===-- ",
".%======####((((####[[[[}}}}[[[[####((((####''''''''''''''''''''''''''''''''''''''''''''''''''''''''''''''''''''''''####''''########''''####''''''''''''''''''''''''''''''''''''''''''''''''''''''''''''''''''''''''####((((####[[[[}}}}[[[[####((((####--===-- ",
" %==-===####((((####[[[[}}}}[[[[####((((####''''''''''''''''''''''''''''''''''''''''''''''''''''''''''''''''''''''''####''''########''''####''''''''''''''''''''''''''''''''''''''''''''''''''''''''''''''''''''''''####((((####[[[[}}}}[[[[####((((####--===-- ",
".%==-=-=####((((####[[[[}}}}[[[[####((((####''''''''''''''''''''''''''''''''''''''''''''''''''''''''''''''''''''''''####''''########''''####''''''''''''''''''''''''''''''''''''''''''''''''''''''''''''''''''''''''####((((####[[[[}}}}[[[[####((((####-====-= ",
".%==-=-=####((((####[[[[}}}}[[[[####((((####''''''''''''''''''''''''''''''''''''''''''''''''''''''''''''''''''''''''####''''########''''####''''''''''''''''''''''''''''''''''''''''''''''''''''''''''''''''''''''''####((((####[[[[}}}}[[[[####((((####-====-= ",
".%==-=-=####((((####[[[[}}}}[[[[####((((####''''''''''''''''''''''''''''''''''''''''''''''''''''''''''''''''''''''''''''''''########''''''''''''''''''''''''''''''''''''''''''''''''''''''''''''''''''''''''''''''''####((((####[[[[}}}}[[[[####((((####^====-- ",
".%==-==-####((((####[[[[}}}}[[[[####((((####''''''''''''''''''''''''''''''''''''''''''''''''''''''''''''''''''''''''''''''''########''''''''''''''''''''''''''''''''''''''''''''''''''''''''''''''''''''''''''''''''####((((####[[[[}}}}[[[[####((((####^====-- ",
".%==-==-####((((####[[[[}}}}[[[[####((((####''''''''''''''''''''''''''''''''''''''''''''''''''''''''''''''''''''''''''''''''########''''''''''''''''''''''''''''''''''''''''''''''''''''''''''''''''''''''''''''''''####((((####[[[[}}}}[[[[####((((####====--- ",
".%==-=--####((((####[[[[}}}}[[[[####((((####''''''''''''''''''''''''''''''''''''''''''''''''''''''''''''''''''''''''''''''''########''''''''''''''''''''''''''''''''''''''''''''''''''''''''''''''''''''''''''''''''####((((####[[[[}}}}[[[[####((((####^===---.",
".%====--####((((####[[[[}}}}[[[[####((((####''''''''''''''''''''''''''''''''''''''''''''''''''''''''''''''''''''''''''''''''########''''''''''''''''''''''''''''''''''''''''''''''''''''''''''''''''''''''''''''''''####((((####[[[[}}}}[[[[####((((####^===--- ",
".%=====-####((((####[[[[}}}}[[[[####((((####''''''''''''''''''''''''''''''''''''''''''''''''''''''''''''''''''''''''''''''''########''''''''''''''''''''''''''''''''''''''''''''''''''''''''''''''''''''''''''''''''####((((####[[[[}}}}[[[[####((((####^====--.",
".%=====-####((((####[[[[}}}}[[[[####((((####''''''''''''''''''''''''''''''''''''''''''''''''''''''''''''''''''''''''''''''''########''''''''''''''''''''''''''''''''''''''''''''''''''''''''''''''''''''''''''''''''####((((####[[[[}}}}[[[[####((((####^====-=.",
" %======####((((####[[[[}}}}[[[[####((((####''''''''''''''''''''''''''''''''''''''''''''''''''''''''''''''''''''''''''''''''########''''''''''''''''''''''''''''''''''''''''''''''''''''''''''''''''''''''''''''''''####((((####[[[[}}}}[[[[####((((####===-=-= ",
" %======####((((####[[[[}}}}[[[[####((((####''''''''''''''''''''''''''''''''''''''''''''''''''''''''''''''''''''''''''''################''''''''''''''''''''''''''''''''''''''''''''''''''''''''''''''''''''''''''''####((((####[[[[}}}}[[[[####((((####===-=-=.",
" %=====-####((((####[[[[}}}}[[[[####((((####''''''''''''''''''''''''''''''''''''''''''''''''''''''''''''''''''''''''''''################''''''''''''''''''''''''''''''''''''''''''''''''''''''''''''''''''''''''''''####((((####[[[[}}}}[[[[####((((####^==-=-=.",
" %=====-####((((####[[[[}}}}[[[[####((((####''''''''''''''''''''''''''''''''''''''''''''''''''''''''''''''''''''''''''''################''''''''''''''''''''''''''''''''''''''''''''''''''''''''''''''''''''''''''''####((((####[[[[}}}}[[[[####((((####^==-===.",
" %======####((((####[[[[}}}}[[[[####((((####''''''''''''''''''''''''''''''''''''''''''''''''''''''''''''''''''''''''''''################''''''''''''''''''''''''''''''''''''''''''''''''''''''''''''''''''''''''''''####((((####[[[[}}}}[[[[####((((####^==-===.",
" %======####((((####[[[[}}}}[[[[####((((####''''''''''''''''''''''''''''''''''''''''''''''''''''''''''''''''''''''''####((((########((((####''''''''''''''''''''''''''''''''''''''''''''''''''''''''''''''''''''''''####((((####[[[[}}}}[[[[####((((####^====== ",
" %======####((((####[[[[}}}}[[[[####((((####''''''''''''''''''''''''''''''''''''''''''''''''''''''''''''''''''''''''####((((########((((####''''''''''''''''''''''''''''''''''''''''''''''''''''''''''''''''''''''''####((((####[[[[}}}}[[[[####((((####^====== ",
" %=====-####((((####[[[[}}}}[[[[####((((####''''''''''''''''''''''''''''''''''''''''''''''''''''''''''''''''''''''''####((((########((((####''''''''''''''''''''''''''''''''''''''''''''''''''''''''''''''''''''''''####((((####[[[[}}}}[[[[####((((####^====!;@",
"@|=====-####((((####[[[[}}}}[[[[####((((####''''''''''''''''''''''''''''''''''''''''''''''''''''''''''''''''''''''''####((((########((((####''''''''''''''''''''''''''''''''''''''''''''''''''''''''''''''''''''''''####((((####[[[[}}}}[[[[####((((####^=)-;-;@",
"@&=====-####((((####[[[[}}}}[[[[####((((####''''''''''''''''''''''''''''''''''''''''''''''''''''''''''''''''''''####((((____########____((((####''''''''''''''''''''''''''''''''''''''''''''''''''''''''''''''''''''####((((####[[[[}}}}[[[[####((((####^=;-;-;@",
" %======####((((####[[[[}}}}[[[[####((((####''''''''''''''''''''''''''''''''''''''''''''''''''''''''''''''''''''####((((____########____((((####''''''''''''''''''''''''''''''''''''''''''''''''''''''''''''''''''''####((((####[[[[}}}}[[[[####((((####^=;-;-;.",
" %=====-####((((####[[[[}}}}[[[[####((((####''''''''''''''''''''''''''''''''''''''''''''''''''''''''''''''''''''####((((____########____((((####''''''''''''''''''''''''''''''''''''''''''''''''''''''''''''''''''''####((((####[[[[}}}}[[[[####((((####^==---;.",
" %=====-####((((####[[[[}}}}[[[[####((((####''''''''''''''''''''''''''''''''''''''''''''''''''''''''''''''''''''####((((____########____((((####''''''''''''''''''''''''''''''''''''''''''''''''''''''''''''''''''''####((((####[[[[}}}}[[[[####((((####^===---.",
" %=====-####((((####[[[[}}}}[[[[####((((####''''''''''''''''''''''''''''''''''''''''''''''''''''''''''''''''####((((________########________((((####''''''''''''''''''''''''''''''''''''''''''''''''''''''''''''''''####((((####[[[[}}}}[[[[####((((####^===-== ",
" %=====-####((((####[[[[}}}}[[[[####((((####''''''''''''''''''''''''''''''''''''''''''''''''''''''''''''''''####((((________########________((((####''''''''''''''''''''''''''''''''''''''''''''''''''''''''''''''''####((((####[[[[}}}}[[[[####((((####====-== ",
" %=====-####((((####[[[[}}}}[[[[####((((####''''''''''''''''''''''''''''''''''''''''''''''''''''''''''''''''####((((________########________((((####''''''''''''''''''''''''''''''''''''''''''''''''''''''''''''''''####((((####[[[[}}}}[[[[####((((####====-== ",
" %=====-####((((####[[[[}}}}[[[[####((((####''''''''''''''''''''''''''''''''''''''''''''''''''''''''''''''''####((((________########________((((####''''''''''''''''''''''''''''''''''''''''''''''''''''''''''''''''####((((####[[[[}}}}[[[[####((((####==---== ",
" %======####((((####[[[[}}}}[[[[####((((####''''''''''''''''''''''''''''''''''''''''''''''''''''''''''''''''####((((########################((((####''''''''''''''''''''''''''''''''''''''''''''''''''''''''''''''''####((((####[[[[}}}}[[[[####((((####======= ",
" %======####((((####[[[[}}}}[[[[####((((####''''''''''''''''''''''''''''''''''''''''''''''''''''''''''''''''####((((########################((((####''''''''''''''''''''''''''''''''''''''''''''''''''''''''''''''''####((((####[[[[}}}}[[[[####((((####======- ",
" %======####((((####[[[[}}}}[[[[####((((####''''''''''''''''''''''''''''''''''''''''''''''''''''''''''''''''####((((########################((((####''''''''''''''''''''''''''''''''''''''''''''''''''''''''''''''''####((((####[[[[}}}}[[[[####((((####==-=-=- ",
" %=====-####((((####[[[[}}}}[[[[####((((####''''''''''''''''''''''''''''''''''''''''''''''''''''''''''''''''####((((########################((((####''''''''''''''''''''''''''''''''''''''''''''''''''''''''''''''''####((((####[[[[}}}}[[[[####((((####==-=-=- ",
" %======####((((####[[[[}}}}[[[[####((((####''''''''''''''''''''''''''''''''''''''''''''''''''''''''''''''''####((((####::::########::::####((((####''''''''''''''''''''''''''''''''''''''''''''''''''''''''''''''''####((((####[[[[}}}}[[[[####((((####====-=- ",
" %======####((((####[[[[}}}}[[[[####((((####''''''''''''''''''''''''''''''''''''''''''''''''''''''''''''''''####((((####::::########::::####((((####''''''''''''''''''''''''''''''''''''''''''''''''''''''''''''''''####((((####[[[[}}}}[[[[####((((####====-=- ",
" %======####((((####[[[[}}}}[[[[####((((####''''''''''''''''''''''''''''''''''''''''''''''''''''''''''''''''####((((####::::########::::####((((####''''''''''''''''''''''''''''''''''''''''''''''''''''''''''''''''####((((####[[[[}}}}[[[[####((((####====-=- ",
" %======####((((####[[[[}}}}[[[[####((((####''''''''''''''''''''''''''''''''''''''''''''''''''''''''''''''''####((((####::::########::::####((((####''''''''''''''''''''''''''''''''''''''''''''''''''''''''''''''''####((((####[[[[}}}}[[[[####((((####====-=- ",
" %======####((((####[[[[[[[[[[[[####((((####''''''''''''''''''''''''''''''''''''''''''''''''''''''''''''''''####((((####::::########::::####((((####''''''''''''''''''''''''''''''''''''''''''''''''''''''''''''''''####((((####[[[[[[[[[[[[####((((####====-=- ",
" %======####((((####[[[[[[[[[[[[####((((####''''''''''''''''''''''''''''''''''''''''''''''''''''''''''''''''####((((####::::########::::####((((####''''''''''''''''''''''''''''''''''''''''''''''''''''''''''''''''####((((####[[[[[[[[[[[[####((((####==-=-=- ",
" %======####((((####[[[[[[[[[[[[####((((####''''''''''''''''''''''''''''''''''''''''''''''''''''''''''''''''####((((####::::########::::####((((####''''''''''''''''''''''''''''''''''''''''''''''''''''''''''''''''####((((####[[[[[[[[[[[[####((((####==-=-== ",
" %======####((((####[[[[[[[[[[[[####((((####''''''''''''''''''''''''''''''''''''''''''''''''''''''''''''''''####((((####::::########::::####((((####''''''''''''''''''''''''''''''''''''''''''''''''''''''''''''''''####((((####[[[[[[[[[[[[####((((####==-=-== ",
"1%=====-####((((####################((((####''''''''''''''''''''''''''''''''''''''''''''''''''''''''''''''''####((((####::::########::::####((((####''''''''''''''''''''''''''''''''''''''''''''''''''''''''''''''''####((((####################((((####==-=-== ",
"1%=====-####((((####################((((####''''''''''''''''''''''''''''''''''''''''''''''''''''''''''''''''####((((####::::########::::####((((####''''''''''''''''''''''''''''''''''''''''''''''''''''''''''''''''####((((####################((((####==-=-==1",
"1%======####((((####################((((####''''''''''''''''''''''''''''''''''''''''''''''''''''''''''''''''####((((####::::########::::####((((####''''''''''''''''''''''''''''''''''''''''''''''''''''''''''''''''####((((####################((((####=======1",
"1%======####((((####################((((####''''''''''''''''''''''''''''''''''''''''''''''''''''''''''''''''####((((####::::########::::####((((####''''''''''''''''''''''''''''''''''''''''''''''''''''''''''''''''####((((####################((((####=======1",
"1%======####((((________________::::((((####''''''''''''''''''''''''''''''''''''''''''''''''''''''''''''''''####((((####::::########::::####((((####''''''''''''''''''''''''''''''''''''''''''''''''''''''''''''''''####((((::::________________((((####===^-==1",
"1%======####((((________________::::((((####''''''''''''''''''''''''''''''''''''''''''''''''''''''''''''''''####((((####::::########::::####((((####''''''''''''''''''''''''''''''''''''''''''''''''''''''''''''''''####((((::::________________((((####===^-^- ",
"1%======####((((________________::::((((####''''''''''''''''''''''''''''''''''''''''''''''''''''''''''''''''####((((####::::########::::####((((####''''''''''''''''''''''''''''''''''''''''''''''''''''''''''''''''####((((::::________________((((####=-=^-^- ",
"1%======####((((________________::::((((####''''''''''''''''''''''''''''''''''''''''''''''''''''''''''''''''####((((####::::########::::####((((####''''''''''''''''''''''''''''''''''''''''''''''''''''''''''''''''####((((::::________________((((####=-=^-^^1",
"1%======####((((____________::::((((####''''''''''''''''''''''''''''''''''''''''''''''''''''''''''''''''''''####((((####::::########::::####((((####''''''''''''''''''''''''''''''''''''''''''''''''''''''''''''''''''''####((((::::____________((((####^-^^-^^1",
"1%======####((((____________::::((((####''''''''''''''''''''''''''''''''''''''''''''''''''''''''''''''''''''####((((####::::########::::####((((####''''''''''''''''''''''''''''''''''''''''''''''''''''''''''''''''''''####((((::::____________((((####=-^^-^-1",
"1%======####((((____________::::((((####''''''''''''''''''''''''''''''''''''''''''''''''''''''''''''''''''''####((((####::::########::::####((((####''''''''''''''''''''''''''''''''''''''''''''''''''''''''''''''''''''####((((::::____________((((####=-=^-^^1",
"1%=====^####((((____________::::((((####''''''''''''''''''''''''''''''''''''''''''''''''''''''''''''''''''''####((((####::::########::::####((((####''''''''''''''''''''''''''''''''''''''''''''''''''''''''''''''''''''####((((::::____________((((####^-=^^^^1",
"1%======####((((________::::((((####''''''''''''''''''''''''''''''''''''''''''''''''''''''''''''''''''''''''####((((####::::########::::####((((####''''''''''''''''''''''''''''''''''''''''''''''''''''''''''''''''''''''''####((((::::________((((####^====^^1",
"1%======####((((________::::((((####''''''''''''''''''''''''''''''''''''''''''''''''''''''''''''''''''''''''####((((####::::########::::####((((####''''''''''''''''''''''''''''''''''''''''''''''''''''''''''''''''''''''''####((((::::________((((####====^^^1",
" %======####((((________::::((((####''''''''''''''''''''''''''''''''''''''''''''''''''''''''''''''''''''''''####((((####::::########::::####((((####''''''''''''''''''''''''''''''''''''''''''''''''''''''''''''''''''''''''####((((::::________((((####====^^^1",
" %======####((((________::::((((####''''''''''''''''''''''''''''''''''''''''''''''''''''''''''''''''''''''''####((((####::::########::::####((((####''''''''''''''''''''''''''''''''''''''''''''''''''''''''''''''''''''''''####((((::::________((((####===^^^^ ",
" %======####((((____::::((((####''''''''''''''''''''''''''''''''''''''''''''''''''''''''''''''''''''''''''''####((((####::::########::::####((((####''''''''''''''''''''''''''''''''''''''''''''''''''''''''''''''''''''''''''''####((((::::____((((####^^^^^^^1",
"1%==-===####((((____::::((((####''''''''''''''''''''''''''''''''''''''''''''''''''''''''''''''''''''''''''''####((((####::::########::::####((((####''''''''''''''''''''''''''''''''''''''''''''''''''''''''''''''''''''''''''''####((((::::____((((####^^^^^^^1",
"1%==-===####((((____::::((((####''''''''''''''''''''''''''''''''''''''''''''''''''''''''''''''''''''''''''''####((((####::::########::::####((((####''''''''''''''''''''''''''''''''''''''''''''''''''''''''''''''''''''''''''''####((((::::____((((####^^^^^^^1",
"1%======####((((____::::((((####''''''''''''''''''''''''''''''''''''''''''''''''''''''''''''''''''''''''''''####((((####::::########::::####((((####''''''''''''''''''''''''''''''''''''''''''''''''''''''''''''''''''''''''''''####((((::::____((((####^-^^^^^1",
" %======####((((____::::((((####''''''''''''''''''''''''''''''''''''''''''''''''''''''''''''''''''''''''''''####((((########################((((####''''''''''''''''''''''''''''''''''''''''''''''''''''''''''''''''''''''''''''####((((::::____((((####^^^^==^.",
"1%======####((((____::::((((####''''''''''''''''''''''''''''''''''''''''''''''''''''''''''''''''''''''''''''####((((########################((((####''''''''''''''''''''''''''''''''''''''''''''''''''''''''''''''''''''''''''''####((((::::____((((####^^^===^.",
"1%======####((((____::::((((####''''''''''''''''''''''''''''''''''''''''''''''''''''''''''''''''''''''''''''####((((########################((((####''''''''''''''''''''''''''''''''''''''''''''''''''''''''''''''''''''''''''''####((((::::____((((####^^^====1",
"12======####((((____::::((((####''''''''''''''''''''''''''''''''''''''''''''''''''''''''''''''''''''''''''''####((((########################((((####''''''''''''''''''''''''''''''''''''''''''''''''''''''''''''''''''''''''''''####((((::::____((((####^^^====1",
"12======####((((____::::((((####''''~~~~''''''''''''''''''''''''''''''''''''''''''''''''''''''''''''''''''''####((((________########________((((####''''''''''''''''''''''''''''''''''''''''''''''''''''''''''''''''''''~~~~''''####((((::::____((((####34^^^^^1",
"1%======####((((____::::((((####''''~~~~''''''''''''''''''''''''''''''''''''''''''''''''''''''''''''''''''''####((((________########________((((####''''''''''''''''''''''''''''''''''''''''''''''''''''''''''''''''''''~~~~''''####((((::::____((((####56^^^^^1",
"1%======####((((____::::((((####''''~~~~''''''''''''''''''''''''''''''''''''''''''''''''''''''''''''''''''''####((((________########________((((####''''''''''''''''''''''''''''''''''''''''''''''''''''''''''''''''''''~~~~''''####((((::::____((((####;;7^^^^1",
"12======####((((____::::((((####''''~~~~''''''''''''''''''''''''''''''''''''''''''''''''''''''''''''''''''''####((((________########________((((####''''''''''''''''''''''''''''''''''''''''''''''''''''''''''''''''''''~~~~''''####((((::::____((((####;;^^=^^1",
".%======####((((____::::((((####''''~~~~''''''''''''''''''''''''''''''''''''''''''''''''''''''''''''''''''''''''################################''''''''''''''''''''''''''''''''''''''''''''''''''''''''''''''''''''''''~~~~''''####((((::::____((((####;86^^^^1",
"1%======####((((____::::((((####''''~~~~''''''''''''''''''''''''''''''''''''''''''''''''''''''''''''''''''''''''################################''''''''''''''''''''''''''''''''''''''''''''''''''''''''''''''''''''''''~~~~''''####((((::::____((((####;^^^6^^1",
"1%======####((((____::::((((####''''~~~~''''''''''''''''''''''''''''''''''''''''''''''''''''''''''''''''''''''''################################''''''''''''''''''''''''''''''''''''''''''''''''''''''''''''''''''''''''~~~~''''####((((::::____((((####9^^^^^-1",
"1%======####((((____::::((((####''''~~~~''''''''''''''''''''''''''''''''''''''''''''''''''''''''''''''''''''''''################################''''''''''''''''''''''''''''''''''''''''''''''''''''''''''''''''''''''''~~~~''''####((((::::____((((####^^^^^^^1",
"0%======####((((____::::((((####''''~~~~''''''''''''''''''''''''''''''''''''''''''''''''''''''''''''''''''''''''''''''''''''########''''''''''''''''''''''''''''''''''''''''''''''''''''''''''''''''''''''''''''''''''''~~~~''''####((((::::____((((####^^^^^^-1",
"a%======####((((____::::((((####''''~~~~''''''''''''''''''''''''''''''''''''''''''''''''''''''''''''''''''''''''''''''''''''########''''''''''''''''''''''''''''''''''''''''''''''''''''''''''''''''''''''''''''''''''''~~~~''''####((((::::____((((####^^^^^^-1",
"1%===^-=####((((____::::((((####''''~~~~''''''''''''''''''''''''''''''''''''''''''''''''''''''''''''''''''''''''''''''''''''########''''''''''''''''''''''''''''''''''''''''''''''''''''''''''''''''''''''''''''''''''''~~~~''''####((((::::____((((####^^^^^^^1",
"1%====-=####((((____::::((((####''''~~~~''''''''''''''''''''''''''''''''''''''''''''''''''''''''''''''''''''''''''''''''''''########''''''''''''''''''''''''''''''''''''''''''''''''''''''''''''''''''''''''''''''''''''~~~~''''####((((::::____((((####b=^^^^=1",
"1%=^==-=####((((____::::((((####''''~~~~''''''''''''''''''''''''''''''''''''''''''''''''''''''''''''''''''''''''''''~~~~''''########''''~~~~''''''''''''''''''''''''''''''''''''''''''''''''''''''''''''''''''''''''''''~~~~''''####((((::::____((((####c=^^^^^1",
"1%=^====####((((____::::((((####''''~~~~''''''''''''''''''''''''''''''''''''''''''''''''''''''''''''''''''''''''''''~~~~''''########''''~~~~''''''''''''''''''''''''''''''''''''''''''''''''''''''''''''''''''''''''''''~~~~''''####((((::::____((((####==^^^^^1",
"1%====^^####((((____::::((((####''''~~~~''''''''''''''''''''''''''''''''''''''''''''''''''''''''''''''''''''''''''''~~~~''''########''''~~~~''''''''''''''''''''''''''''''''''''''''''''''''''''''''''''''''''''''''''''~~~~''''####((((::::____((((####^^^^^^^1",
"@&-===^=####((((____::::((((####''''~~~~''''''''''''''''''''''''''''''''''''''''''''''''''''''''''''''''''''''''''''~~~~''''########''''~~~~''''''''''''''''''''''''''''''''''''''''''''''''''''''''''''''''''''''''''''~~~~''''####((((::::____((((####^^^^^^^d",
" %-=====####((((____::::((((####''''~~~~''''''''''''''''''''''''''''''''''''''''''''''''''''''''''''''''''''''''''''~~~~''''########''''~~~~''''''''''''''''''''''''''''''''''''''''''''''''''''''''''''''''''''''''''''~~~~''''####((((::::____((((####^^^^^^^1",
" %======####((((____::::((((####''''~~~~''''''''''''''''''''''''''''''''''''''''''''''''''''''''''''''''''''''''''''~~~~''''########''''~~~~''''''''''''''''''''''''''''''''''''''''''''''''''''''''''''''''''''''''''''~~~~''''####((((::::____((((####^^^^^^^ ",
"1%-^=-==####((((____::::((((####''''~~~~''''''''''''''''''''''''''''''''''''''''''''''''''''''''''''''''''''''''''''~~~~''''########''''~~~~''''''''''''''''''''''''''''''''''''''''''''''''''''''''''''''''''''''''''''~~~~''''####((((::::____((((####^^^^^^^1",
"1%--^-==####((((____::::((((####''''~~~~''''''''''''''''''''''''''''''''''''''''''''''''''''''''''''''''''''''''''''~~~~''''########''''~~~~''''''''''''''''''''''''''''''''''''''''''''''''''''''''''''''''''''''''''''~~~~''''####((((::::____((((####^^^^^^^1",
"12--^==^####((((____::::((((####''''~~~~''''''''''''''''''''''''''''''''''''''''''''''''''''''''''''''''''''''''''''~~~~''''########''''~~~~''''''''''''''''''''''''''''''''''''''''''''''''''''''''''''''''''''''''''''~~~~''''####((((::::____((((####^^^^--^1",
"1%^^^===####((((____::::((((####''''~~~~''''''''''''''''''''''''''''''''''''''''''''''''''''''''''''''''''''''''''''~~~~''''########''''~~~~''''''''''''''''''''''''''''''''''''''''''''''''''''''''''''''''''''''''''''~~~~''''####((((::::____((((####^^^^-=^1",
"1%=^====####((((____::::((((####''''~~~~''''''''''''''''''''''''''''''''''''''''''''''''''''''''''''''''''''''''''''~~~~''''########''''~~~~''''''''''''''''''''''''''''''''''''''''''''''''''''''''''''''''''''''''''''~~~~''''####((((::::____((((####^^^=^^^1",
"1%=====^####((((____::::((((####''''~~~~''''''''''''''''''''''''''''''''''''''''''''''''''''''''''''''''''''''''''''~~~~''''########''''~~~~''''''''''''''''''''''''''''''''''''''''''''''''''''''''''''''''''''''''''''~~~~''''####((((::::____((((####^^==^^-1",
"1%==-=-=####((((____::::((((####''''~~~~''''''''''''''''''''''''''''''''''''''''''''''''''''''''''''''''''''''''''''~~~~''''########''''~~~~''''''''''''''''''''''''''''''''''''''''''''''''''''''''''''''''''''''''''''~~~~''''####((((::::____((((####^^-^-^-1",
"1%==-=-=####((((____::::((((####''''~~~~''''''''''''''''''''''''''''''''''''''''''''''''''''''''''''''''''''''''''''~~~~''''########''''~~~~''''''''''''''''''''''''''''''''''''''''''''''''''''''''''''''''''''''''''''~~~~''''####((((::::____((((####^=-^^^-1",
"1%==-=-=####((((____::::((((####''''~~~~''''''''''''''''''''''''''''''''''''''''''''''''''''''''''''''''''''''''''''~~~~''''########''''~~~~''''''''''''''''''''''''''''''''''''''''''''''''''''''''''''''''''''''''''''~~~~''''####((((::::____((((####^^-^--^1",
" %-=-===####((((____::::((((####''''~~~~''''''''''''''''''''''''''''''''''''''''''''''''''''''''''''''''''''''''''''~~~~''''########''''~~~~''''''''''''''''''''''''''''''''''''''''''''''''''''''''''''''''''''''''''''~~~~''''####((((::::____((((####^^^^^-^1",
" %-^^===####((((____::::((((####''''~~~~''''''''''''''''''''''''''''''''''''''''''''''''''''''''''''''''''''''''''''~~~~''''########''''~~~~''''''''''''''''''''''''''''''''''''''''''''''''''''''''''''''''''''''''''''~~~~''''####((((::::____((((####^^^^^-^ ",
" %-^====####((((____::::((((####''''~~~~''''''''''''''''''''''''''''''''''''''''''''''''''''''''''''''''''''''''''''~~~~''''########''''~~~~''''''''''''''''''''''''''''''''''''''''''''''''''''''''''''''''''''''''''''~~~~''''####((((::::____((((####=^^^^-^ ",
"1%======####((((____::::((((####''''~~~~''''''''''''''''''''''''''''''''''''''''''''''''''''''''''''''''''''''''''''~~~~''''########''''~~~~''''''''''''''''''''''''''''''''''''''''''''''''''''''''''''''''''''''''''''~~~~''''####((((::::____((((####=^^^^^^ ",
" %======####((((____::::((((####''''~~~~''''''''''''''''''''''''''''''''''''''''''''''''''''''''''''''''''''''''''''~~~~''''########''''~~~~''''''''''''''''''''''''''''''''''''''''''''''''''''''''''''''''''''''''''''~~~~''''####((((::::____((((####=^^--== ",
" %=^^===####((((____::::((((####''''~~~~''''''''''''''''''''''''''''''''''''''''''''''''''''''''''''''''''''''''''''~~~~''''########''''~~~~''''''''''''''''''''''''''''''''''''''''''''''''''''''''''''''''''''''''''''~~~~''''####((((::::____((((####=-^---=.",
"1%==-^==####((((____::::((((####''''~~~~''''''''''''''''''''''''''''''''''''''''''''''''''''''''''''''''''''''''''''~~~~''''########''''~~~~''''''''''''''''''''''''''''''''''''''''''''''''''''''''''''''''''''''''''''~~~~''''####((((::::____((((####^-^---= ",
" %-=-===####((((____::::((((####''''~~~~''''''''''''''''''''''''''''''''''''''''''''''''''''''''''''''''''''''''''''~~~~''''########''''~~~~''''''''''''''''''''''''''''''''''''''''''''''''''''''''''''''''''''''''''''~~~~''''####((((::::____((((####^-^^--^1",
" %---==-####((((____::::((((####''''~~~~''''''''''''''''''''''''''''''''''''''''''''''''''''''''''''''''''''''''''''~~~~''''########''''~~~~''''''''''''''''''''''''''''''''''''''''''''''''''''''''''''''''''''''''''''~~~~''''####((((::::____((((####^-=^--^1",
" %--===-####((((____::::((((####''''~~~~''''''''''''''''''''''''''''''''''''''''''''''''''''''''''''''''''''''''''''~~~~''''########''''~~~~''''''''''''''''''''''''''''''''''''''''''''''''''''''''''''''''''''''''''''~~~~''''####((((::::____((((####==^^--^1",
" $-=====####((((____::::((((####''''~~~~''''''''''''''''''''''''''''''''''''''''''''''''''''''''''''''''''''''''''''~~~~''''########''''~~~~''''''''''''''''''''''''''''''''''''''''''''''''''''''''''''''''''''''''''''~~~~''''####((((::::____((((####^=^^^-^1",
" $=-===-####((((____::::((((####''''~~~~''''''''''''''''''''''''''''''''''''''''''''''''''''''''''''''''''''''''''''~~~~''''########''''~~~~''''''''''''''''''''''''''''''''''''''''''''''''''''''''''''''''''''''''''''~~~~''''####((((::::____((((####^^^^^^^ ",
" %======####((((____::::((((####''''~~~~''''''''''''''''''''''''''''''''''''''''''''''''''''''''''''''''''''''''''''~~~~''''########''''~~~~''''''''''''''''''''''''''''''''''''''''''''''''''''''''''''''''''''''''''''~~~~''''####((((::::____((((####^^^^--^ ",
" %=====-####((((____::::((((####''''~~~~''''''''''''''''''''''''''''''''''''''''''''''''''''''''''''''''''''''''''''~~~~''''########''''~~~~''''''''''''''''''''''''''''''''''''''''''''''''''''''''''''''''''''''''''''~~~~''''####((((::::____((((####^^^^--= ",
" %=====-####((((____::::((((####''''~~~~''''''''''''''''''''''''''''''''''''''''''''''''''''''''''''''''''''''''''''~~~~''''########''''~~~~''''''''''''''''''''''''''''''''''''''''''''''''''''''''''''''''''''''''''''~~~~''''####((((::::____((((####^^==--= ",
" %===-=-####((((____::::((((####''''~~~~''''''''''''''''''''''''''''''''''''''''''''''''''''''''''''''''''''''''''''~~~~''''########''''~~~~''''''''''''''''''''''''''''''''''''''''''''''''''''''''''''''''''''''''''''~~~~''''####((((::::____((((####^====-= ",
" %=====-####((((____::::((((####''''~~~~''''''''''''''''''''''''''''''''''''''''''''''''''''''''''''''''''''''''''''~~~~''''########''''~~~~''''''''''''''''''''''''''''''''''''''''''''''''''''''''''''''''''''''''''''~~~~''''####((((::::____((((####--===-= ",
" %======####((((____::::((((####''''~~~~''''''''''''''''''''''''''''''''''''''''''''''''''''''''''''''''''''''''''''~~~~''''########''''~~~~''''''''''''''''''''''''''''''''''''''''''''''''''''''''''''''''''''''''''''~~~~''''####((((::::____((((####--===-= ",
" $======####((((____::::((((####''''~~~~''''''''''''''''''''''''''''''''''''''''''''''''''''''''''''''''''''''''''''~~~~''''########''''~~~~''''''''''''''''''''''''''''''''''''''''''''''''''''''''''''''''''''''''''''~~~~''''####((((::::____((((####--===== ",
" %======####((((____::::((((####''''~~~~''''''''''''''''''''''''''''''''''''''''''''''''''''''''''''''''''''''''''''~~~~''''########''''~~~~''''''''''''''''''''''''''''''''''''''''''''''''''''''''''''''''''''''''''''~~~~''''####((((::::____((((####==-==== ",
" %===;)=####((((____::::((((####''''~~~~''''''''''''''''''''''''''''''''''''''''''''''''''''''''''''''''''''''''''''~~~~''''########''''~~~~''''''''''''''''''''''''''''''''''''''''''''''''''''''''''''''''''''''''''''~~~~''''####((((::::____((((####==-==== ",
" %=;;;;-####((((____::::((((####''''~~~~''''''''''''''''''''''''''''''''''''''''''''''''''''''''''''''''''''''''''''~~~~''''########''''~~~~''''''''''''''''''''''''''''''''''''''''''''''''''''''''''''''''''''''''''''~~~~''''####((((::::____((((####===--== ",
" %)-;;;-####((((____::::((((####''''~~~~''''''''''''''''''''''''''''''''''''''''''''''''''''''''''''''''''''''''''''~~~~''''########''''~~~~''''''''''''''''''''''''''''''''''''''''''''''''''''''''''''''''''''''''''''~~~~''''####((((::::____((((####===--== ",
" %)-;)=-####((((____::::((((####''''~~~~''''''''''''''''''''''''''''''''''''''''''''''''''''''''''''''''''''''''''''~~~~''''########''''~~~~''''''''''''''''''''''''''''''''''''''''''''''''''''''''''''''''''''''''''''~~~~''''####((((::::____((((####======= ",
" $--;==-####((((____::::((((####''''~~~~''''''''''''''''''''''''''''''''''''''''''''''''''''''''''''''''''''''''''''~~~~''''########''''~~~~''''''''''''''''''''''''''''''''''''''''''''''''''''''''''''''''''''''''''''~~~~''''####((((::::____((((####^===-== ",
" $--====####((((____::::((((####''''~~~~''''''''''''''''''''''''''''''''''''''''''''''''''''''''''''''''''''''''''''~~~~''''########''''~~~~''''''''''''''''''''''''''''''''''''''''''''''''''''''''''''''''''''''''''''~~~~''''####((((::::____((((####^===-== ",
".$-=====####((((____::::((((####''''~~~~''''''''''''''''''''''''''''''''''''''''''''''''''''''''''''''''''''''''''''~~~~''''########''''~~~~''''''''''''''''''''''''''''''''''''''''''''''''''''''''''''''''''''''''''''~~~~''''####((((::::____((((####^===--= ",
" %======####((((____::::((((####''''~~~~''''''''''''''''''''''''''''''''''''''''''''''''''''''''''''''''''''''''''''~~~~''''########''''~~~~''''''''''''''''''''''''''''''''''''''''''''''''''''''''''''''''''''''''''''~~~~''''####((((::::____((((####====--= ",
" %======####((((____::::((((####''''~~~~''''''''''''''''''''''''''''''''''''''''''''''''''''''''''''''''''''''''''''~~~~''''########''''~~~~''''''''''''''''''''''''''''''''''''''''''''''''''''''''''''''''''''''''''''~~~~''''####((((::::____((((####-===--- ",
" %====-=####((((____::::((((####''''~~~~''''''''''''''''''''''''''''''''''''''''''''''''''''''''''''''''''''''''''''~~~~''''########''''~~~~''''''''''''''''''''''''''''''''''''''''''''''''''''''''''''''''''''''''''''~~~~''''####((((::::____((((####====-=- ",
" %====--####((((____::::((((####''''~~~~''''''''''''''''''''''''''''''''''''''''''''''''''''''''''''''''''''''''''''~~~~''''########''''~~~~''''''''''''''''''''''''''''''''''''''''''''''''''''''''''''''''''''''''''''~~~~''''####((((::::____((((####======= ",
" %-===--####((((____::::((((####''''~~~~''''''''''''''''''''''''''''''''''''''''''''''''''''''''''''''''''''''''''''~~~~''''########''''~~~~''''''''''''''''''''''''''''''''''''''''''''''''''''''''''''''''''''''''''''~~~~''''####((((::::____((((####-====== ",
".%-^==--####((((____::::((((####''''~~~~''''''''''''''''''''''''''''''''''''''''''''''''''''''''''''''''''''''''''''~~~~''''########''''~~~~''''''''''''''''''''''''''''''''''''''''''''''''''''''''''''''''''''''''''''~~~~''''####((((::::____((((####-=-==== ",
".2-^==--####((((____::::((((####''''''''''''''''''''''''''''''''''''''''''''''''''''''''''''''''''''''''''''''''''''~~~~''''########''''~~~~''''''''''''''''''''''''''''''''''''''''''''''''''''''''''''''''''''''''''''''''''''####((((::::____((((####==--==- ",
".2-====-####((((____::::((((####''''''''''''''''''''''''''''''''''''''''''''''''''''''''''''''''''''''''''''''''''''~~~~''''########''''~~~~''''''''''''''''''''''''''''''''''''''''''''''''''''''''''''''''''''''''''''''''''''####((((::::____((((####==--==- ",
"1$-===--####((((____::::((((####''''''''''''''''''''''''''''''''''''''''''''''''''''''''''''''''''''''''''''''''''''~~~~''''########''''~~~~''''''''''''''''''''''''''''''''''''''''''''''''''''''''''''''''''''''''''''''''''''####((((::::____((((####==--=== ",
".$====--####((((____::::((((####''''''''''''''''''''''''''''''''''''''''''''''''''''''''''''''''''''''''''''''''''''~~~~''''########''''~~~~''''''''''''''''''''''''''''''''''''''''''''''''''''''''''''''''''''''''''''''''''''####((((::::____((((####====={=1",
"12====--####((((____::::((((####''''####~~~~''''''''''''''''''''''''''''''''''''''''''''''''''''''''''''''''''''''''~~~~''''########''''~~~~''''''''''''''''''''''''''''''''''''''''''''''''''''''''''''''''''''''''~~~~####''''####((((::::____((((####=====;^1",
"1%====-=####((((____::::((((####''''####~~~~''''''''''''''''''''''''''''''''''''''''''''''''''''''''''''''''''''''''~~~~''''########''''~~~~''''''''''''''''''''''''''''''''''''''''''''''''''''''''''''''''''''''''~~~~####''''####((((::::____((((####====;==1",
" %======####((((____::::((((####''''####~~~~''''''''''''''''''''''''''''''''''''''''''''''''''''''''''''''''''''''''~~~~''''########''''~~~~''''''''''''''''''''''''''''''''''''''''''''''''''''''''''''''''''''''''~~~~####''''####((((::::____((((####======= ",
" %^====-####((((____::::((((####''''####~~~~''''''''''''''''''''''''''''''''''''''''''''''''''''''''''''''''''''''''~~~~''''########''''~~~~''''''''''''''''''''''''''''''''''''''''''''''''''''''''''''''''''''''''~~~~####''''####((((::::____((((####=---=== ",
" %-====-####((((____::::((((####''''####~~~~~~~~~~~~''''''''''''''''''''''''''''''''''''''''''''''''''''''''''''''''~~~~''''########''''~~~~''''''''''''''''''''''''''''''''''''''''''''''''''''''''''''''''~~~~~~~~~~~~####''''####((((::::____((((####=--==== ",
".%====-=####((((____::::((((####''''####~~~~~~~~~~~~''''''''''''''''''''''''''''''''''''''''''''''''''''''''''''''''~~~~''''########''''~~~~''''''''''''''''''''''''''''''''''''''''''''''''''''''''''''''''~~~~~~~~~~~~####''''####((((::::____((((####=-^==-= ",
".%====-=####((((____::::((((####''''####~~~~~~~~~~~~''''''''''''''''''''''''''''''''''''''''''''''''''''''''''''''''~~~~''''########''''~~~~''''''''''''''''''''''''''''''''''''''''''''''''''''''''''''''''~~~~~~~~~~~~####''''####((((::::____((((####^=^==== ",
".%===--=####((((____::::((((####''''####~~~~~~~~~~~~''''''''''''''''''''''''''''''''''''''''''''''''''''''''''''''''~~~~''''########''''~~~~''''''''''''''''''''''''''''''''''''''''''''''''''''''''''''''''~~~~~~~~~~~~####''''####((((::::____((((####--=^=== ",
".%=={{==####((((____::::((((####''''####~~~~~~~~~~~~~~~~~~~~''''''''''''''''''''''''''''''''''''''''''''''''''''''''~~~~''''########''''~~~~''''''''''''''''''''''''''''''''''''''''''''''''''''''''~~~~~~~~~~~~~~~~~~~~####''''####((((::::____((((####-=^==== ",
".%-=====####((((____::::((((####''''####~~~~~~~~~~~~~~~~~~~~''''''''''''''''''''''''''''''''''''''''''''''''''''''''~~~~''''########''''~~~~''''''''''''''''''''''''''''''''''''''''''''''''''''''''~~~~~~~~~~~~~~~~~~~~####''''####((((::::____((((####=======.",
".%====-=####((((____::::((((####''''####~~~~~~~~~~~~~~~~~~~~''''''''''''''''''''''''''''''''''''''''''''''''''''''''~~~~''''########''''~~~~''''''''''''''''''''''''''''''''''''''''''''''''''''''''~~~~~~~~~~~~~~~~~~~~####''''####((((::::____((((####===--==@",
".$====-=####((((____::::((((####''''####~~~~~~~~~~~~~~~~~~~~''''''''''''''''''''''''''''''''''''''''''''''''''''''''~~~~''''########''''~~~~''''''''''''''''''''''''''''''''''''''''''''''''''''''''~~~~~~~~~~~~~~~~~~~~####''''####((((::::____((((####=======@",
".$-===-=####((((____::::((((####''''####~~~~~~~~~~~~~~~~~~~~~~~~~~~~''''''''''''''''''''''''''''''''''''''''''''''''~~~~''''########''''~~~~''''''''''''''''''''''''''''''''''''''''''''''''~~~~~~~~~~~~~~~~~~~~~~~~~~~~####''''####((((::::____((((####=======+",
".$-===-=####((((____::::((((####''''####~~~~~~~~~~~~~~~~~~~~~~~~~~~~''''''''''''''''''''''''''''''''''''''''''''''''~~~~''''########''''~~~~''''''''''''''''''''''''''''''''''''''''''''''''~~~~~~~~~~~~~~~~~~~~~~~~~~~~####''''####((((::::____((((####^==-==! ",
".%-===-=####((((____::::((((####''''####~~~~~~~~~~~~~~~~~~~~~~~~~~~~''''''''''''''''''''''''''''''''''''''''''''''''~~~~''''########''''~~~~''''''''''''''''''''''''''''''''''''''''''''''''~~~~~~~~~~~~~~~~~~~~~~~~~~~~####''''####((((::::____((((####^-=-=== ",
" %-===-=####((((____::::((((####''''####~~~~~~~~~~~~~~~~~~~~~~~~~~~~''''''''''''''''''''''''''''''''''''''''''''''''~~~~''''########''''~~~~''''''''''''''''''''''''''''''''''''''''''''''''~~~~~~~~~~~~~~~~~~~~~~~~~~~~####''''####((((::::____((((####^-=-=== ",
" %====-=####((((____::::((((####''''####~~~~~~~~~~~~~~~~~~~~~~~~~~~~~~~~~~~~''''''''''''''''''''''''''''''''''''''''''''''''########''''''''''''''''''''''''''''''''''''''''''''''''~~~~~~~~~~~~~~~~~~~~~~~~~~~~~~~~~~~~####''''####((((::::____((((####^==-=-= ",
" %-=====####((((____::::((((####''''####~~~~~~~~~~~~~~~~~~~~~~~~~~~~~~~~~~~~''''''''''''''''''''''''''''''''''''''''''''''''########''''''''''''''''''''''''''''''''''''''''''''''''~~~~~~~~~~~~~~~~~~~~~~~~~~~~~~~~~~~~####''''####((((::::____((((####^====-=.",
" $-=-===####((((____::::((((####''''####~~~~~~~~~~~~~~~~~~~~~~~~~~~~~~~~~~~~''''''''''''''''''''''''''''''''''''''''''''''''########''''''''''''''''''''''''''''''''''''''''''''''''~~~~~~~~~~~~~~~~~~~~~~~~~~~~~~~~~~~~####''''####((((::::____((((####^====-=.",
" $-=-===####((((____::::((((####''''####~~~~~~~~~~~~~~~~~~~~~~~~~~~~~~~~~~~~''''''''''''''''''''''''''''''''''''''''''''''''########''''''''''''''''''''''''''''''''''''''''''''''''~~~~~~~~~~~~~~~~~~~~~~~~~~~~~~~~~~~~####''''####((((::::____((((####^====-= ",
" $======####((((____::::((((####''''####~~~~~~~~~~~~~~~~~~~~~~~~~~~~~~~~~~~~~~~~''''''''''''''''''''''''''''''''''''''''''''########''''''''''''''''''''''''''''''''''''''''''''~~~~~~~~~~~~~~~~~~~~~~~~~~~~~~~~~~~~~~~~####''''####((((::::____((((####-====-= ",
" %======####((((____::::((((####''''####~~~~~~~~~~~~~~~~~~~~~~~~~~~~~~~~~~~~~~~~''''''''''''''''''''''''''''''''''''''''''''########''''''''''''''''''''''''''''''''''''''''''''~~~~~~~~~~~~~~~~~~~~~~~~~~~~~~~~~~~~~~~~####''''####((((::::____((((####-==-=== ",
" $===-==####((((____::::((((####''''####~~~~~~~~~~~~~~~~~~~~~~~~~~~~~~~~~~~~~~~~''''''''''''''''''''''''''''''''''''''''''''########''''''''''''''''''''''''''''''''''''''''''''~~~~~~~~~~~~~~~~~~~~~~~~~~~~~~~~~~~~~~~~####''''####((((::::____((((####-======.",
".$=-=-=;####((((____::::((((####''''####~~~~~~~~~~~~~~~~~~~~~~~~~~~~~~~~~~~~~~~~''''''''''''''''''''''''''''''''''''''''''''########''''''''''''''''''''''''''''''''''''''''''''~~~~~~~~~~~~~~~~~~~~~~~~~~~~~~~~~~~~~~~~####''''####((((::::____((((####-======.",
".$=-=-==####((((____::::((((####''''############################################################################''''''''''''########''''''''''''############################################################################''''####((((::::____((((####==-=-=-.",
".$=-=-==####((((____::::((((####''''############################################################################''''''''''''########''''''''''''############################################################################''''####((((::::____((((####-===-=- ",
".$=-=-!=####((((____::::((((####''''############################################################################''''''''''''########''''''''''''############################################################################''''####((((::::____((((####-=-====.",
".$=-=-{=####((((____::::((((####''''############################################################################''''''''''''########''''''''''''############################################################################''''####((((::::____((((####-=-===-.",
".$=-=-;;####################''''''''''''''''''''''''''''''''''''''''''''''''''''''''''''''''''''''''''''''''''''''''''''''''########''''''''''''''''''''''''''''''''''''''''''''''''''''''''''''''''''''''''''''''''''''''''''''''''####################-=-=-=-.",
".$=-=-;;####################''''''''''''''''''''''''''''''''''''''''''''''''''''''''''''''''''''''''''''''''''''''''''''''''########''''''''''''''''''''''''''''''''''''''''''''''''''''''''''''''''''''''''''''''''''''''''''''''''####################-=-==== ",
".$=-=-=!####################''''''''''''''''''''''''''''''''''''''''''''''''''''''''''''''''''''''''''''''''''''''''''''''''########''''''''''''''''''''''''''''''''''''''''''''''''''''''''''''''''''''''''''''''''''''''''''''''''####################-=-==== ",
".$=-=-=;####################''''''''''''''''''''''''''''''''''''''''''''''''''''''''''''''''''''''''''''''''''''''''''''''''########''''''''''''''''''''''''''''''''''''''''''''''''''''''''''''''''''''''''''''''''''''''''''''''''####################===-=== ",
" $=-=-==####>>>>,,,,>>>>####''''''''################################################################################''''''''########''''''''################################################################################''''''''####>>>>,,,,>>>>####-=--==-.",
" $=-=-==####>>>>,,,,>>>>####''''''''################################################################################''''''''########''''''''################################################################################''''''''####>>>>,,,,>>>>####-==----.",
" $=-=-=-####>>>>,,,,>>>>####''''''''################################################################################''''''''########''''''''################################################################################''''''''####>>>>,,,,>>>>####====---.",
".$===-=-####>>>>,,,,>>>>####''''''''################################################################################''''''''########''''''''################################################################################''''''''####>>>>,,,,>>>>####==-=---.",
" $=-=-=-####>>>>,,,,>>>>####''''''''####eeeeeeeeeeeeeeeeeeeeeeeeeeeeeeeeeeeeeeeeeeeeeeeeeeeeeeeeeeeeeeeeeeeeeeee####''''''''########''''''''####eeeeeeeeeeeeeeeeeeeeeeeeeeeeeeeeeeeeeeeeeeeeeeeeeeeeeeeeeeeeeeeeeeeeeeee####''''''''####>>>>,,,,>>>>####==-=--= ",
" %=-=-==####>>>>,,,,>>>>####''''''''####eeeeeeeeeeeeeeeeeeeeeeeeeeeeeeeeeeeeeeeeeeeeeeeeeeeeeeeeeeeeeeeeeeeeeeee####''''''''########''''''''####eeeeeeeeeeeeeeeeeeeeeeeeeeeeeeeeeeeeeeeeeeeeeeeeeeeeeeeeeeeeeeeeeeeeeeee####''''''''####>>>>,,,,>>>>####===---- ",
" %=-=-=-####>>>>,,,,>>>>####''''''''####eeeeeeeeeeeeeeeeeeeeeeeeeeeeeeeeeeeeeeeeeeeeeeeeeeeeeeeeeeeeeeeeeeeeeeee####''''''''########''''''''####eeeeeeeeeeeeeeeeeeeeeeeeeeeeeeeeeeeeeeeeeeeeeeeeeeeeeeeeeeeeeeeeeeeeeeee####''''''''####>>>>,,,,>>>>####===---- ",
" %=====-####>>>>,,,,>>>>####''''''''####eeeeeeeeeeeeeeeeeeeeeeeeeeeeeeeeeeeeeeeeeeeeeeeeeeeeeeeeeeeeeeeeeeeeeeee####''''''''########''''''''####eeeeeeeeeeeeeeeeeeeeeeeeeeeeeeeeeeeeeeeeeeeeeeeeeeeeeeeeeeeeeeeeeeeeeeee####''''''''####>>>>,,,,>>>>####===----.",
".%=====-####>>>>>>>>>>>>####''''''''####ffffffffffffffffffffffffffffffffffffffffffffffffffffffffffffffffffffffff####''''''''########''''''''####ffffffffffffffffffffffffffffffffffffffffffffffffffffffffffffffffffffffff####''''''''####>>>>>>>>>>>>####-==----.",
".%-==-=-####>>>>>>>>>>>>####''''''''####ffffffffffffffffffffffffffffffffffffffffffffffffffffffffffffffffffffffff####''''''''########''''''''####ffffffffffffffffffffffffffffffffffffffffffffffffffffffffffffffffffffffff####''''''''####>>>>>>>>>>>>####-===-=-.",
".%-==-=)####>>>>>>>>>>>>####''''''''####ffffffffffffffffffffffffffffffffffffffffffffffffffffffffffffffffffffffff####''''''''########''''''''####ffffffffffffffffffffffffffffffffffffffffffffffffffffffffffffffffffffffff####''''''''####>>>>>>>>>>>>####===---=.",
".%-=--=-####>>>>>>>>>>>>####''''''''####ffffffffffffffffffffffffffffffffffffffffffffffffffffffffffffffffffffffff####''''''''########''''''''####ffffffffffffffffffffffffffffffffffffffffffffffffffffffffffffffffffffffff####''''''''####>>>>>>>>>>>>####-=-----.",
".%-=####>>>>>>>>,,,,>>>>>>>>####''''''''########################################################################''''''''''''########''''''''''''########################################################################''''''''####>>>>>>>>,,,,>>>>>>>>####---.",
".%-=####>>>>>>>>,,,,>>>>>>>>####''''''''########################################################################''''''''''''########''''''''''''########################################################################''''''''####>>>>>>>>,,,,>>>>>>>>####---.",
" %-=####>>>>>>>>,,,,>>>>>>>>####''''''''########################################################################''''''''''''########''''''''''''########################################################################''''''''####>>>>>>>>,,,,>>>>>>>>####---.",
" %-)####>>>>>>>>,,,,>>>>>>>>####''''''''########################################################################''''''''''''########''''''''''''########################################################################''''''''####>>>>>>>>,,,,>>>>>>>>####---.",
".$==####>>>>,,,,,,,,,,,,>>>>####''''''''''''''''''''''''''''''''''''''''''''''''''''''''''''''''''''''''''''''''''''''''''''########''''''''''''''''''''''''''''''''''''''''''''''''''''''''''''''''''''''''''''''''''''''''''''####>>>>,,,,,,,,,,,,>>>>####--- ",
" %==####>>>>,,,,,,,,,,,,>>>>####''''''''''''''''''''''''''''''''''''''''''''''''''''''''''''''''''''''''''''''''''''''''''''########''''''''''''''''''''''''''''''''''''''''''''''''''''''''''''''''''''''''''''''''''''''''''''####>>>>,,,,,,,,,,,,>>>>####--- ",
".%-=####>>>>,,,,,,,,,,,,>>>>####''''''''''''''''''''''''''''''''''''''''''''''''''''''''''''''''''''''''''''''''''''''''''''########''''''''''''''''''''''''''''''''''''''''''''''''''''''''''''''''''''''''''''''''''''''''''''####>>>>,,,,,,,,,,,,>>>>####--- ",
" %=-####>>>>,,,,,,,,,,,,>>>>####''''''''''''''''''''''''''''''''''''''''''''''''''''''''''''''''''''''''''''''''''''''''''''########''''''''''''''''''''''''''''''''''''''''''''''''''''''''''''''''''''''''''''''''''''''''''''####>>>>,,,,,,,,,,,,>>>>####---.",
".g==########################################################################################################################################################################################################################################################---.",
".%==########################################################################################################################################################################################################################################################---.",
".%--########################################################################################################################################################################################################################################################--= ",
" .. ######################################################################################################################################################################################################################################################## .. "};
