/* XPM */
static char * Door 4_xpm[] = {
"256 256 47 1",
" 	c None",
".	c #304F65",
"+	c #315065",
"@	c #335363",
"#	c #345363",
"$	c #1B1B1B",
"%	c #537389",
"&	c #527289",
"*	c #567787",
"=	c #547588",
"-	c #395E78",
";	c #3A5F78",
">	c #3E6376",
",	c #767474",
"'	c #C8C8C8",
")	c #897F75",
"!	c #3C6177",
"~	c #3D6276",
"{	c #524C46",
"]	c #3B6077",
"^	c #335264",
"/	c #3F6883",
"(	c #557688",
"_	c #43764F",
":	c #62A46A",
"<	c #81BF7C",
"[	c #3D6277",
"}	c #4998ED",
"|	c #A7DBFF",
"1	c #537388",
"2	c #35586E",
"3	c #577B93",
"4	c #3F667F",
"5	c #3F6781",
"6	c #3E657A",
"7	c #3F6780",
"8	c #3E6377",
"9	c #3E6479",
"0	c #3F667E",
"a	c #345466",
"b	c #35576C",
"c	c #3E6478",
"d	c #3E657C",
"e	c #345465",
"f	c #AD823C",
"g	c #E4AC50",
"h	c #557687",
".+++@#.+$$$$$$$$$$$$$$$$$$$$$$$$$$$$$$$$$$$$$$$$$$$$$$$$$$$$$$$$$$$$$$$$$$$$$$$$$$$$$$$$$$$$$$$$$$$$$$$$$$$$$$$$$$$$$$$$$$$$$$$$$$$$$$$$$$$$$$$$$$$$$$$$$$$$$$$$$$$$$$$$$$$$$$$$$$$$$$$$$$$$$$$$$$$$$$$$$$$$$$$$$$$$$$$$$$$$$$$$$$$$$$$$$$$$$$$$$$$$$$$$##+#++++",
".%%%&*&%$$$$$$$$$$$$$$$$$$$$$$$$$$$$$$$$$$$$$$$$$$$$$$$$$$$$$$$$$$$$$$$$$$$$$$$$$$$$$$$$$$$$$$$$$$$$$$$$$$$$$$$$$$$$$$$$$$$$$$$$$$$$$$$$$$$$$$$$$$$$$$$$$$$$$$$$$$$$$$$$$$$$$$$$$$$$$$$$$$$$$$$$$$$$$$$$$$$$$$$$$$$$$$$$$$$$$$$$$$$$$$$$$$$$$$$$$$$$$$$$=*%%%%%+",
".%-----;$$$$$$$$$$$$$$$$$$$$$$$$$$$$$$$$$$$$$$$$$$$$$$$$$$$$$$$$$$$$$$$$$$$$$$$$$$$$$$$$$$$$$$$$$$$$$$$$$$$$$$$$$$$$$$$$$$$$$$$$$$$$$$$$$$$$$$$$$$$$$$$$$$$$$$$$$$$$$$$$$$$$$$$$$$$$$$$$$$$$$$$$$$$$$$$$$$$$$$$$$$$$$$$$$$$$$$$$$$$$$$$$$$$$$$$$$$$$$$$$;>;;;;;+",
".%-----;$$$$$$$$$$$$$$$$$$$$$$$$$$$$$$$$$$$$$$$$$$$$$$$$$$$$$$$$$$$$$$$$$$$$$$$$$$$$$$$$$$$$$$$$$$$$$$$$$$$$$$$$$$$$$$$$$$$$$$$$$$$$$$$$$$$$$$$$$$$$$$$$$$$$$$$$$$$$$$$$$$$$$$$$$$$$$$$$$$$$$$$$$$$$$$$$$$$$$$$$$$$$$$$$$$$$$$$$$$$$$$$$$$$$$$$$$$$$$$$$;-;-;;;+",
".%-----;$$$$,,,,,,,,''''$$$$))))))))))))))))))))))))))))))))))))))))$$$$                                                                                                                $$$$))))))))))))))))))))))))))))))))))))))))$$$$'''',,,,,,,,$$$$----;;;+",
".%--;--;$$$$,,,,,,,,''''$$$$))))))))))))))))))))))))))))))))))))))))$$$$                                                                                                                $$$$))))))))))))))))))))))))))))))))))))))))$$$$'''',,,,,,,,$$$$--;!;;-+",
".%;-;--;$$$$,,,,,,,,''''$$$$))))))))))))))))))))))))))))))))))))))))$$$$                                                                                                                $$$$))))))))))))))))))))))))))))))))))))))))$$$$'''',,,,,,,,$$$$>>>>~;-+",
".%;-;---$$$$,,,,,,,,''''$$$$))))))))))))))))))))))))))))))))))))))))$$$$                                                                                                                $$$$))))))))))))))))))))))))))))))))))))))))$$$$'''',,,,,,,,$$$$!>-;;;;+",
".%;----;$$$$,,,,,,,,''''$$$$$$$$$$$$$$$$$$$$$$$$$$$$$$$$$$$$$$$$))))$$$$                                                                                                                $$$$))))$$$$$$$$$$$$$$$$$$$$$$$$$$$$$$$$$$$$$$$$'''',,,,,,,,$$$$!-;-;;-+",
".%;----;$$$$,,,,,,,,''''$$$$$$$$$$$$$$$$$$$$$$$$$$$$$$$$$$$$$$$$))))$$$$                                                                                                                $$$$))))$$$$$$$$$$$$$$$$$$$$$$$$$$$$$$$$$$$$$$$$'''',,,,,,,,$$$$--;;;;-+",
".%;;---;$$$$,,,,,,,,''''$$$$$$$$$$$$$$$$$$$$$$$$$$$$$$$$$$$$$$$$))))$$$$                                                                                                                $$$$))))$$$$$$$$$$$$$$$$$$$$$$$$$$$$$$$$$$$$$$$$'''',,,,,,,,$$$$-;;;;;-+",
".&;;;--;$$$$,,,,,,,,''''$$$$$$$$$$$$$$$$$$$$$$$$$$$$$$$$$$$$$$$$))))$$$$                                                                                                                $$$$))))$$$$$$$$$$$$$$$$$$$$$$$$$$$$$$$$$$$$$$$$'''',,,,,,,,$$$$--;;;;-+",
".&;;;--;$$$$,,,,,,,,''''$$$${{{{{{{{{{{{{{{{{{{{{{{{{{{{{{{{$$$$))))$$$$                                                                                                                $$$$))))$$$${{{{{{{{{{{{{{{{{{{{{{{{{{{{{{{{$$$$'''',,,,,,,,$$$$--;;;;-+",
".%;;----$$$$,,,,,,,,''''$$$${{{{{{{{{{{{{{{{{{{{{{{{{{{{{{{{$$$$))))$$$$                                                                                                                $$$$))))$$$${{{{{{{{{{{{{{{{{{{{{{{{{{{{{{{{$$$$'''',,,,,,,,$$$$--;;;;]+",
".%;;----$$$$,,,,,,,,''''$$$${{{{{{{{{{{{{{{{{{{{{{{{{{{{{{{{$$$$))))$$$$                                                                                                                $$$$))))$$$${{{{{{{{{{{{{{{{{{{{{{{{{{{{{{{{$$$$'''',,,,,,,,$$$$--;-;;;+",
"+%;;----$$$$,,,,,,,,''''$$$${{{{{{{{{{{{{{{{{{{{{{{{{{{{{{{{$$$$))))$$$$                                                                                                                $$$$))))$$$${{{{{{{{{{{{{{{{{{{{{{{{{{{{{{{{$$$$'''',,,,,,,,$$$$--;-;;;+",
"+&;;--;-$$$$,,,,,,,,''''$$$$)))){{{{{{{{{{{{{{{{{{{{{{{{{{{{$$$$))))$$$$                                                                                                                $$$$))))$$$${{{{{{{{{{{{{{{{{{{{{{{{{{{{))))$$$$'''',,,,,,,,$$$$-;-;;;;+",
"+%;---;;$$$$,,,,,,,,''''$$$$)))){{{{{{{{{{{{{{{{{{{{{{{{{{{{$$$$))))$$$$                                                                                                                $$$$))))$$$${{{{{{{{{{{{{{{{{{{{{{{{{{{{))))$$$$'''',,,,,,,,$$$$-;-;;;>+",
"+%;;--;;$$$$,,,,,,,,''''$$$$)))){{{{{{{{{{{{{{{{{{{{{{{{{{{{$$$$))))$$$$                                                                                                                $$$$))))$$$${{{{{{{{{{{{{{{{{{{{{{{{{{{{))))$$$$'''',,,,,,,,$$$$-;---;;+",
".&-;---;$$$$,,,,,,,,''''$$$$)))){{{{{{{{{{{{{{{{{{{{{{{{{{{{$$$$))))$$$$                                                                                                                $$$$))))$$$${{{{{{{{{{{{{{{{{{{{{{{{{{{{))))$$$$'''',,,,,,,,$$$$-----;;+",
"+&;;----$$$$,,,,,,,,''''$$$$)))))))){{{{{{{{{{{{{{{{{{{{{{{{$$$$))))$$$$                                                                                                                $$$$))))$$$${{{{{{{{{{{{{{{{{{{{{{{{))))))))$$$$'''',,,,,,,,$$$$---;;;;+",
"+%-;----$$$$,,,,,,,,''''$$$$)))))))){{{{{{{{{{{{{{{{{{{{{{{{$$$$))))$$$$                                                                                                                $$$$))))$$$${{{{{{{{{{{{{{{{{{{{{{{{))))))))$$$$'''',,,,,,,,$$$$---;;-;.",
"+&-;--;-$$$$,,,,,,,,''''$$$$)))))))){{{{{{{{{{{{{{{{{{{{{{{{$$$$))))$$$$                                                                                                                $$$$))))$$$${{{{{{{{{{{{{{{{{{{{{{{{))))))))$$$$'''',,,,,,,,$$$$--;;;--+",
"^&;;--;-$$$$,,,,,,,,''''$$$$)))))))){{{{{{{{{{{{{{{{{{{{{{{{$$$$))))$$$$                                                                                                                $$$$))))$$$${{{{{{{{{{{{{{{{{{{{{{{{))))))))$$$$'''',,,,,,,,$$$$--;-;;-+",
"+%>;--;-$$$$$$$$$$$$$$$$$$$$$$$$)))))))){{{{{{{{{{{{{{{{{{{{$$$$))))$$$$                                                                                                                $$$$))))$$$${{{{{{{{{{{{{{{{{{{{))))))))$$$$$$$$$$$$$$$$$$$$$$$$-/;-;;;.",
"+%;---;-$$$$$$$$$$$$$$$$$$$$$$$$)))))))){{{{{{{{{{{{{{{{{{{{$$$$))))$$$$                                                                                                                $$$$))))$$$${{{{{{{{{{{{{{{{{{{{))))))))$$$$$$$$$$$$$$$$$$$$$$$$-;;;;;;.",
"+(~-----$$$$$$$$$$$$$$$$$$$$$$$$)))))))){{{{{{{{{{{{{{{{{{{{$$$$))))$$$$                                                                                                                $$$$))))$$$${{{{{{{{{{{{{{{{{{{{))))))))$$$$$$$$$$$$$$$$$$$$$$$$;;---;;.",
"+*>>;---$$$$$$$$$$$$$$$$$$$$$$$$)))))))){{{{{{{{{{{{{{{{{{{{$$$$))))$$$$                                                                                                                $$$$))))$$$${{{{{{{{{{{{{{{{{{{{))))))))$$$$$$$$$$$$$$$$$$$$$$$$;;-/--;.",
"+*;>----$$$$____::::<<<<____$$$$)))))))))))){{{{{{{{{{{{{{{{$$$$))))$$$$                                                                                                                $$$$))))$$$${{{{{{{{{{{{{{{{))))))))))))$$$$____<<<<::::____$$$$;-;;;;;.",
"+&;---;-$$$$____::::<<<<____$$$$)))))))))))){{{{{{{{{{{{{{{{$$$$))))$$$$                                                                                                                $$$$))))$$$${{{{{{{{{{{{{{{{))))))))))))$$$$____<<<<::::____$$$$;-;;;;;.",
"+%;---;-$$$$____::::<<<<____$$$$)))))))))))){{{{{{{{{{{{{{{{$$$$))))$$$$                                                                                                                $$$$))))$$$${{{{{{{{{{{{{{{{))))))))))))$$$$____<<<<::::____$$$$;-;;;-;.",
"+%;---;;$$$$____::::<<<<____$$$$)))))))))))){{{{{{{{{{{{{{{{$$$$))))$$$$                                                                                                                $$$$))))$$$${{{{{{{{{{{{{{{{))))))))))))$$$$____<<<<::::____$$$$;-;;;;;.",
"+%----;-$$$$____::::<<<<____$$$$)))))))))))))))){{{{{{{{{{{{$$$$))))$$$$                                                                                                                $$$$))))$$$${{{{{{{{{{{{))))))))))))))))$$$$____<<<<::::____$$$$;-;;;;-.",
"+%----;-$$$$____::::<<<<____$$$$)))))))))))))))){{{{{{{{{{{{$$$$))))$$$$                                                                                                                $$$$))))$$$${{{{{{{{{{{{))))))))))))))))$$$$____<<<<::::____$$$$;--;;;-.",
"+%----;-$$$$____::::<<<<____$$$$)))))))))))))))){{{{{{{{{{{{$$$$))))$$$$                                                                                                                $$$$))))$$$${{{{{{{{{{{{))))))))))))))))$$$$____<<<<::::____$$$$;-;;-;-.",
"+&------$$$$____::::<<<<____$$$$)))))))))))))))){{{{{{{{{{{{$$$$))))$$$$                                                                                                                $$$$))))$$$${{{{{{{{{{{{))))))))))))))))$$$$____<<<<::::____$$$$;--;-;;.",
"+&------$$$$____::::<<<<____$$$$)))))))))))))))))))){{{{{{{{$$$$))))$$$$                                                                                                                $$$$))))$$$${{{{{{{{))))))))))))))))))))$$$$____<<<<::::____$$$$;-;-;;;.",
"+&------$$$$____::::<<<<____$$$$)))))))))))))))))))){{{{{{{{$$$$))))$$$$                                                                                                                $$$$))))$$$${{{{{{{{))))))))))))))))))))$$$$____<<<<::::____$$$$;-;-;-;.",
"+&------$$$$____::::<<<<____$$$$)))))))))))))))))))){{{{{{{{$$$$))))$$$$                                                                                                                $$$$))))$$$${{{{{{{{))))))))))))))))))))$$$$____<<<<::::____$$$$;-;---;.",
"+%------$$$$____::::<<<<____$$$$)))))))))))))))))))){{{{{{{{$$$$))))$$$$                                                                                                                $$$$))))$$$${{{{{{{{))))))))))))))))))))$$$$____<<<<::::____$$$$--;--;;.",
"+%;-----$$$$____::::<<<<____$$$$)))))))))))))))))))))))){{{{$$$$))))$$$$                                                                                                                $$$$))))$$$${{{{))))))))))))))))))))))))$$$$____<<<<::::____$$$$--;;-;-.",
"+%>--;-;$$$$____::::<<<<____$$$$)))))))))))))))))))))))){{{{$$$$))))$$$$                                                                                                                $$$$))))$$$${{{{))))))))))))))))))))))))$$$$____<<<<::::____$$$$---;;;;.",
"+&-~-;--$$$$____::::<<<<____$$$$)))))))))))))))))))))))){{{{$$$$))))$$$$                                                                                                                $$$$))))$$$${{{{))))))))))))))))))))))))$$$$____<<<<::::____$$$$--;;;;-+",
"+%---;--$$$$____::::<<<<____$$$$)))))))))))))))))))))))){{{{$$$$))))$$$$                                                                                                                $$$$))))$$$${{{{))))))))))))))))))))))))$$$$____<<<<::::____$$$$---;---+",
"+%------$$$$____::::<<<<____$$$$))))))))))))))))))))))))))))$$$$))))$$$$                                                                                                                $$$$))))$$$$))))))))))))))))))))))))))))$$$$____<<<<::::____$$$$---;---+",
"+&------$$$$____::::<<<<____$$$$))))))))))))))))))))))))))))$$$$))))$$$$                                                                                                                $$$$))))$$$$))))))))))))))))))))))))))))$$$$____<<<<::::____$$$$-------.",
"+&-----;$$$$____::::<<<<____$$$$))))))))))))))))))))))))))))$$$$))))$$$$                                                                                                                $$$$))))$$$$))))))))))))))))))))))))))))$$$$____<<<<::::____$$$$-------.",
"+%------$$$$____::::<<<<____$$$$))))))))))))))))))))))))))))$$$$))))$$$$                                                                                                                $$$$))))$$$$))))))))))))))))))))))))))))$$$$____<<<<::::____$$$$-;-;---.",
"+%---;--$$$$____::::<<<<____$$$$))))))))))))))))))))))))))))$$$$))))$$$$                                                                                                                $$$$))))$$$$))))))))))))))))))))))))))))$$$$____<<<<::::____$$$$;------.",
"+%---;-;$$$$____::::<<<<____$$$$))))))))))))))))))))))))))))$$$$))))$$$$                                                                                                                $$$$))))$$$$))))))))))))))))))))))))))))$$$$____<<<<::::____$$$$;------.",
"+%---;--$$$$____::::<<<<____$$$$))))))))))))))))))))))))))))$$$$))))$$$$                                                                                                                $$$$))))$$$$))))))))))))))))))))))))))))$$$$____<<<<::::____$$$$;;;;---+",
"+&--;;--$$$$____::::<<<<____$$$$))))))))))))))))))))))))))))$$$$))))$$$$                                                                                                                $$$$))))$$$$))))))))))))))))))))))))))))$$$$____<<<<::::____$$$$--;;---+",
".&--;;--$$$$$$$$$$$$$$$$$$$$$$$$$$$$$$$$))))))))))))))))))))$$$$))))$$$$                                                                                                                $$$$))))$$$$))))))))))))))))))))$$$$$$$$$$$$$$$$$$$$$$$$$$$$$$$$--;;---+",
".&--;---$$$$$$$$$$$$$$$$$$$$$$$$$$$$$$$$))))))))))))))))))))$$$$))))$$$$                                                                                                                $$$$))))$$$$))))))))))))))))))))$$$$$$$$$$$$$$$$$$$$$$$$$$$$$$$$;-;;---+",
".&------$$$$$$$$$$$$$$$$$$$$$$$$$$$$$$$$))))))))))))))))))))$$$$))))$$$$                                                                                                                $$$$))))$$$$))))))))))))))))))))$$$$$$$$$$$$$$$$$$$$$$$$$$$$$$$$;;;;;;;+",
".&--;--;$$$$$$$$$$$$$$$$$$$$$$$$$$$$$$$$))))))))))))))))))))$$$$))))$$$$                                                                                                                $$$$))))$$$$))))))))))))))))))))$$$$$$$$$$$$$$$$$$$$$$$$$$$$$$$$/;;;;;;+",
".&--;--;$$$$____::::::::::::::::<<<<____$$$$))))))))))))))))$$$$))))$$$$                                                                                                                $$$$))))$$$$))))))))))))))))$$$$____<<<<::::::::::::::::____$$$$/;;;---+",
"+%--;--;$$$$____::::::::::::::::<<<<____$$$$))))))))))))))))$$$$))))$$$$                                                                                                                $$$$))))$$$$))))))))))))))))$$$$____<<<<::::::::::::::::____$$$$/;-;-;-.",
"+%------$$$$____::::::::::::::::<<<<____$$$$))))))))))))))))$$$$))))$$$$                                                                                                                $$$$))))$$$$))))))))))))))))$$$$____<<<<::::::::::::::::____$$$$/;-;---.",
"+&--;---$$$$____::::::::::::::::<<<<____$$$$))))))))))))))))$$$$))))$$$$                                                                                                                $$$$))))$$$$))))))))))))))))$$$$____<<<<::::::::::::::::____$$$$/-----;.",
".&--;---$$$$____$$$$$$$$$$$$$$$$$$$$____$$$$))))))))))))))))$$$$))))$$$$                                                                                                                $$$$))))$$$$))))))))))))))))$$$$____$$$$$$$$$$$$$$$$$$$$____$$$$------;+",
".%--;---$$$$____$$$$$$$$$$$$$$$$$$$$____$$$$))))))))))))))))$$$$))))$$$$                                                                                                                $$$$))))$$$$))))))))))))))))$$$$____$$$$$$$$$$$$$$$$$$$$____$$$$;;-;--;+",
".%--;---$$$$____$$$$$$$$$$$$$$$$$$$$____$$$$))))))))))))))))$$$$))))$$$$                                                                                                                $$$$))))$$$$))))))))))))))))$$$$____$$$$$$$$$$$$$$$$$$$$____$$$$;;-;--;.",
".%--;-[-$$$$____$$$$$$$$$$$$$$$$$$$$____$$$$))))))))))))))))$$$$))))$$$$                                                                                                                $$$$))))$$$$))))))))))))))))$$$$____$$$$$$$$$$$$$$$$$$$$____$$$$/--;---.",
".%--;->>$$$$____$$$$}}}}}}}}}}}}$$$$____$$$$))))))))))))))))$$$$))))$$$$                                                                                                                $$$$))))$$$$))))))))))))))))$$$$____$$$$}}}}}}}}}}}}$$$$____$$$$;--;---.",
".%--;->>$$$$____$$$$}}}}}}}}}}}}$$$$____$$$$))))))))))))))))$$$$))))$$$$                                                                                                                $$$$))))$$$$))))))))))))))))$$$$____$$$$}}}}}}}}}}}}$$$$____$$$$/--;---.",
".%--;->>$$$$____$$$$}}}}}}}}}}}}$$$$____$$$$))))))))))))))))$$$$))))$$$$                                                                                                                $$$$))))$$$$))))))))))))))))$$$$____$$$$}}}}}}}}}}}}$$$$____$$$$;--;-;;.",
".%--;---$$$$____$$$$}}}}}}}}}}}}$$$$____$$$$))))))))))))))))$$$$))))$$$$                                                                                                                $$$$))))$$$$))))))))))))))))$$$$____$$$$}}}}}}}}}}}}$$$$____$$$$;--;--;.",
".&;-;---$$$$____$$$$}}}}||||}}}}$$$$____$$$$))))))))))))))))$$$$))))$$$$                                                                                                                $$$$))))$$$$))))))))))))))))$$$$____$$$$}}}}||||}}}}$$$$____$$$$/-----;.",
".&;-----$$$$____$$$$}}}}||||}}}}$$$$____$$$$))))))))))))))))$$$$))))$$$$                                                                                                                $$$$))))$$$$))))))))))))))))$$$$____$$$$}}}}||||}}}}$$$$____$$$$/>-----.",
".&;-----$$$$____$$$$}}}}||||}}}}$$$$____$$$$))))))))))))))))$$$$))))$$$$                                                                                                                $$$$))))$$$$))))))))))))))))$$$$____$$$$}}}}||||}}}}$$$$____$$$$/----;;.",
"+&------$$$$____$$$$}}}}||||}}}}$$$$____$$$$))))))))))))))))$$$$))))$$$$                                                                                                                $$$$))))$$$$))))))))))))))))$$$$____$$$$}}}}||||}}}}$$$$____$$$$/;---;;.",
"+&------$$$$____$$$$}}}}||||}}}}$$$$____$$$$))))))))))))))))$$$$))))$$$$                                                                                                                $$$$))))$$$$))))))))))))))))$$$$____$$$$}}}}||||}}}}$$$$____$$$$;;---;;.",
".&--;---$$$$____$$$$}}}}||||}}}}$$$$____$$$$))))))))))))))))$$$$))))$$$$                                                                                                                $$$$))))$$$$))))))))))))))))$$$$____$$$$}}}}||||}}}}$$$$____$$$$;;---;;.",
"+&--;-;-$$$$____$$$$}}}}||||}}}}$$$$____$$$$))))))))))))))))$$$$))))$$$$                                                                                                                $$$$))))$$$$))))))))))))))))$$$$____$$$$}}}}||||}}}}$$$$____$$$$;----;-.",
"+&--;-;-$$$$____$$$$}}}}||||}}}}$$$$____$$$$))))))))))))))))$$$$))))$$$$                                                                                                                $$$$))))$$$$))))))))))))))))$$$$____$$$$}}}}||||}}}}$$$$____$$$$;----;-.",
"+&--;-;-$$$$____$$$$}}}}||||}}}}$$$$____$$$$))))))))))))))))))))))))$$$$                                                                                                                $$$$))))))))))))))))))))))))$$$$____$$$$}}}}||||}}}}$$$$____$$$$/----;;.",
"+&--;--;$$$$____$$$$}}}}||||}}}}$$$$____$$$$))))))))))))))))))))))))$$$$                                                                                                                $$$$))))))))))))))))))))))))$$$$____$$$$}}}}||||}}}}$$$$____$$$$/----;;.",
"+&--;--;$$$$____$$$$}}}}||||}}}}$$$$____$$$$))))))))))))))))))))))))$$$$                                                                                                                $$$$))))))))))))))))))))))))$$$$____$$$$}}}}||||}}}}$$$$____$$$$----;;;.",
"+&--;-;;$$$$____$$$$}}}}||||}}}}$$$$____$$$$))))))))))))))))))))))))$$$$                                                                                                                $$$$))))))))))))))))))))))))$$$$____$$$$}}}}||||}}}}$$$$____$$$$/---;;;+",
"+&----;;$$$$____$$$$}}}}||||}}}}$$$$____$$$$))))))))))))))))))))))))$$$$                                                                                                                $$$$))))))))))))))))))))))))$$$$____$$$$}}}}||||}}}}$$$$____$$$$/---;;;.",
"+&-----;$$$$____$$$$}}}}||||}}}}$$$$____$$$$))))))))))))))))))))))))$$$$                                                                                                                $$$$))))))))))))))))))))))))$$$$____$$$$}}}}||||}}}}$$$$____$$$$/----;;+",
"+&-----;$$$$____$$$$}}}}||||}}}}$$$$____$$$$))))))))))))))))))))))))$$$$                                                                                                                $$$$))))))))))))))))))))))))$$$$____$$$$}}}}||||}}}}$$$$____$$$$/----;-+",
".&------$$$$____$$$$}}}}||||}}}}$$$$____$$$$))))))))))))))))))))))))$$$$                                                                                                                $$$$))))))))))))))))))))))))$$$$____$$$$}}}}||||}}}}$$$$____$$$$---;-;-.",
".&------$$$$____$$$$}}}}||||}}}}$$$$____$$$$))))))))))))))))))))$$$$$$$$                                                                                                                $$$$$$$$))))))))))))))))))))$$$$____$$$$}}}}||||}}}}$$$$____$$$$---;-;-+",
".&-----;$$$$____$$$$}}}}||||}}}}$$$$____$$$$))))))))))))))))))))$$$$$$$$                                                                                                                $$$$$$$$))))))))))))))))))))$$$$____$$$$}}}}||||}}}}$$$$____$$$$/--;-;-+",
".&-----;$$$$____$$$$}}}}||||}}}}$$$$____$$$$))))))))))))))))))))$$$$$$$$                                                                                                                $$$$$$$$))))))))))))))))))))$$$$____$$$$}}}}||||}}}}$$$$____$$$$/--;---+",
".&------$$$$____$$$$}}}}||||}}}}$$$$____$$$$))))))))))))))))))))$$$$$$$$                                                                                                                $$$$$$$$))))))))))))))))))))$$$$____$$$$}}}}||||}}}}$$$$____$$$$/--;---+",
".&------$$$$____$$$$}}}}||||}}}}$$$$____$$$$))))))))))))))))$$$$____$$$$                                                                                                                $$$$____$$$$))))))))))))))))$$$$____$$$$}}}}||||}}}}$$$$____$$$$/------.",
".&------$$$$____$$$$}}}}||||}}}}$$$$____$$$$))))))))))))))))$$$$____$$$$                                                                                                                $$$$____$$$$))))))))))))))))$$$$____$$$$}}}}||||}}}}$$$$____$$$$/------.",
".&-----;$$$$____$$$$}}}}||||}}}}$$$$____$$$$))))))))))))))))$$$$____$$$$                                                                                                                $$$$____$$$$))))))))))))))))$$$$____$$$$}}}}||||}}}}$$$$____$$$$/----~>#",
"#1-----;$$$$____$$$$}}}}||||}}}}$$$$____$$$$))))))))))))))))$$$$____$$$$                                                                                                                $$$$____$$$$))))))))))))))))$$$$____$$$$}}}}||||}}}}$$$$____$$$$/-!;>;>#",
"#*-----;$$$$____$$$$}}}}||||}}}}$$$$____$$$$))))))))))))$$$$____::::$$$$                                                                                                                $$$$::::____$$$$))))))))))))$$$$____$$$$}}}}||||}}}}$$$$____$$$$/->;>;>#",
".&------$$$$____$$$$}}}}||||}}}}$$$$____$$$$))))))))))))$$$$____::::$$$$                                                                                                                $$$$::::____$$$$))))))))))))$$$$____$$$$}}}}||||}}}}$$$$____$$$$/->;>;>+",
".&-----;$$$$____$$$$}}}}||||}}}}$$$$____$$$$))))))))))))$$$$____::::$$$$                                                                                                                $$$$::::____$$$$))))))))))))$$$$____$$$$}}}}||||}}}}$$$$____$$$$/--;;;>+",
".&-----;$$$$____$$$$}}}}||||}}}}$$$$____$$$$))))))))))))$$$$____::::$$$$                                                                                                                $$$$::::____$$$$))))))))))))$$$$____$$$$}}}}||||}}}}$$$$____$$$$/---;;;+",
".&-----;$$$$____$$$$}}}}||||}}}}$$$$____$$$$))))))))$$$$____::::::::$$$$                                                                                                                $$$$::::::::____$$$$))))))))$$$$____$$$$}}}}||||}}}}$$$$____$$$$/---;--.",
".&-----;$$$$____$$$$}}}}||||}}}}$$$$____$$$$))))))))$$$$____::::::::$$$$                                                                                                                $$$$::::::::____$$$$))))))))$$$$____$$$$}}}}||||}}}}$$$$____$$$$----;--.",
".&-----;$$$$____$$$$}}}}||||}}}}$$$$____$$$$))))))))$$$$____::::::::$$$$                                                                                                                $$$$::::::::____$$$$))))))))$$$$____$$$$}}}}||||}}}}$$$$____$$$$----;--.",
".&-----;$$$$____$$$$}}}}||||}}}}$$$$____$$$$))))))))$$$$____::::::::$$$$                                                                                                                $$$$::::::::____$$$$))))))))$$$$____$$$$}}}}||||}}}}$$$$____$$$$--;;;--.",
".&------$$$$____$$$$}}}}||||}}}}$$$$____$$$$))))))))$$$$____$$$$$$$$$$$$                                                                                                                $$$$$$$$$$$$____$$$$))))))))$$$$____$$$$}}}}||||}}}}$$$$____$$$$-------.",
".&------$$$$____$$$$}}}}||||}}}}$$$$____$$$$))))))))$$$$____$$$$$$$$$$$$                                                                                                                $$$$$$$$$$$$____$$$$))))))))$$$$____$$$$}}}}||||}}}}$$$$____$$$$------;.",
".&------$$$$____$$$$}}}}||||}}}}$$$$____$$$$))))))))$$$$____$$$$$$$$$$$$                                                                                                                $$$$$$$$$$$$____$$$$))))))))$$$$____$$$$}}}}||||}}}}$$$$____$$$$--;-;-;.",
".&-----;$$$$____$$$$}}}}||||}}}}$$$$____$$$$))))))))$$$$____$$$$$$$$$$$$                                                                                                                $$$$$$$$$$$$____$$$$))))))))$$$$____$$$$}}}}||||}}}}$$$$____$$$$--;-;-;.",
".&------$$$$____$$$$}}}}||||}}}}$$$$____$$$$))))))))$$$$____$$$$<<<<$$$$                                                                                                                $$$$<<<<$$$$____$$$$))))))))$$$$____$$$$}}}}||||}}}}$$$$____$$$$----;-;.",
".&------$$$$____$$$$}}}}||||}}}}$$$$____$$$$))))))))$$$$____$$$$<<<<$$$$                                                                                                                $$$$<<<<$$$$____$$$$))))))))$$$$____$$$$}}}}||||}}}}$$$$____$$$$----;-;.",
".&------$$$$____$$$$}}}}||||}}}}$$$$____$$$$))))))))$$$$____$$$$<<<<$$$$                                                                                                                $$$$<<<<$$$$____$$$$))))))))$$$$____$$$$}}}}||||}}}}$$$$____$$$$----;-;.",
".&------$$$$____$$$$}}}}||||}}}}$$$$____$$$$))))))))$$$$____$$$$<<<<$$$$                                                                                                                $$$$<<<<$$$$____$$$$))))))))$$$$____$$$$}}}}||||}}}}$$$$____$$$$----;-;.",
".&------$$$$____$$$$}}}}}}}}}}}}$$$$____$$$$))))))))$$$$____$$$$<<<<$$$$                                                                                                                $$$$<<<<$$$$____$$$$))))))))$$$$____$$$$}}}}}}}}}}}}$$$$____$$$$----;-;.",
".&------$$$$____$$$$}}}}}}}}}}}}$$$$____$$$$))))))))$$$$____$$$$<<<<$$$$                                                                                                                $$$$<<<<$$$$____$$$$))))))))$$$$____$$$$}}}}}}}}}}}}$$$$____$$$$--;-;-;.",
".&------$$$$____$$$$}}}}}}}}}}}}$$$$____$$$$))))))))$$$$____$$$$<<<<$$$$                                                                                                                $$$$<<<<$$$$____$$$$))))))))$$$$____$$$$}}}}}}}}}}}}$$$$____$$$$--;-;--.",
".&------$$$$____$$$$}}}}}}}}}}}}$$$$____$$$$))))))))$$$$____$$$$<<<<$$$$                                                                                                                $$$$<<<<$$$$____$$$$))))))))$$$$____$$$$}}}}}}}}}}}}$$$$____$$$$--;-;--.",
"2&-----;$$$$____$$$$$$$$$$$$$$$$$$$$____$$$$))))))))$$$$____$$$$<<<<$$$$                                                                                                                $$$$<<<<$$$$____$$$$))))))))$$$$____$$$$$$$$$$$$$$$$$$$$____$$$$--;-;--.",
"2&-----;$$$$____$$$$$$$$$$$$$$$$$$$$____$$$$))))))))$$$$____$$$$<<<<$$$$                                                                                                                $$$$<<<<$$$$____$$$$))))))))$$$$____$$$$$$$$$$$$$$$$$$$$____$$$$--;-;--2",
"2&------$$$$____$$$$$$$$$$$$$$$$$$$$____$$$$))))))))$$$$____$$$$<<<<$$$$                                                                                                                $$$$<<<<$$$$____$$$$))))))))$$$$____$$$$$$$$$$$$$$$$$$$$____$$$$-------2",
"2&------$$$$____$$$$$$$$$$$$$$$$$$$$____$$$$))))))))$$$$____$$$$<<<<$$$$                                                                                                                $$$$<<<<$$$$____$$$$))))))))$$$$____$$$$$$$$$$$$$$$$$$$$____$$$$-------2",
"2&------$$$$____::::::::::::::::<<<<____$$$$))))))))$$$$____$$$$<<<<$$$$                                                                                                                $$$$<<<<$$$$____$$$$))))))))$$$$____<<<<::::::::::::::::____$$$$---/;--2",
"2&------$$$$____::::::::::::::::<<<<____$$$$))))))))$$$$____$$$$<<<<$$$$                                                                                                                $$$$<<<<$$$$____$$$$))))))))$$$$____<<<<::::::::::::::::____$$$$---/;/;.",
"2&------$$$$____::::::::::::::::<<<<____$$$$))))))))$$$$____$$$$<<<<$$$$                                                                                                                $$$$<<<<$$$$____$$$$))))))))$$$$____<<<<::::::::::::::::____$$$$-;-/;/;.",
"2&------$$$$____::::::::::::::::<<<<____$$$$))))))))$$$$____$$$$<<<<$$$$                                                                                                                $$$$<<<<$$$$____$$$$))))))))$$$$____<<<<::::::::::::::::____$$$$-;-/;//2",
"2&------$$$$____::::::::::::<<<<____$$$$))))))))))))$$$$____$$$$<<<<$$$$                                                                                                                $$$$<<<<$$$$____$$$$))))))))))))$$$$____<<<<::::::::::::____$$$$/;//;//2",
"2&------$$$$____::::::::::::<<<<____$$$$))))))))))))$$$$____$$$$<<<<$$$$                                                                                                                $$$$<<<<$$$$____$$$$))))))))))))$$$$____<<<<::::::::::::____$$$$-;//;/;2",
"2&------$$$$____::::::::::::<<<<____$$$$))))))))))))$$$$____$$$$<<<<$$$$                                                                                                                $$$$<<<<$$$$____$$$$))))))))))))$$$$____<<<<::::::::::::____$$$$-;-/;//2",
"2&-----/$$$$____::::::::::::<<<<____$$$$))))))))))))$$$$____$$$$<<<<$$$$                                                                                                                $$$$<<<<$$$$____$$$$))))))))))))$$$$____<<<<::::::::::::____$$$$/;-////2",
"2&------$$$$____::::::::<<<<____$$$$))))))))))))))))$$$$____$$$$<<<<$$$$                                                                                                                $$$$<<<<$$$$____$$$$))))))))))))))))$$$$____<<<<::::::::____$$$$/----//2",
"2&------$$$$____::::::::<<<<____$$$$))))))))))))))))$$$$____$$$$<<<<$$$$                                                                                                                $$$$<<<<$$$$____$$$$))))))))))))))))$$$$____<<<<::::::::____$$$$----///2",
".&------$$$$____::::::::<<<<____$$$$))))))))))))))))$$$$____$$$$<<<<$$$$                                                                                                                $$$$<<<<$$$$____$$$$))))))))))))))))$$$$____<<<<::::::::____$$$$----///2",
".&------$$$$____::::::::<<<<____$$$$))))))))))))))))$$$$____$$$$<<<<$$$$                                                                                                                $$$$<<<<$$$$____$$$$))))))))))))))))$$$$____<<<<::::::::____$$$$---////.",
".&------$$$$____::::<<<<____$$$$))))))))))))))))))))$$$$____$$$$<<<<$$$$                                                                                                                $$$$<<<<$$$$____$$$$))))))))))))))))))))$$$$____<<<<::::____$$$$///////2",
"2&--;---$$$$____::::<<<<____$$$$))))))))))))))))))))$$$$____$$$$<<<<$$$$                                                                                                                $$$$<<<<$$$$____$$$$))))))))))))))))))))$$$$____<<<<::::____$$$$///////2",
"2&--;---$$$$____::::<<<<____$$$$))))))))))))))))))))$$$$____$$$$<<<<$$$$                                                                                                                $$$$<<<<$$$$____$$$$))))))))))))))))))))$$$$____<<<<::::____$$$$///////2",
"2&------$$$$____::::<<<<____$$$$))))))))))))))))))))$$$$____$$$$<<<<$$$$                                                                                                                $$$$<<<<$$$$____$$$$))))))))))))))))))))$$$$____<<<<::::____$$$$/;/////2",
".&------$$$$____::::<<<<____$$$$))))))))))))))))))))$$$$____$$$$$$$$$$$$                                                                                                                $$$$$$$$$$$$____$$$$))))))))))))))))))))$$$$____<<<<::::____$$$$////--/+",
"2&------$$$$____::::<<<<____$$$$))))))))))))))))))))$$$$____$$$$$$$$$$$$                                                                                                                $$$$$$$$$$$$____$$$$))))))))))))))))))))$$$$____<<<<::::____$$$$///---/+",
"2&------$$$$____::::<<<<____$$$$))))))))))))))))))))$$$$____$$$$$$$$$$$$                                                                                                                $$$$$$$$$$$$____$$$$))))))))))))))))))))$$$$____<<<<::::____$$$$///----2",
"23------$$$$____::::<<<<____$$$$))))))))))))))))))))$$$$____$$$$$$$$$$$$                                                                                                                $$$$$$$$$$$$____$$$$))))))))))))))))))))$$$$____<<<<::::____$$$$///----2",
"23------$$$$____::::<<<<____$$$$))))))))))))))))))))$$$$____::::::::$$$$                                                                                                                $$$$::::::::____$$$$))))))))))))))))))))$$$$____<<<<::::____$$$$45/////2",
"2&------$$$$____::::<<<<____$$$$))))))))))))))))))))$$$$____::::::::$$$$                                                                                                                $$$$::::::::____$$$$))))))))))))))))))))$$$$____<<<<::::____$$$$67/////2",
"2&------$$$$____::::<<<<____$$$$))))))))))))))))))))$$$$____::::::::$$$$                                                                                                                $$$$::::::::____$$$$))))))))))))))))))))$$$$____<<<<::::____$$$$>>8////2",
"23------$$$$____::::<<<<____$$$$))))))))))))))))))))$$$$____::::::::$$$$                                                                                                                $$$$::::::::____$$$$))))))))))))))))))))$$$$____<<<<::::____$$$$>>//-//2",
"+&------$$$$____::::<<<<____$$$$))))))))))))))))))))))))$$$$$$$$$$$$$$$$                                                                                                                $$$$$$$$$$$$$$$$))))))))))))))))))))))))$$$$____<<<<::::____$$$$>97////2",
"2&------$$$$____::::<<<<____$$$$))))))))))))))))))))))))$$$$$$$$$$$$$$$$                                                                                                                $$$$$$$$$$$$$$$$))))))))))))))))))))))))$$$$____<<<<::::____$$$$>///7//2",
"2&------$$$$____::::<<<<____$$$$))))))))))))))))))))))))$$$$$$$$$$$$$$$$                                                                                                                $$$$$$$$$$$$$$$$))))))))))))))))))))))))$$$$____<<<<::::____$$$$0/////;2",
"2&------$$$$____::::<<<<____$$$$))))))))))))))))))))))))$$$$$$$$$$$$$$$$                                                                                                                $$$$$$$$$$$$$$$$))))))))))))))))))))))))$$$$____<<<<::::____$$$$///////2",
"a&------$$$$____::::<<<<____$$$$))))))))))))))))))))))))))))))))))))$$$$                                                                                                                $$$$))))))))))))))))))))))))))))))))))))$$$$____<<<<::::____$$$$//////;2",
"b&------$$$$____::::<<<<____$$$$))))))))))))))))))))))))))))))))))))$$$$                                                                                                                $$$$))))))))))))))))))))))))))))))))))))$$$$____<<<<::::____$$$$//////;2",
"2&---/;-$$$$____::::<<<<____$$$$))))))))))))))))))))))))))))))))))))$$$$                                                                                                                $$$$))))))))))))))))))))))))))))))))))))$$$$____<<<<::::____$$$$///////2",
"2&----;-$$$$____::::<<<<____$$$$))))))))))))))))))))))))))))))))))))$$$$                                                                                                                $$$$))))))))))))))))))))))))))))))))))))$$$$____<<<<::::____$$$$c-////-2",
"2&-/--;-$$$$____::::<<<<____$$$$)))))))))))))))))))))))))))){{{{))))$$$$                                                                                                                $$$$)))){{{{))))))))))))))))))))))))))))$$$$____<<<<::::____$$$$d-/////2",
"2&-/----$$$$____::::<<<<____$$$$)))))))))))))))))))))))))))){{{{))))$$$$                                                                                                                $$$$)))){{{{))))))))))))))))))))))))))))$$$$____<<<<::::____$$$$--/////2",
"2&----//$$$$____::::<<<<____$$$$)))))))))))))))))))))))))))){{{{))))$$$$                                                                                                                $$$$)))){{{{))))))))))))))))))))))))))))$$$$____<<<<::::____$$$$///////2",
"#*;---/-$$$$____::::<<<<____$$$$)))))))))))))))))))))))))))){{{{))))$$$$                                                                                                                $$$$)))){{{{))))))))))))))))))))))))))))$$$$____<<<<::::____$$$$///////e",
".&;-----$$$$____::::<<<<____$$$$)))))))))))))))))))))))))))){{{{))))$$$$                                                                                                                $$$$)))){{{{))))))))))))))))))))))))))))$$$$____<<<<::::____$$$$///////2",
".&------$$$$____::::<<<<____$$$$)))))))))))))))))))))))))))){{{{))))$$$$                                                                                                                $$$$)))){{{{))))))))))))))))))))))))))))$$$$____<<<<::::____$$$$///////.",
"2&;/-;--$$$$____::::<<<<____$$$$)))))))))))))))))))))))))))){{{{))))$$$$                                                                                                                $$$$)))){{{{))))))))))))))))))))))))))))$$$$____<<<<::::____$$$$///////2",
"2&;;/;--$$$$____::::<<<<____$$$$)))))))))))))))))))))))))))){{{{))))$$$$                                                                                                                $$$$)))){{{{))))))))))))))))))))))))))))$$$$____<<<<::::____$$$$///////2",
"23;;/--/$$$$____::::<<<<____$$$$)))))))))))))))))))))))))))){{{{))))$$$$                                                                                                                $$$$)))){{{{))))))))))))))))))))))))))))$$$$____<<<<::::____$$$$////;;/2",
"2&///---$$$$____::::<<<<____$$$$)))))))))))))))))))))))))))){{{{))))$$$$                                                                                                                $$$$)))){{{{))))))))))))))))))))))))))))$$$$____<<<<::::____$$$$////;-/2",
"2&-/----$$$$____::::<<<<____$$$$)))))))))))))))))))))))))))){{{{))))$$$$                                                                                                                $$$$)))){{{{))))))))))))))))))))))))))))$$$$____<<<<::::____$$$$///-///2",
"2&-----/$$$$____::::<<<<____$$$$)))))))))))))))))))))))))))){{{{))))$$$$                                                                                                                $$$$)))){{{{))))))))))))))))))))))))))))$$$$____<<<<::::____$$$$//--//;2",
"2&--;-;-$$$$____::::<<<<____$$$$)))))))))))))))))))))))))))){{{{))))$$$$                                                                                                                $$$$)))){{{{))))))))))))))))))))))))))))$$$$____<<<<::::____$$$$//;/;/;2",
"2&--;-;-$$$$____::::<<<<____$$$$)))))))))))))))))))))))))))){{{{))))$$$$                                                                                                                $$$$)))){{{{))))))))))))))))))))))))))))$$$$____<<<<::::____$$$$/-;///;2",
"2&--;-;-$$$$____::::<<<<____$$$$)))))))))))))))))))))))))))){{{{))))$$$$                                                                                                                $$$$)))){{{{))))))))))))))))))))))))))))$$$$____<<<<::::____$$$$//;/;;/2",
".&;-;---$$$$____::::<<<<____$$$$)))))))))))))))))))))))))))){{{{))))$$$$                                                                                                                $$$$)))){{{{))))))))))))))))))))))))))))$$$$____<<<<::::____$$$$/////;/2",
".&;//---$$$$____::::<<<<____$$$$)))))))))))))))))))))))))))){{{{))))$$$$                                                                                                                $$$$)))){{{{))))))))))))))))))))))))))))$$$$____<<<<::::____$$$$/////;/.",
".&;/----$$$$____::::<<<<____$$$$)))))))))))))))))))))))))))){{{{))))$$$$                                                                                                                $$$$)))){{{{))))))))))))))))))))))))))))$$$$____<<<<::::____$$$$-////;/.",
"2&------$$$$____::::<<<<____$$$$)))))))))))))))))))))))))))){{{{))))$$$$                                                                                                                $$$$)))){{{{))))))))))))))))))))))))))))$$$$____<<<<::::____$$$$-//////.",
".&------$$$$____::::<<<<____$$$$)))))))))))))))))))))))))))){{{{))))$$$$                                                                                                                $$$$)))){{{{))))))))))))))))))))))))))))$$$$____<<<<::::____$$$$-//;;--.",
".&-//---$$$$____::::<<<<____$$$$)))))))))))))))))))))))))))){{{{))))$$$$                                                                                                                $$$$)))){{{{))))))))))))))))))))))))))))$$$$____<<<<::::____$$$$-;/;;;-+",
"2&--;/--$$$$____::::<<<<____$$$$)))))))))))))))))))))))))))){{{{))))$$$$                                                                                                                $$$$)))){{{{))))))))))))))))))))))))))))$$$$____<<<<::::____$$$$/;/;;;-.",
".&;-;---$$$$____::::<<<<____$$$$)))))))))))))))))))))))))))){{{{))))$$$$                                                                                                                $$$$)))){{{{))))))))))))))))))))))))))))$$$$____<<<<::::____$$$$/;//;;/2",
".&;;;--;$$$$____::::<<<<____$$$$)))))))))))))))))))))))))))){{{{))))$$$$                                                                                                                $$$$)))){{{{))))))))))))))))))))))))))))$$$$____<<<<::::____$$$$/;-/;;/2",
".&;;---;$$$$____::::<<<<____$$$$)))))))))))))))))))))))))))){{{{))))$$$$                                                                                                                $$$$)))){{{{))))))))))))))))))))))))))))$$$$____<<<<::::____$$$$--//;;/2",
".%;-----$$$$____::::<<<<____$$$$)))))))))))))))))))))))))))){{{{))))$$$$                                                                                                                $$$$)))){{{{))))))))))))))))))))))))))))$$$$____<<<<::::____$$$$/-///;/2",
".%-;---;$$$$____::::<<<<____$$$$)))))))))))))))))))))))))))){{{{))))$$$$                                                                                                                $$$$)))){{{{))))))))))))))))))))))))))))$$$$____<<<<::::____$$$$///////.",
".&------$$$$____::::<<<<____$$$$)))))))))))))))))))))))))))){{{{))))$$$$                                                                                                                $$$$)))){{{{))))))))))))))))))))))))))))$$$$____<<<<::::____$$$$////;;/.",
".&-----;$$$$____::::<<<<____$$$$)))))))))))))))))))))))))))){{{{))))$$$$                                                                                                                $$$$)))){{{{))))))))))))))))))))))))))))$$$$____<<<<::::____$$$$////;;-.",
".&-----;$$$$____::::<<<<____$$$$)))))))))))))))))))))))))))){{{{))))$$$$                                                                                                                $$$$)))){{{{))))))))))))))))))))))))))))$$$$____<<<<::::____$$$$//--;;-.",
".&---;-;$$$$____::::<<<<____$$$$)))))))))))))))))))))))))))){{{{))))$$$$                                                                                                                $$$$)))){{{{))))))))))))))))))))))))))))$$$$____<<<<::::____$$$$/----;-.",
".&-----;$$$$____::::<<<<____$$$$)))))))))))))))))))))))))))){{{{))))$$$$                                                                                                                $$$$)))){{{{))))))))))))))))))))))))))))$$$$____<<<<::::____$$$$;;---;-.",
".&------$$$$____::::<<<<____$$$$)))))))))))))))))))))))))))){{{{))))$$$$                                                                                                                $$$$)))){{{{))))))))))))))))))))))))))))$$$$____<<<<::::____$$$$;;---;-.",
".%------$$$$____::::<<<<____$$$$)))))))))))))))))))))))))))){{{{))))$$$$                                                                                                                $$$$)))){{{{))))))))))))))))))))))))))))$$$$____<<<<::::____$$$$;;-----.",
".&------$$$$____::::<<<<____$$$$)))))))))))))))))))))))))))){{{{))))$$$$                                                                                                                $$$$)))){{{{))))))))))))))))))))))))))))$$$$____<<<<::::____$$$$--;----.",
".&--->!-$$$$____::::<<<<____$$$$)))))))))))))))))))))))))))){{{{))))$$$$                                                                                                                $$$$)))){{{{))))))))))))))))))))))))))))$$$$____<<<<::::____$$$$--;----.",
".&->>>>;$$$$____::::<<<<____$$$$)))))))))))))))))))))))))))){{{{))))$$$$                                                                                                                $$$$)))){{{{))))))))))))))))))))))))))))$$$$____<<<<::::____$$$$---;;--.",
".&!;>>>;$$$$____::::<<<<____$$$$)))))))))))))))))))))))))))){{{{))))$$$$                                                                                                                $$$$)))){{{{))))))))))))))))))))))))))))$$$$____<<<<::::____$$$$---;;--.",
".&!;>!-;$$$$____::::<<<<____$$$$)))))))))))))))))))))))))))){{{{))))$$$$                                                                                                                $$$$)))){{{{))))))))))))))))))))))))))))$$$$____<<<<::::____$$$$-------.",
".%;;>--;$$$$____::::<<<<____$$$$)))))))))))))))))))))))))))){{{{))))$$$$                                                                                                                $$$$)))){{{{))))))))))))))))))))))))))))$$$$____<<<<::::____$$$$/---;--.",
".%;;----$$$$____::::<<<<____$$$$)))))))))))))))))))))))))))){{{{))))$$$$                                                                                                                $$$$)))){{{{))))))))))))))))))))))))))))$$$$____<<<<::::____$$$$/---;--.",
"+%;-----$$$$____::::<<<<____$$$$)))))))))))))))))))))))))))){{{{))))$$$$                                                                                                                $$$$)))){{{{))))))))))))))))))))))))))))$$$$____<<<<::::____$$$$/---;;-.",
".&------$$$$____::::<<<<____$$$$)))))))))))))))))))))))))))){{{{))))$$$$                                                                                                                $$$$)))){{{{))))))))))))))))))))))))))))$$$$____<<<<::::____$$$$----;;-.",
".&------$$$$____::::<<<<____$$$$)))))))))))))))))))))))))))){{{{))))$$$$                                                                                                                $$$$)))){{{{))))))))))))))))))))))))))))$$$$____<<<<::::____$$$$;---;;;.",
".&----;-$$$$____::::<<<<____$$$$)))))))))))))))))))))))))))){{{{))))$$$$                                                                                                                $$$$)))){{{{))))))))))))))))))))))))))))$$$$____<<<<::::____$$$$----;-;.",
".&----;;$$$$____::::<<<<____$$$$)))))))))))))))))))))))))))){{{{))))$$$$                                                                                                                $$$$)))){{{{))))))))))))))))))))))))))))$$$$____<<<<::::____$$$$-------.",
".&;---;;$$$$____::::<<<<____$$$$)))))))))))))))))))))))))))){{{{))))$$$$                                                                                                                $$$$)))){{{{))))))))))))))))))))))))))))$$$$____<<<<::::____$$$$;------.",
"+&;/--;;$$$$____::::<<<<____$$$$)))))))))))))))))))))))))))){{{{))))$$$$                                                                                                                $$$$)))){{{{))))))))))))))))))))))))))))$$$$____<<<<::::____$$$$;-;----.",
"+3;/--;;$$$$____::::<<<<____$$$$)))))))))))))))))))))))))))){{{{))))$$$$                                                                                                                $$$$)))){{{{))))))))))))))))))))))))))))$$$$____<<<<::::____$$$$--;;--;.",
"+3;----;$$$$____::::<<<<____$$$$)))))))))))))))))))))))))))){{{{))))$$$$                                                                                                                $$$$)))){{{{))))))))))))))))))))))))))))$$$$____<<<<::::____$$$$--;;--;.",
"2%;---;;$$$$____::::<<<<____$$$$)))))))))))))))))))))))))))){{{{))))$$$$                                                                                                                $$$$)))){{{{))))))))))))))))))))))))))))$$$$____<<<<::::____$$$$--;;---.",
"+%----;;$$$$____::::<<<<____$$$$)))))))))))))))))))))))))))){{{{))))$$$$                                                                                                                $$$$)))){{{{))))))))))))))))))))))))))))$$$$____<<<<::::____$$$$-----]-2",
"23----;;$$$$____::::<<<<____$$$$)))))))))))))))))))))))))))){{{{))))$$$$                                                                                                                $$$$)))){{{{))))))))))))))))))))))))))))$$$$____<<<<::::____$$$$----->/2",
"2&----;-$$$$____::::<<<<____$$$$)))))))))))))))))))))))))))){{{{))))$$$$                                                                                                                $$$$)))){{{{))))))))))))))))))))))))))))$$$$____<<<<::::____$$$$---->--2",
".&------$$$$____::::<<<<____$$$$)))))))))))))))))))))))))))){{{{))))$$$$                                                                                                                $$$$)))){{{{))))))))))))))))))))))))))))$$$$____<<<<::::____$$$$-------.",
".&/----;$$$$____::::<<<<____$$$$)))))))))))))))))))))))))))){{{{))))$$$$                                                                                                                $$$$)))){{{{))))))))))))))))))))))))))))$$$$____<<<<::::____$$$$-;;;---.",
".&;----;$$$$____::::<<<<____$$$$)))))))))))))))))))))))))))){{{{))))$$$$                                                                                                                $$$$)))){{{{))))))))))))))))))))))))))))$$$$____<<<<::::____$$$$-;;----.",
"+&----;-$$$$____::::<<<<____$$$$)))))))))))))))))))))))))))){{{{))))$$$$                                                                                                                $$$$)))){{{{))))))))))))))))))))))))))))$$$$____<<<<::::____$$$$-;/--;-.",
"+&----;-$$$$____::::<<<<____$$$$)))))))))))))))))))))))))))){{{{))))$$$$                                                                                                                $$$$)))){{{{))))))))))))))))))))))))))))$$$$____<<<<::::____$$$$/-/----.",
"+&---;;-$$$$____::::<<<<____$$$$)))))))))))))))))))))))))))){{{{))))$$$$                                                                                                                $$$$)))){{{{))))))))))))))))))))))))))))$$$$____<<<<::::____$$$$;;-/---.",
"+&--]]--$$$$____::::<<<<____$$$$)))))))))))))))))))))))))))){{{{))))$$$$                                                                                                                $$$$)))){{{{))))))))))))))))))))))))))))$$$$____<<<<::::____$$$$;-/----.",
"+&;-----$$$$____::::<<<<____$$$$)))))))))))))))))))))))))))){{{{))))$$$$                                                                                                                $$$$)))){{{{))))))))))))))))))))))))))))$$$$____<<<<::::____$$$$-------+",
"+&----;-$$$$____::::<<<<____$$$$)))))))))))))))))))))))))))){{{{))))$$$$                                                                                                                $$$$)))){{{{))))))))))))))))))))))))))))$$$$____<<<<::::____$$$$---;;--#",
"+%----;-$$$$____::::<<<<____$$$$)))))))))))))))))))))))))))){{{{))))$$$$                                                                                                                $$$$)))){{{{))))))))))))))))))))))))))))$$$$____<<<<::::____$$$$-------#",
"+%;---;-$$$$____::::<<<<____$$$$)))))))))))))))))))))))))))){{{{))))$$$$                                                                                                                $$$$)))){{{{))))))))))))))))))))))))))))$$$$____<<<<::::____$$$$-------@",
"+%;---;-$$$$____::::<<<<____$$$$)))))))))))))))))))))))))))){{{{))))$$$$                                                                                                                $$$$)))){{{{))))))))))))))))))))))))))))$$$$____<<<<::::____$$$$/--;--~.",
"+&;---;-$$$$____::::<<<<____$$$$)))))))))))))))))))))))))))){{{{))))$$$$                                                                                                                $$$$)))){{{{))))))))))))))))))))))))))))$$$$____<<<<::::____$$$$/;-;---.",
".&;---;-$$$$____::::<<<<____$$$$)))))))))))))))))))))))))))){{{{))))$$$$                                                                                                                $$$$)))){{{{))))))))))))))))))))))))))))$$$$____<<<<::::____$$$$/;-;---.",
".&----;-$$$$____::::<<<<____$$$$))))))))))))))))))))))))))))))))))))$$$$                                                                                                                $$$$))))))))))))))))))))))))))))))))))))$$$$____<<<<::::____$$$$/--;-;-.",
".&;-----$$$$____::::<<<<____$$$$))))))))))))))))))))))))))))))))))))$$$$                                                                                                                $$$$))))))))))))))))))))))))))))))))))))$$$$____<<<<::::____$$$$/----;-+",
".%;-;---$$$$____::::<<<<____$$$$))))))))))))))))))))))))))))))))))))$$$$                                                                                                                $$$$))))))))))))))))))))))))))))))))))))$$$$____<<<<::::____$$$$/----;-+",
".%;-;---$$$$____::::<<<<____$$$$))))))))))))))))))))))))))))))))))))$$$$                                                                                                                $$$$))))))))))))))))))))))))))))))))))))$$$$____<<<<::::____$$$$/----;-.",
".%------$$$$____::::<<<<____$$$$))))))))))))))))))))))))))))))))))))$$$$                                                                                                                $$$$))))))))))))))))))))))))))))))))))))$$$$____<<<<::::____$$$$;----;-.",
".&------$$$$____::::<<<<____$$$$))))))))))))))))))))))))))))))))))))$$$$                                                                                                                $$$$))))))))))))))))))))))))))))))))))))$$$$____<<<<::::____$$$$;--;---.",
".%---;--$$$$____::::<<<<____$$$$))))))))))))))))))))))))))))))))))))$$$$                                                                                                                $$$$))))))))))))))))))))))))))))))))))))$$$$____<<<<::::____$$$$;------+",
"+%-;-;->$$$$____::::<<<<____$$$$))))))))))))))))))))))))))))))))))))$$$$                                                                                                                $$$$))))))))))))))))))))))))))))))))))))$$$$____<<<<::::____$$$$;------+",
"+%-;-;--$$$$____::::<<<<____$$$$$$$$$$$$$$$$$$$$$$$$$$$$))))))))))))$$$$                                                                                                                $$$$))))))))))))$$$$$$$$$$$$$$$$$$$$$$$$$$$$____<<<<::::____$$$$--;-;-;+",
"+%-;-;--$$$$____::::<<<<____$$$$$$$$$$$$$$$$$$$$$$$$$$$$))))))))))))$$$$                                                                                                                $$$$))))))))))))$$$$$$$$$$$$$$$$$$$$$$$$$$$$____<<<<::::____$$$$;---;-;.",
"+%-;-;~-$$$$____::::<<<<____$$$$$$$$$$$$$$$$$$$$$$$$$$$$))))))))))))$$$$                                                                                                                $$$$))))))))))))$$$$$$$$$$$$$$$$$$$$$$$$$$$$____<<<<::::____$$$$;-;----+",
"+%-;-;]-$$$$____::::<<<<____$$$$$$$$$$$$$$$$$$$$$$$$$$$$))))))))))))$$$$                                                                                                                $$$$))))))))))))$$$$$$$$$$$$$$$$$$$$$$$$$$$$____<<<<::::____$$$$;-;---;+",
"+%-;-;>>$$$$$$$$$$$$$$$$$$$$))))))))))))))))))))))))))))))))))))))))$$$$                                                                                                                $$$$))))))))))))))))))))))))))))))))))))))))$$$$$$$$$$$$$$$$$$$$;-;-;-;+",
"+%-;-;>>$$$$$$$$$$$$$$$$$$$$))))))))))))))))))))))))))))))))))))))))$$$$                                                                                                                $$$$))))))))))))))))))))))))))))))))))))))))$$$$$$$$$$$$$$$$$$$$;-;----.",
"+%-;-;-~$$$$$$$$$$$$$$$$$$$$))))))))))))))))))))))))))))))))))))))))$$$$                                                                                                                $$$$))))))))))))))))))))))))))))))))))))))))$$$$$$$$$$$$$$$$$$$$;-;----.",
"+%-;-;->$$$$$$$$$$$$$$$$$$$$))))))))))))))))))))))))))))))))))))))))$$$$                                                                                                                $$$$))))))))))))))))))))))))))))))))))))))))$$$$$$$$$$$$$$$$$$$$---;---.",
".%-;-;--$$$$,,,,'''',,,,$$$$$$$$$$$$$$$$$$$$$$$$$$$$$$$$$$$$))))))))$$$$                                                                                                                $$$$))))))))$$$$$$$$$$$$$$$$$$$$$$$$$$$$$$$$$$$$,,,,'''',,,,$$$$;-;;--;+",
".%-;-;--$$$$,,,,'''',,,,$$$$$$$$$$$$$$$$$$$$$$$$$$$$$$$$$$$$))))))))$$$$                                                                                                                $$$$))))))))$$$$$$$$$$$$$$$$$$$$$$$$$$$$$$$$$$$$,,,,'''',,,,$$$$;--;;;;+",
".%-;-;-;$$$$,,,,'''',,,,$$$$$$$$$$$$$$$$$$$$$$$$$$$$$$$$$$$$))))))))$$$$                                                                                                                $$$$))))))))$$$$$$$$$$$$$$$$$$$$$$$$$$$$$$$$$$$$,,,,'''',,,,$$$$----;;;+",
"+%---;-;$$$$,,,,'''',,,,$$$$$$$$$$$$$$$$$$$$$$$$$$$$$$$$$$$$))))))))$$$$                                                                                                                $$$$))))))))$$$$$$$$$$$$$$$$$$$$$$$$$$$$$$$$$$$$,,,,'''',,,,$$$$--;-;;;+",
".%-;-;-;$$$$,,,,'''',,,,$$$$ffffffffffffffffffffffffffff$$$$))))))))$$$$                                                                                                                $$$$))))))))$$$$ffffffffffffffffffffffffffff$$$$,,,,'''',,,,$$$$--;-;;-.",
".&-;-;--$$$$,,,,'''',,,,$$$$ffffffffffffffffffffffffffff$$$$))))))))$$$$                                                                                                                $$$$))))))))$$$$ffffffffffffffffffffffffffff$$$$,,,,'''',,,,$$$$---;;;;.",
".&-;-;-;$$$$,,,,'''',,,,$$$$ffffffffffffffffffffffffffff$$$$))))))))$$$$                                                                                                                $$$$))))))))$$$$ffffffffffffffffffffffffffff$$$$,,,,'''',,,,$$$$---;;;;.",
".&-----;$$$$,,,,'''',,,,$$$$ffffffffffffffffffffffffffff$$$$))))))))$$$$                                                                                                                $$$$))))))))$$$$ffffffffffffffffffffffffffff$$$$,,,,'''',,,,$$$$---;;;;+",
"+&-----;$$$$,,,,,,,,,,,,$$$$gggggggggggggggggggggggggggg$$$$))))))))$$$$                                                                                                                $$$$))))))))$$$$gggggggggggggggggggggggggggg$$$$,,,,,,,,,,,,$$$$;--;;;;+",
"+&;--;-;$$$$,,,,,,,,,,,,$$$$gggggggggggggggggggggggggggg$$$$))))))))$$$$                                                                                                                $$$$))))))))$$$$gggggggggggggggggggggggggggg$$$$,,,,,,,,,,,,$$$$;---;-;+",
"+&;--;-!$$$$,,,,,,,,,,,,$$$$gggggggggggggggggggggggggggg$$$$))))))))$$$$                                                                                                                $$$$))))))))$$$$gggggggggggggggggggggggggggg$$$$,,,,,,,,,,,,$$$$---;;;-+",
"+&;-;;-;$$$$,,,,,,,,,,,,$$$$gggggggggggggggggggggggggggg$$$$))))))))$$$$                                                                                                                $$$$))))))))$$$$gggggggggggggggggggggggggggg$$$$,,,,,,,,,,,,$$$$;-;;;;;+",
"+&;-$$$$,,,,,,,,'''',,,,,,,,$$$$$$$$$$$$$$$$$$$$$$$$$$$$))))))))))))$$$$                                                                                                                $$$$))))))))))))$$$$$$$$$$$$$$$$$$$$$$$$$$$$,,,,,,,,'''',,,,,,,,$$$$;;;+",
"+&;-$$$$,,,,,,,,'''',,,,,,,,$$$$$$$$$$$$$$$$$$$$$$$$$$$$))))))))))))$$$$                                                                                                                $$$$))))))))))))$$$$$$$$$$$$$$$$$$$$$$$$$$$$,,,,,,,,'''',,,,,,,,$$$$;;;+",
".&;-$$$$,,,,,,,,'''',,,,,,,,$$$$$$$$$$$$$$$$$$$$$$$$$$$$))))))))))))$$$$                                                                                                                $$$$))))))))))))$$$$$$$$$$$$$$$$$$$$$$$$$$$$,,,,,,,,'''',,,,,,,,$$$$;;;+",
".&;!$$$$,,,,,,,,'''',,,,,,,,$$$$$$$$$$$$$$$$$$$$$$$$$$$$))))))))))))$$$$                                                                                                                $$$$))))))))))))$$$$$$$$$$$$$$$$$$$$$$$$$$$$,,,,,,,,'''',,,,,,,,$$$$;;;+",
"+%--$$$$,,,,'''''''''''',,,,$$$$))))))))))))))))))))))))))))))))))))$$$$                                                                                                                $$$$))))))))))))))))))))))))))))))))))))$$$$,,,,'''''''''''',,,,$$$$;;;.",
".&--$$$$,,,,'''''''''''',,,,$$$$))))))))))))))))))))))))))))))))))))$$$$                                                                                                                $$$$))))))))))))))))))))))))))))))))))))$$$$,,,,'''''''''''',,,,$$$$;;;.",
"+&;-$$$$,,,,'''''''''''',,,,$$$$))))))))))))))))))))))))))))))))))))$$$$                                                                                                                $$$$))))))))))))))))))))))))))))))))))))$$$$,,,,'''''''''''',,,,$$$$;;;.",
".&-;$$$$,,,,'''''''''''',,,,$$$$))))))))))))))))))))))))))))))))))))$$$$                                                                                                                $$$$))))))))))))))))))))))))))))))))))))$$$$,,,,'''''''''''',,,,$$$$;;;+",
"+h--$$$$$$$$$$$$$$$$$$$$$$$$$$$$$$$$$$$$$$$$$$$$$$$$$$$$$$$$$$$$$$$$$$$$$$$$$$$$$$$$$$$$$$$$$$$$$$$$$$$$$$$$$$$$$$$$$$$$$$$$$$$$$$$$$$$$$$$$$$$$$$$$$$$$$$$$$$$$$$$$$$$$$$$$$$$$$$$$$$$$$$$$$$$$$$$$$$$$$$$$$$$$$$$$$$$$$$$$$$$$$$$$$$$$$$$$$$$$$$$$$$$$$$$$;;;+",
"+&--$$$$$$$$$$$$$$$$$$$$$$$$$$$$$$$$$$$$$$$$$$$$$$$$$$$$$$$$$$$$$$$$$$$$$$$$$$$$$$$$$$$$$$$$$$$$$$$$$$$$$$$$$$$$$$$$$$$$$$$$$$$$$$$$$$$$$$$$$$$$$$$$$$$$$$$$$$$$$$$$$$$$$$$$$$$$$$$$$$$$$$$$$$$$$$$$$$$$$$$$$$$$$$$$$$$$$$$$$$$$$$$$$$$$$$$$$$$$$$$$$$$$$$$$;;;+",
"+&;;$$$$$$$$$$$$$$$$$$$$$$$$$$$$$$$$$$$$$$$$$$$$$$$$$$$$$$$$$$$$$$$$$$$$$$$$$$$$$$$$$$$$$$$$$$$$$$$$$$$$$$$$$$$$$$$$$$$$$$$$$$$$$$$$$$$$$$$$$$$$$$$$$$$$$$$$$$$$$$$$$$$$$$$$$$$$$$$$$$$$$$$$$$$$$$$$$$$$$$$$$$$$$$$$$$$$$$$$$$$$$$$$$$$$$$$$$$$$$$$$$$$$$$$$;;-.",
".++.$$$$$$$$$$$$$$$$$$$$$$$$$$$$$$$$$$$$$$$$$$$$$$$$$$$$$$$$$$$$$$$$$$$$$$$$$$$$$$$$$$$$$$$$$$$$$$$$$$$$$$$$$$$$$$$$$$$$$$$$$$$$$$$$$$$$$$$$$$$$$$$$$$$$$$$$$$$$$$$$$$$$$$$$$$$$$$$$$$$$$$$$$$$$$$$$$$$$$$$$$$$$$$$$$$$$$$$$$$$$$$$$$$$$$$$$$$$$$$$$$$$$$$$$.++."};
