/* XPM */
static char * Door 6_xpm[] = {
"256 256 43 1",
" 	c None",
".	c #304F65",
"+	c #315065",
"@	c #335363",
"#	c #345363",
"$	c #1B1B1B",
"%	c #537389",
"&	c #527289",
"*	c #567787",
"=	c #547588",
"-	c #395E78",
";	c #3A5F78",
">	c #3E6376",
",	c #767474",
"'	c #C8C8C8",
")	c #3C6177",
"!	c #3D6276",
"~	c #3B6077",
"{	c #335264",
"]	c #3F6883",
"^	c #557688",
"/	c #43764F",
"(	c #62A46A",
"_	c #81BF7C",
":	c #3D6277",
"<	c #4998ED",
"[	c #A7DBFF",
"}	c #537388",
"|	c #35586E",
"1	c #577B93",
"2	c #3F667F",
"3	c #3F6781",
"4	c #3E657A",
"5	c #3F6780",
"6	c #3E6377",
"7	c #3E6479",
"8	c #3F667E",
"9	c #345466",
"0	c #35576C",
"a	c #3E6478",
"b	c #3E657C",
"c	c #345465",
"d	c #557687",
".+++@#.+$$$$$$$$$$$$$$$$$$$$$$$$$$$$$$$$$$$$$$$$$$$$$$$$$$$$$$$$$$$$$$$$$$$$$$$$$$$$$$$$$$$$$$$$$$$$$$$$$$$$$$$$$$$$$$$$$$$$$$$$$$$$$$$$$$$$$$$$$$$$$$$$$$$$$$$$$$$$$$$$$$$$$$$$$$$$$$$$$$$$$$$$$$$$$$$$$$$$$$$$$$$$$$$$$$$$$$$$$$$$$$$$$$$$$$$$$$$$$$$$##+#++++",
".%%%&*&%$$$$$$$$$$$$$$$$$$$$$$$$$$$$$$$$$$$$$$$$$$$$$$$$$$$$$$$$$$$$$$$$$$$$$$$$$$$$$$$$$$$$$$$$$$$$$$$$$$$$$$$$$$$$$$$$$$$$$$$$$$$$$$$$$$$$$$$$$$$$$$$$$$$$$$$$$$$$$$$$$$$$$$$$$$$$$$$$$$$$$$$$$$$$$$$$$$$$$$$$$$$$$$$$$$$$$$$$$$$$$$$$$$$$$$$$$$$$$$$$=*%%%%%+",
".%-----;$$$$$$$$$$$$$$$$$$$$$$$$$$$$$$$$$$$$$$$$$$$$$$$$$$$$$$$$$$$$$$$$$$$$$$$$$$$$$$$$$$$$$$$$$$$$$$$$$$$$$$$$$$$$$$$$$$$$$$$$$$$$$$$$$$$$$$$$$$$$$$$$$$$$$$$$$$$$$$$$$$$$$$$$$$$$$$$$$$$$$$$$$$$$$$$$$$$$$$$$$$$$$$$$$$$$$$$$$$$$$$$$$$$$$$$$$$$$$$$$;>;;;;;+",
".%-----;$$$$$$$$$$$$$$$$$$$$$$$$$$$$$$$$$$$$$$$$$$$$$$$$$$$$$$$$$$$$$$$$$$$$$$$$$$$$$$$$$$$$$$$$$$$$$$$$$$$$$$$$$$$$$$$$$$$$$$$$$$$$$$$$$$$$$$$$$$$$$$$$$$$$$$$$$$$$$$$$$$$$$$$$$$$$$$$$$$$$$$$$$$$$$$$$$$$$$$$$$$$$$$$$$$$$$$$$$$$$$$$$$$$$$$$$$$$$$$$$;-;-;;;+",
".%-----;$$$$,,,,,,,,''''$$$$                                                                                                                                                                                                        $$$$'''',,,,,,,,$$$$----;;;+",
".%--;--;$$$$,,,,,,,,''''$$$$                                                                                                                                                                                                        $$$$'''',,,,,,,,$$$$--;);;-+",
".%;-;--;$$$$,,,,,,,,''''$$$$                                                                                                                                                                                                        $$$$'''',,,,,,,,$$$$>>>>!;-+",
".%;-;---$$$$,,,,,,,,''''$$$$                                                                                                                                                                                                        $$$$'''',,,,,,,,$$$$)>-;;;;+",
".%;----;$$$$,,,,,,,,''''$$$$                                                                                                                                                                                                        $$$$'''',,,,,,,,$$$$)-;-;;-+",
".%;----;$$$$,,,,,,,,''''$$$$                                                                                                                                                                                                        $$$$'''',,,,,,,,$$$$--;;;;-+",
".%;;---;$$$$,,,,,,,,''''$$$$                                                                                                                                                                                                        $$$$'''',,,,,,,,$$$$-;;;;;-+",
".&;;;--;$$$$,,,,,,,,''''$$$$                                                                                                                                                                                                        $$$$'''',,,,,,,,$$$$--;;;;-+",
".&;;;--;$$$$,,,,,,,,''''$$$$                                                                                                                                                                                                        $$$$'''',,,,,,,,$$$$--;;;;-+",
".%;;----$$$$,,,,,,,,''''$$$$                                                                                                                                                                                                        $$$$'''',,,,,,,,$$$$--;;;;~+",
".%;;----$$$$,,,,,,,,''''$$$$                                                                                                                                                                                                        $$$$'''',,,,,,,,$$$$--;-;;;+",
"+%;;----$$$$,,,,,,,,''''$$$$                                                                                                                                                                                                        $$$$'''',,,,,,,,$$$$--;-;;;+",
"+&;;--;-$$$$,,,,,,,,''''$$$$                                                                                                                                                                                                        $$$$'''',,,,,,,,$$$$-;-;;;;+",
"+%;---;;$$$$,,,,,,,,''''$$$$                                                                                                                                                                                                        $$$$'''',,,,,,,,$$$$-;-;;;>+",
"+%;;--;;$$$$,,,,,,,,''''$$$$                                                                                                                                                                                                        $$$$'''',,,,,,,,$$$$-;---;;+",
".&-;---;$$$$,,,,,,,,''''$$$$                                                                                                                                                                                                        $$$$'''',,,,,,,,$$$$-----;;+",
"+&;;----$$$$,,,,,,,,''''$$$$                                                                                                                                                                                                        $$$$'''',,,,,,,,$$$$---;;;;+",
"+%-;----$$$$,,,,,,,,''''$$$$                                                                                                                                                                                                        $$$$'''',,,,,,,,$$$$---;;-;.",
"+&-;--;-$$$$,,,,,,,,''''$$$$                                                                                                                                                                                                        $$$$'''',,,,,,,,$$$$--;;;--+",
"{&;;--;-$$$$,,,,,,,,''''$$$$                                                                                                                                                                                                        $$$$'''',,,,,,,,$$$$--;-;;-+",
"+%>;--;-$$$$$$$$$$$$$$$$$$$$$$$$                                                                                                                                                                                                $$$$$$$$$$$$$$$$$$$$$$$$-];-;;;.",
"+%;---;-$$$$$$$$$$$$$$$$$$$$$$$$                                                                                                                                                                                                $$$$$$$$$$$$$$$$$$$$$$$$-;;;;;;.",
"+^!-----$$$$$$$$$$$$$$$$$$$$$$$$                                                                                                                                                                                                $$$$$$$$$$$$$$$$$$$$$$$$;;---;;.",
"+*>>;---$$$$$$$$$$$$$$$$$$$$$$$$                                                                                                                                                                                                $$$$$$$$$$$$$$$$$$$$$$$$;;-]--;.",
"+*;>----$$$$////((((____////$$$$                                                                                                                                                                                                $$$$////____((((////$$$$;-;;;;;.",
"+&;---;-$$$$////((((____////$$$$                                                                                                                                                                                                $$$$////____((((////$$$$;-;;;;;.",
"+%;---;-$$$$////((((____////$$$$                                                                                                                                                                                                $$$$////____((((////$$$$;-;;;-;.",
"+%;---;;$$$$////((((____////$$$$                                                                                                                                                                                                $$$$////____((((////$$$$;-;;;;;.",
"+%----;-$$$$////((((____////$$$$                                                                                                                                                                                                $$$$////____((((////$$$$;-;;;;-.",
"+%----;-$$$$////((((____////$$$$                                                                                                                                                                                                $$$$////____((((////$$$$;--;;;-.",
"+%----;-$$$$////((((____////$$$$                                                                                                                                                                                                $$$$////____((((////$$$$;-;;-;-.",
"+&------$$$$////((((____////$$$$                                                                                                                                                                                                $$$$////____((((////$$$$;--;-;;.",
"+&------$$$$////((((____////$$$$                                                                                                                                                                                                $$$$////____((((////$$$$;-;-;;;.",
"+&------$$$$////((((____////$$$$                                                                                                                                                                                                $$$$////____((((////$$$$;-;-;-;.",
"+&------$$$$////((((____////$$$$                                                                                                                                                                                                $$$$////____((((////$$$$;-;---;.",
"+%------$$$$////((((____////$$$$                                                                                                                                                                                                $$$$////____((((////$$$$--;--;;.",
"+%;-----$$$$////((((____////$$$$                                                                                                                                                                                                $$$$////____((((////$$$$--;;-;-.",
"+%>--;-;$$$$////((((____////$$$$                                                                                                                                                                                                $$$$////____((((////$$$$---;;;;.",
"+&-!-;--$$$$////((((____////$$$$                                                                                                                                                                                                $$$$////____((((////$$$$--;;;;-+",
"+%---;--$$$$////((((____////$$$$                                                                                                                                                                                                $$$$////____((((////$$$$---;---+",
"+%------$$$$////((((____////$$$$                                                                                                                                                                                                $$$$////____((((////$$$$---;---+",
"+&------$$$$////((((____////$$$$                                                                                                                                                                                                $$$$////____((((////$$$$-------.",
"+&-----;$$$$////((((____////$$$$                                                                                                                                                                                                $$$$////____((((////$$$$-------.",
"+%------$$$$////((((____////$$$$                                                                                                                                                                                                $$$$////____((((////$$$$-;-;---.",
"+%---;--$$$$////((((____////$$$$                                                                                                                                                                                                $$$$////____((((////$$$$;------.",
"+%---;-;$$$$////((((____////$$$$                                                                                                                                                                                                $$$$////____((((////$$$$;------.",
"+%---;--$$$$////((((____////$$$$                                                                                                                                                                                                $$$$////____((((////$$$$;;;;---+",
"+&--;;--$$$$////((((____////$$$$                                                                                                                                                                                                $$$$////____((((////$$$$--;;---+",
".&--;;--$$$$$$$$$$$$$$$$$$$$$$$$$$$$$$$$                                                                                                                                                                                $$$$$$$$$$$$$$$$$$$$$$$$$$$$$$$$--;;---+",
".&--;---$$$$$$$$$$$$$$$$$$$$$$$$$$$$$$$$                                                                                                                                                                                $$$$$$$$$$$$$$$$$$$$$$$$$$$$$$$$;-;;---+",
".&------$$$$$$$$$$$$$$$$$$$$$$$$$$$$$$$$                                                                                                                                                                                $$$$$$$$$$$$$$$$$$$$$$$$$$$$$$$$;;;;;;;+",
".&--;--;$$$$$$$$$$$$$$$$$$$$$$$$$$$$$$$$                                                                                                                                                                                $$$$$$$$$$$$$$$$$$$$$$$$$$$$$$$$];;;;;;+",
".&--;--;$$$$////((((((((((((((((____////$$$$                                                                                                                                                                        $$$$////____((((((((((((((((////$$$$];;;---+",
"+%--;--;$$$$////((((((((((((((((____////$$$$                                                                                                                                                                        $$$$////____((((((((((((((((////$$$$];-;-;-.",
"+%------$$$$////((((((((((((((((____////$$$$                                                                                                                                                                        $$$$////____((((((((((((((((////$$$$];-;---.",
"+&--;---$$$$////((((((((((((((((____////$$$$                                                                                                                                                                        $$$$////____((((((((((((((((////$$$$]-----;.",
".&--;---$$$$////$$$$$$$$$$$$$$$$$$$$////$$$$                                                                                                                                                                        $$$$////$$$$$$$$$$$$$$$$$$$$////$$$$------;+",
".%--;---$$$$////$$$$$$$$$$$$$$$$$$$$////$$$$                                                                                                                                                                        $$$$////$$$$$$$$$$$$$$$$$$$$////$$$$;;-;--;+",
".%--;---$$$$////$$$$$$$$$$$$$$$$$$$$////$$$$                                                                                                                                                                        $$$$////$$$$$$$$$$$$$$$$$$$$////$$$$;;-;--;.",
".%--;-:-$$$$////$$$$$$$$$$$$$$$$$$$$////$$$$                                                                                                                                                                        $$$$////$$$$$$$$$$$$$$$$$$$$////$$$$]--;---.",
".%--;->>$$$$////$$$$<<<<<<<<<<<<$$$$////$$$$                                                                                                                                                                        $$$$////$$$$<<<<<<<<<<<<$$$$////$$$$;--;---.",
".%--;->>$$$$////$$$$<<<<<<<<<<<<$$$$////$$$$                                                                                                                                                                        $$$$////$$$$<<<<<<<<<<<<$$$$////$$$$]--;---.",
".%--;->>$$$$////$$$$<<<<<<<<<<<<$$$$////$$$$                                                                                                                                                                        $$$$////$$$$<<<<<<<<<<<<$$$$////$$$$;--;-;;.",
".%--;---$$$$////$$$$<<<<<<<<<<<<$$$$////$$$$                                                                                                                                                                        $$$$////$$$$<<<<<<<<<<<<$$$$////$$$$;--;--;.",
".&;-;---$$$$////$$$$<<<<[[[[<<<<$$$$////$$$$                                                                                                                                                                        $$$$////$$$$<<<<[[[[<<<<$$$$////$$$$]-----;.",
".&;-----$$$$////$$$$<<<<[[[[<<<<$$$$////$$$$                                                                                                                                                                        $$$$////$$$$<<<<[[[[<<<<$$$$////$$$$]>-----.",
".&;-----$$$$////$$$$<<<<[[[[<<<<$$$$////$$$$                                                                                                                                                                        $$$$////$$$$<<<<[[[[<<<<$$$$////$$$$]----;;.",
"+&------$$$$////$$$$<<<<[[[[<<<<$$$$////$$$$                                                                                                                                                                        $$$$////$$$$<<<<[[[[<<<<$$$$////$$$$];---;;.",
"+&------$$$$////$$$$<<<<[[[[<<<<$$$$////$$$$                                                                                                                                                                        $$$$////$$$$<<<<[[[[<<<<$$$$////$$$$;;---;;.",
".&--;---$$$$////$$$$<<<<[[[[<<<<$$$$////$$$$                                                                                                                                                                        $$$$////$$$$<<<<[[[[<<<<$$$$////$$$$;;---;;.",
"+&--;-;-$$$$////$$$$<<<<[[[[<<<<$$$$////$$$$                                                                                                                                                                        $$$$////$$$$<<<<[[[[<<<<$$$$////$$$$;----;-.",
"+&--;-;-$$$$////$$$$<<<<[[[[<<<<$$$$////$$$$                                                                                                                                                                        $$$$////$$$$<<<<[[[[<<<<$$$$////$$$$;----;-.",
"+&--;-;-$$$$////$$$$<<<<[[[[<<<<$$$$////$$$$                                                                                                                                                                        $$$$////$$$$<<<<[[[[<<<<$$$$////$$$$]----;;.",
"+&--;--;$$$$////$$$$<<<<[[[[<<<<$$$$////$$$$                                                                                                                                                                        $$$$////$$$$<<<<[[[[<<<<$$$$////$$$$]----;;.",
"+&--;--;$$$$////$$$$<<<<[[[[<<<<$$$$////$$$$                                                                                                                                                                        $$$$////$$$$<<<<[[[[<<<<$$$$////$$$$----;;;.",
"+&--;-;;$$$$////$$$$<<<<[[[[<<<<$$$$////$$$$                                                                                                                                                                        $$$$////$$$$<<<<[[[[<<<<$$$$////$$$$]---;;;+",
"+&----;;$$$$////$$$$<<<<[[[[<<<<$$$$////$$$$                                                                                                                                                                        $$$$////$$$$<<<<[[[[<<<<$$$$////$$$$]---;;;.",
"+&-----;$$$$////$$$$<<<<[[[[<<<<$$$$////$$$$                                                                                                                                                                        $$$$////$$$$<<<<[[[[<<<<$$$$////$$$$]----;;+",
"+&-----;$$$$////$$$$<<<<[[[[<<<<$$$$////$$$$                                                                                                                                                                        $$$$////$$$$<<<<[[[[<<<<$$$$////$$$$]----;-+",
".&------$$$$////$$$$<<<<[[[[<<<<$$$$////$$$$                                                                                                                                                                        $$$$////$$$$<<<<[[[[<<<<$$$$////$$$$---;-;-.",
".&------$$$$////$$$$<<<<[[[[<<<<$$$$////$$$$                                                                                                                                                                        $$$$////$$$$<<<<[[[[<<<<$$$$////$$$$---;-;-+",
".&-----;$$$$////$$$$<<<<[[[[<<<<$$$$////$$$$                                                                                                                                                                        $$$$////$$$$<<<<[[[[<<<<$$$$////$$$$]--;-;-+",
".&-----;$$$$////$$$$<<<<[[[[<<<<$$$$////$$$$                                                                                                                                                                        $$$$////$$$$<<<<[[[[<<<<$$$$////$$$$]--;---+",
".&------$$$$////$$$$<<<<[[[[<<<<$$$$////$$$$                                                                                                                                                                        $$$$////$$$$<<<<[[[[<<<<$$$$////$$$$]--;---+",
".&------$$$$////$$$$<<<<[[[[<<<<$$$$////$$$$                                                                                                                                                                        $$$$////$$$$<<<<[[[[<<<<$$$$////$$$$]------.",
".&------$$$$////$$$$<<<<[[[[<<<<$$$$////$$$$                                                                                                                                                                        $$$$////$$$$<<<<[[[[<<<<$$$$////$$$$]------.",
".&-----;$$$$////$$$$<<<<[[[[<<<<$$$$////$$$$                                                                                                                                                                        $$$$////$$$$<<<<[[[[<<<<$$$$////$$$$]----!>#",
"#}-----;$$$$////$$$$<<<<[[[[<<<<$$$$////$$$$                                                                                                                                                                        $$$$////$$$$<<<<[[[[<<<<$$$$////$$$$]-);>;>#",
"#*-----;$$$$////$$$$<<<<[[[[<<<<$$$$////$$$$                                                                                                                                                                        $$$$////$$$$<<<<[[[[<<<<$$$$////$$$$]->;>;>#",
".&------$$$$////$$$$<<<<[[[[<<<<$$$$////$$$$                                                                                                                                                                        $$$$////$$$$<<<<[[[[<<<<$$$$////$$$$]->;>;>+",
".&-----;$$$$////$$$$<<<<[[[[<<<<$$$$////$$$$                                                                                                                                                                        $$$$////$$$$<<<<[[[[<<<<$$$$////$$$$]--;;;>+",
".&-----;$$$$////$$$$<<<<[[[[<<<<$$$$////$$$$                                                                                                                                                                        $$$$////$$$$<<<<[[[[<<<<$$$$////$$$$]---;;;+",
".&-----;$$$$////$$$$<<<<[[[[<<<<$$$$////$$$$                                                                                                                                                                        $$$$////$$$$<<<<[[[[<<<<$$$$////$$$$]---;--.",
".&-----;$$$$////$$$$<<<<[[[[<<<<$$$$////$$$$                                                                                                                                                                        $$$$////$$$$<<<<[[[[<<<<$$$$////$$$$----;--.",
".&-----;$$$$////$$$$<<<<[[[[<<<<$$$$////$$$$                                                                                                                                                                        $$$$////$$$$<<<<[[[[<<<<$$$$////$$$$----;--.",
".&-----;$$$$////$$$$<<<<[[[[<<<<$$$$////$$$$                                                                                                                                                                        $$$$////$$$$<<<<[[[[<<<<$$$$////$$$$--;;;--.",
".&------$$$$////$$$$<<<<[[[[<<<<$$$$////$$$$                                                                                                                                                                        $$$$////$$$$<<<<[[[[<<<<$$$$////$$$$-------.",
".&------$$$$////$$$$<<<<[[[[<<<<$$$$////$$$$                                                                                                                                                                        $$$$////$$$$<<<<[[[[<<<<$$$$////$$$$------;.",
".&------$$$$////$$$$<<<<[[[[<<<<$$$$////$$$$                                                                                                                                                                        $$$$////$$$$<<<<[[[[<<<<$$$$////$$$$--;-;-;.",
".&-----;$$$$////$$$$<<<<[[[[<<<<$$$$////$$$$                                                                                                                                                                        $$$$////$$$$<<<<[[[[<<<<$$$$////$$$$--;-;-;.",
".&------$$$$////$$$$<<<<[[[[<<<<$$$$////$$$$                                                                                                                                                                        $$$$////$$$$<<<<[[[[<<<<$$$$////$$$$----;-;.",
".&------$$$$////$$$$<<<<[[[[<<<<$$$$////$$$$                                                                                                                                                                        $$$$////$$$$<<<<[[[[<<<<$$$$////$$$$----;-;.",
".&------$$$$////$$$$<<<<[[[[<<<<$$$$////$$$$                                                                                                                                                                        $$$$////$$$$<<<<[[[[<<<<$$$$////$$$$----;-;.",
".&------$$$$////$$$$<<<<[[[[<<<<$$$$////$$$$                                                                                                                                                                        $$$$////$$$$<<<<[[[[<<<<$$$$////$$$$----;-;.",
".&------$$$$////$$$$<<<<<<<<<<<<$$$$////$$$$                                                                                                                                                                        $$$$////$$$$<<<<<<<<<<<<$$$$////$$$$----;-;.",
".&------$$$$////$$$$<<<<<<<<<<<<$$$$////$$$$                                                                                                                                                                        $$$$////$$$$<<<<<<<<<<<<$$$$////$$$$--;-;-;.",
".&------$$$$////$$$$<<<<<<<<<<<<$$$$////$$$$                                                                                                                                                                        $$$$////$$$$<<<<<<<<<<<<$$$$////$$$$--;-;--.",
".&------$$$$////$$$$<<<<<<<<<<<<$$$$////$$$$                                                                                                                                                                        $$$$////$$$$<<<<<<<<<<<<$$$$////$$$$--;-;--.",
"|&-----;$$$$////$$$$$$$$$$$$$$$$$$$$////$$$$                                                                                                                                                                        $$$$////$$$$$$$$$$$$$$$$$$$$////$$$$--;-;--.",
"|&-----;$$$$////$$$$$$$$$$$$$$$$$$$$////$$$$                                                                                                                                                                        $$$$////$$$$$$$$$$$$$$$$$$$$////$$$$--;-;--|",
"|&------$$$$////$$$$$$$$$$$$$$$$$$$$////$$$$                                                                                                                                                                        $$$$////$$$$$$$$$$$$$$$$$$$$////$$$$-------|",
"|&------$$$$////$$$$$$$$$$$$$$$$$$$$////$$$$                                                                                                                                                                        $$$$////$$$$$$$$$$$$$$$$$$$$////$$$$-------|",
"|&------$$$$////((((((((((((((((____////$$$$                                                                                                                                                                        $$$$////____((((((((((((((((////$$$$---];--|",
"|&------$$$$////((((((((((((((((____////$$$$                                                                                                                                                                        $$$$////____((((((((((((((((////$$$$---];];.",
"|&------$$$$////((((((((((((((((____////$$$$                                                                                                                                                                        $$$$////____((((((((((((((((////$$$$-;-];];.",
"|&------$$$$////((((((((((((((((____////$$$$                                                                                                                                                                        $$$$////____((((((((((((((((////$$$$-;-];]]|",
"|&------$$$$////((((((((((((____////$$$$                                                                                                                                                                                $$$$////____((((((((((((////$$$$];]];]]|",
"|&------$$$$////((((((((((((____////$$$$                                                                                                                                                                                $$$$////____((((((((((((////$$$$-;]];];|",
"|&------$$$$////((((((((((((____////$$$$                                                                                                                                                                                $$$$////____((((((((((((////$$$$-;-];]]|",
"|&-----]$$$$////((((((((((((____////$$$$                                                                                                                                                                                $$$$////____((((((((((((////$$$$];-]]]]|",
"|&------$$$$////((((((((____////$$$$                                                                                                                                                                                        $$$$////____((((((((////$$$$]----]]|",
"|&------$$$$////((((((((____////$$$$                                                                                                                                                                                        $$$$////____((((((((////$$$$----]]]|",
".&------$$$$////((((((((____////$$$$                                                                                                                                                                                        $$$$////____((((((((////$$$$----]]]|",
".&------$$$$////((((((((____////$$$$                                                                                                                                                                                        $$$$////____((((((((////$$$$---]]]].",
".&------$$$$////((((____////$$$$                                                                                                                                                                                                $$$$////____((((////$$$$]]]]]]]|",
"|&--;---$$$$////((((____////$$$$                                                                                                                                                                                                $$$$////____((((////$$$$]]]]]]]|",
"|&--;---$$$$////((((____////$$$$                                                                                                                                                                                                $$$$////____((((////$$$$]]]]]]]|",
"|&------$$$$////((((____////$$$$                                                                                                                                                                                                $$$$////____((((////$$$$];]]]]]|",
".&------$$$$////((((____////$$$$                                                                                                                                                                                                $$$$////____((((////$$$$]]]]--]+",
"|&------$$$$////((((____////$$$$                                                                                                                                                                                                $$$$////____((((////$$$$]]]---]+",
"|&------$$$$////((((____////$$$$                                                                                                                                                                                                $$$$////____((((////$$$$]]]----|",
"|1------$$$$////((((____////$$$$                                                                                                                                                                                                $$$$////____((((////$$$$]]]----|",
"|1------$$$$////((((____////$$$$                                                                                                                                                                                                $$$$////____((((////$$$$23]]]]]|",
"|&------$$$$////((((____////$$$$                                                                                                                                                                                                $$$$////____((((////$$$$45]]]]]|",
"|&------$$$$////((((____////$$$$                                                                                                                                                                                                $$$$////____((((////$$$$>>6]]]]|",
"|1------$$$$////((((____////$$$$                                                                                                                                                                                                $$$$////____((((////$$$$>>]]-]]|",
"+&------$$$$////((((____////$$$$                                                                                                                                                                                                $$$$////____((((////$$$$>75]]]]|",
"|&------$$$$////((((____////$$$$                                                                                                                                                                                                $$$$////____((((////$$$$>]]]5]]|",
"|&------$$$$////((((____////$$$$                                                                                                                                                                                                $$$$////____((((////$$$$8]]]]];|",
"|&------$$$$////((((____////$$$$                                                                                                                                                                                                $$$$////____((((////$$$$]]]]]]]|",
"9&------$$$$////((((____////$$$$                                                                                                                                                                                                $$$$////____((((////$$$$]]]]]];|",
"0&------$$$$////((((____////$$$$                                                                                                                                                                                                $$$$////____((((////$$$$]]]]]];|",
"|&---];-$$$$////((((____////$$$$                                                                                                                                                                                                $$$$////____((((////$$$$]]]]]]]|",
"|&----;-$$$$////((((____////$$$$                                                                                                                                                                                                $$$$////____((((////$$$$a-]]]]-|",
"|&-]--;-$$$$////((((____////$$$$                                                                                                                                                                                                $$$$////____((((////$$$$b-]]]]]|",
"|&-]----$$$$////((((____////$$$$                                                                                                                                                                                                $$$$////____((((////$$$$--]]]]]|",
"|&----]]$$$$////((((____////$$$$                                                                                                                                                                                                $$$$////____((((////$$$$]]]]]]]|",
"#*;---]-$$$$////((((____////$$$$                                                                                                                                                                                                $$$$////____((((////$$$$]]]]]]]c",
".&;-----$$$$////((((____////$$$$                                                                                                                                                                                                $$$$////____((((////$$$$]]]]]]]|",
".&------$$$$////((((____////$$$$                                                                                                                                                                                                $$$$////____((((////$$$$]]]]]]].",
"|&;]-;--$$$$////((((____////$$$$                                                                                                                                                                                                $$$$////____((((////$$$$]]]]]]]|",
"|&;;];--$$$$////((((____////$$$$                                                                                                                                                                                                $$$$////____((((////$$$$]]]]]]]|",
"|1;;]--]$$$$////((((____////$$$$                                                                                                                                                                                                $$$$////____((((////$$$$]]]];;]|",
"|&]]]---$$$$////((((____////$$$$                                                                                                                                                                                                $$$$////____((((////$$$$]]]];-]|",
"|&-]----$$$$////((((____////$$$$                                                                                                                                                                                                $$$$////____((((////$$$$]]]-]]]|",
"|&-----]$$$$////((((____////$$$$                                                                                                                                                                                                $$$$////____((((////$$$$]]--]];|",
"|&--;-;-$$$$////((((____////$$$$                                                                                                                                                                                                $$$$////____((((////$$$$]];];];|",
"|&--;-;-$$$$////((((____////$$$$                                                                                                                                                                                                $$$$////____((((////$$$$]-;]]];|",
"|&--;-;-$$$$////((((____////$$$$                                                                                                                                                                                                $$$$////____((((////$$$$]];];;]|",
".&;-;---$$$$////((((____////$$$$                                                                                                                                                                                                $$$$////____((((////$$$$]]]]];]|",
".&;]]---$$$$////((((____////$$$$                                                                                                                                                                                                $$$$////____((((////$$$$]]]]];].",
".&;]----$$$$////((((____////$$$$                                                                                                                                                                                                $$$$////____((((////$$$$-]]]];].",
"|&------$$$$////((((____////$$$$                                                                                                                                                                                                $$$$////____((((////$$$$-]]]]]].",
".&------$$$$////((((____////$$$$                                                                                                                                                                                                $$$$////____((((////$$$$-]];;--.",
".&-]]---$$$$////((((____////$$$$                                                                                                                                                                                                $$$$////____((((////$$$$-;];;;-+",
"|&--;]--$$$$////((((____////$$$$                                                                                                                                                                                                $$$$////____((((////$$$$];];;;-.",
".&;-;---$$$$////((((____////$$$$                                                                                                                                                                                                $$$$////____((((////$$$$];]];;]|",
".&;;;--;$$$$////((((____////$$$$                                                                                                                                                                                                $$$$////____((((////$$$$];-];;]|",
".&;;---;$$$$////((((____////$$$$                                                                                                                                                                                                $$$$////____((((////$$$$--]];;]|",
".%;-----$$$$////((((____////$$$$                                                                                                                                                                                                $$$$////____((((////$$$$]-]]];]|",
".%-;---;$$$$////((((____////$$$$                                                                                                                                                                                                $$$$////____((((////$$$$]]]]]]].",
".&------$$$$////((((____////$$$$                                                                                                                                                                                                $$$$////____((((////$$$$]]]];;].",
".&-----;$$$$////((((____////$$$$                                                                                                                                                                                                $$$$////____((((////$$$$]]]];;-.",
".&-----;$$$$////((((____////$$$$                                                                                                                                                                                                $$$$////____((((////$$$$]]--;;-.",
".&---;-;$$$$////((((____////$$$$                                                                                                                                                                                                $$$$////____((((////$$$$]----;-.",
".&-----;$$$$////((((____////$$$$                                                                                                                                                                                                $$$$////____((((////$$$$;;---;-.",
".&------$$$$////((((____////$$$$                                                                                                                                                                                                $$$$////____((((////$$$$;;---;-.",
".%------$$$$////((((____////$$$$                                                                                                                                                                                                $$$$////____((((////$$$$;;-----.",
".&------$$$$////((((____////$$$$                                                                                                                                                                                                $$$$////____((((////$$$$--;----.",
".&--->)-$$$$////((((____////$$$$                                                                                                                                                                                                $$$$////____((((////$$$$--;----.",
".&->>>>;$$$$////((((____////$$$$                                                                                                                                                                                                $$$$////____((((////$$$$---;;--.",
".&);>>>;$$$$////((((____////$$$$                                                                                                                                                                                                $$$$////____((((////$$$$---;;--.",
".&);>)-;$$$$////((((____////$$$$                                                                                                                                                                                                $$$$////____((((////$$$$-------.",
".%;;>--;$$$$////((((____////$$$$                                                                                                                                                                                                $$$$////____((((////$$$$]---;--.",
".%;;----$$$$////((((____////$$$$                                                                                                                                                                                                $$$$////____((((////$$$$]---;--.",
"+%;-----$$$$////((((____////$$$$                                                                                                                                                                                                $$$$////____((((////$$$$]---;;-.",
".&------$$$$////((((____////$$$$                                                                                                                                                                                                $$$$////____((((////$$$$----;;-.",
".&------$$$$////((((____////$$$$                                                                                                                                                                                                $$$$////____((((////$$$$;---;;;.",
".&----;-$$$$////((((____////$$$$                                                                                                                                                                                                $$$$////____((((////$$$$----;-;.",
".&----;;$$$$////((((____////$$$$                                                                                                                                                                                                $$$$////____((((////$$$$-------.",
".&;---;;$$$$////((((____////$$$$                                                                                                                                                                                                $$$$////____((((////$$$$;------.",
"+&;]--;;$$$$////((((____////$$$$                                                                                                                                                                                                $$$$////____((((////$$$$;-;----.",
"+1;]--;;$$$$////((((____////$$$$                                                                                                                                                                                                $$$$////____((((////$$$$--;;--;.",
"+1;----;$$$$////((((____////$$$$                                                                                                                                                                                                $$$$////____((((////$$$$--;;--;.",
"|%;---;;$$$$////((((____////$$$$                                                                                                                                                                                                $$$$////____((((////$$$$--;;---.",
"+%----;;$$$$////((((____////$$$$                                                                                                                                                                                                $$$$////____((((////$$$$-----~-|",
"|1----;;$$$$////((((____////$$$$                                                                                                                                                                                                $$$$////____((((////$$$$----->]|",
"|&----;-$$$$////((((____////$$$$                                                                                                                                                                                                $$$$////____((((////$$$$---->--|",
".&------$$$$////((((____////$$$$                                                                                                                                                                                                $$$$////____((((////$$$$-------.",
".&]----;$$$$////((((____////$$$$                                                                                                                                                                                                $$$$////____((((////$$$$-;;;---.",
".&;----;$$$$////((((____////$$$$                                                                                                                                                                                                $$$$////____((((////$$$$-;;----.",
"+&----;-$$$$////((((____////$$$$                                                                                                                                                                                                $$$$////____((((////$$$$-;]--;-.",
"+&----;-$$$$////((((____////$$$$                                                                                                                                                                                                $$$$////____((((////$$$$]-]----.",
"+&---;;-$$$$////((((____////$$$$                                                                                                                                                                                                $$$$////____((((////$$$$;;-]---.",
"+&--~~--$$$$////((((____////$$$$                                                                                                                                                                                                $$$$////____((((////$$$$;-]----.",
"+&;-----$$$$////((((____////$$$$                                                                                                                                                                                                $$$$////____((((////$$$$-------+",
"+&----;-$$$$////((((____////$$$$                                                                                                                                                                                                $$$$////____((((////$$$$---;;--#",
"+%----;-$$$$////((((____////$$$$                                                                                                                                                                                                $$$$////____((((////$$$$-------#",
"+%;---;-$$$$////((((____////$$$$                                                                                                                                                                                                $$$$////____((((////$$$$-------@",
"+%;---;-$$$$////((((____////$$$$                                                                                                                                                                                                $$$$////____((((////$$$$]--;--!.",
"+&;---;-$$$$////((((____////$$$$                                                                                                                                                                                                $$$$////____((((////$$$$];-;---.",
".&;---;-$$$$////((((____////$$$$                                                                                                                                                                                                $$$$////____((((////$$$$];-;---.",
".&----;-$$$$////((((____////$$$$                                                                                                                                                                                                $$$$////____((((////$$$$]--;-;-.",
".&;-----$$$$////((((____////$$$$                                                                                                                                                                                                $$$$////____((((////$$$$]----;-+",
".%;-;---$$$$////((((____////$$$$                                                                                                                                                                                                $$$$////____((((////$$$$]----;-+",
".%;-;---$$$$////((((____////$$$$                                                                                                                                                                                                $$$$////____((((////$$$$]----;-.",
".%------$$$$////((((____////$$$$                                                                                                                                                                                                $$$$////____((((////$$$$;----;-.",
".&------$$$$////((((____////$$$$                                                                                                                                                                                                $$$$////____((((////$$$$;--;---.",
".%---;--$$$$////((((____////$$$$                                                                                                                                                                                                $$$$////____((((////$$$$;------+",
"+%-;-;->$$$$////((((____////$$$$                                                                                                                                                                                                $$$$////____((((////$$$$;------+",
"+%-;-;--$$$$////((((____////$$$$                                                                                                                                                                                                $$$$////____((((////$$$$--;-;-;+",
"+%-;-;--$$$$////((((____////$$$$                                                                                                                                                                                                $$$$////____((((////$$$$;---;-;.",
"+%-;-;!-$$$$////((((____////$$$$                                                                                                                                                                                                $$$$////____((((////$$$$;-;----+",
"+%-;-;~-$$$$////((((____////$$$$                                                                                                                                                                                                $$$$////____((((////$$$$;-;---;+",
"+%-;-;>>$$$$$$$$$$$$$$$$$$$$                                                                                                                                                                                                        $$$$$$$$$$$$$$$$$$$$;-;-;-;+",
"+%-;-;>>$$$$$$$$$$$$$$$$$$$$                                                                                                                                                                                                        $$$$$$$$$$$$$$$$$$$$;-;----.",
"+%-;-;-!$$$$$$$$$$$$$$$$$$$$                                                                                                                                                                                                        $$$$$$$$$$$$$$$$$$$$;-;----.",
"+%-;-;->$$$$$$$$$$$$$$$$$$$$                                                                                                                                                                                                        $$$$$$$$$$$$$$$$$$$$---;---.",
".%-;-;--$$$$,,,,'''',,,,$$$$                                                                                                                                                                                                        $$$$,,,,'''',,,,$$$$;-;;--;+",
".%-;-;--$$$$,,,,'''',,,,$$$$                                                                                                                                                                                                        $$$$,,,,'''',,,,$$$$;--;;;;+",
".%-;-;-;$$$$,,,,'''',,,,$$$$                                                                                                                                                                                                        $$$$,,,,'''',,,,$$$$----;;;+",
"+%---;-;$$$$,,,,'''',,,,$$$$                                                                                                                                                                                                        $$$$,,,,'''',,,,$$$$--;-;;;+",
".%-;-;-;$$$$,,,,'''',,,,$$$$                                                                                                                                                                                                        $$$$,,,,'''',,,,$$$$--;-;;-.",
".&-;-;--$$$$,,,,'''',,,,$$$$                                                                                                                                                                                                        $$$$,,,,'''',,,,$$$$---;;;;.",
".&-;-;-;$$$$,,,,'''',,,,$$$$                                                                                                                                                                                                        $$$$,,,,'''',,,,$$$$---;;;;.",
".&-----;$$$$,,,,'''',,,,$$$$                                                                                                                                                                                                        $$$$,,,,'''',,,,$$$$---;;;;+",
"+&-----;$$$$,,,,,,,,,,,,$$$$                                                                                                                                                                                                        $$$$,,,,,,,,,,,,$$$$;--;;;;+",
"+&;--;-;$$$$,,,,,,,,,,,,$$$$                                                                                                                                                                                                        $$$$,,,,,,,,,,,,$$$$;---;-;+",
"+&;--;-)$$$$,,,,,,,,,,,,$$$$                                                                                                                                                                                                        $$$$,,,,,,,,,,,,$$$$---;;;-+",
"+&;-;;-;$$$$,,,,,,,,,,,,$$$$                                                                                                                                                                                                        $$$$,,,,,,,,,,,,$$$$;-;;;;;+",
"+&;-$$$$,,,,,,,,'''',,,,,,,,$$$$                                                                                                                                                                                                $$$$,,,,,,,,'''',,,,,,,,$$$$;;;+",
"+&;-$$$$,,,,,,,,'''',,,,,,,,$$$$                                                                                                                                                                                                $$$$,,,,,,,,'''',,,,,,,,$$$$;;;+",
".&;-$$$$,,,,,,,,'''',,,,,,,,$$$$                                                                                                                                                                                                $$$$,,,,,,,,'''',,,,,,,,$$$$;;;+",
".&;)$$$$,,,,,,,,'''',,,,,,,,$$$$                                                                                                                                                                                                $$$$,,,,,,,,'''',,,,,,,,$$$$;;;+",
"+%--$$$$,,,,'''''''''''',,,,$$$$                                                                                                                                                                                                $$$$,,,,'''''''''''',,,,$$$$;;;.",
".&--$$$$,,,,'''''''''''',,,,$$$$                                                                                                                                                                                                $$$$,,,,'''''''''''',,,,$$$$;;;.",
"+&;-$$$$,,,,'''''''''''',,,,$$$$                                                                                                                                                                                                $$$$,,,,'''''''''''',,,,$$$$;;;.",
".&-;$$$$,,,,'''''''''''',,,,$$$$                                                                                                                                                                                                $$$$,,,,'''''''''''',,,,$$$$;;;+",
"+d--$$$$$$$$$$$$$$$$$$$$$$$$$$$$$$$$$$$$$$$$$$$$$$$$$$$$$$$$$$$$$$$$$$$$$$$$$$$$$$$$$$$$$$$$$$$$$$$$$$$$$$$$$$$$$$$$$$$$$$$$$$$$$$$$$$$$$$$$$$$$$$$$$$$$$$$$$$$$$$$$$$$$$$$$$$$$$$$$$$$$$$$$$$$$$$$$$$$$$$$$$$$$$$$$$$$$$$$$$$$$$$$$$$$$$$$$$$$$$$$$$$$$$$$$;;;+",
"+&--$$$$$$$$$$$$$$$$$$$$$$$$$$$$$$$$$$$$$$$$$$$$$$$$$$$$$$$$$$$$$$$$$$$$$$$$$$$$$$$$$$$$$$$$$$$$$$$$$$$$$$$$$$$$$$$$$$$$$$$$$$$$$$$$$$$$$$$$$$$$$$$$$$$$$$$$$$$$$$$$$$$$$$$$$$$$$$$$$$$$$$$$$$$$$$$$$$$$$$$$$$$$$$$$$$$$$$$$$$$$$$$$$$$$$$$$$$$$$$$$$$$$$$$$;;;+",
"+&;;$$$$$$$$$$$$$$$$$$$$$$$$$$$$$$$$$$$$$$$$$$$$$$$$$$$$$$$$$$$$$$$$$$$$$$$$$$$$$$$$$$$$$$$$$$$$$$$$$$$$$$$$$$$$$$$$$$$$$$$$$$$$$$$$$$$$$$$$$$$$$$$$$$$$$$$$$$$$$$$$$$$$$$$$$$$$$$$$$$$$$$$$$$$$$$$$$$$$$$$$$$$$$$$$$$$$$$$$$$$$$$$$$$$$$$$$$$$$$$$$$$$$$$$$;;-.",
".++.$$$$$$$$$$$$$$$$$$$$$$$$$$$$$$$$$$$$$$$$$$$$$$$$$$$$$$$$$$$$$$$$$$$$$$$$$$$$$$$$$$$$$$$$$$$$$$$$$$$$$$$$$$$$$$$$$$$$$$$$$$$$$$$$$$$$$$$$$$$$$$$$$$$$$$$$$$$$$$$$$$$$$$$$$$$$$$$$$$$$$$$$$$$$$$$$$$$$$$$$$$$$$$$$$$$$$$$$$$$$$$$$$$$$$$$$$$$$$$$$$$$$$$$$.++."};
