/* XPM */
static char * IDLE_7_xpm[] = {
"96 96 19 1",
" 	c None",
".	c #C7CFDD",
"+	c #92A1B9",
"@	c #100515",
"#	c #E69C69",
"$	c #F6CA9F",
"%	c #131313",
"&	c #FFFFFF",
"*	c #B4B4B4",
"=	c #FFFCFC",
"-	c #1A1932",
";	c #858585",
">	c #424C6E",
",	c #2A2F4E",
"'	c #0E071B",
")	c #5D2C28",
"!	c #391F21",
"~	c #571C27",
"{	c #BF6F4A",
"                                                                                                ",
"                                                                                                ",
"                                                                                                ",
"                                                                                                ",
"                                                                                                ",
"                                                                                                ",
"                                                                                                ",
"                                                                                                ",
"                                                                                                ",
"                                                                                                ",
"                                                                                                ",
"                                                                                                ",
"                                                                                                ",
"                                                                                                ",
"                                                                                                ",
"                                                                                                ",
"                                                                                                ",
"                                                                                                ",
"                                                                                                ",
"                                                                                                ",
"                                                                                                ",
"                                                                                                ",
"                                                                                                ",
"                                                                                                ",
"                                                                                                ",
"                                                                                                ",
"                                                                                                ",
"                                                                                                ",
"                                                                                                ",
"                                                                                                ",
"                                                                                                ",
"                                                                                                ",
"                                                                                                ",
"                                                                                                ",
"                                                                                                ",
"                                                                                                ",
"                                                                                                ",
"                                                                                                ",
"                                                                                                ",
"                                                                                                ",
"                                                                                                ",
"                                                                                                ",
"                                                                                                ",
"                                                                                                ",
"                                                                                                ",
"                                                                                                ",
"                                                                                                ",
"                                                                                                ",
"                                                                                                ",
"                                            ..                                                  ",
"                                            +.+@++..                                            ",
"                                             +@++....                                           ",
"                                              +++#### .                                         ",
"                                             .++#+.$+.                                          ",
"                                            .++##%%$%                                           ",
"                                           ..+++###$#                                           ",
"                                          ..++++.#...                                           ",
"                                          ..+&*++.+++.                                          ",
"                                         ..+&&=*+++..+                                          ",
"                                         ..+&&&=*+++.+                                          ",
"                                        ..+&&&&&&*++++                                          ",
"                                        ..+&&&&*&&*++-                                          ",
"                                        +++&&&*;*&*>,-                                          ",
"                                        ++ &&*;;;*;>,--                                         ",
"                                         + &&*;;*;>>,--                                         ",
"                                           &&*;;;>>,,--                                         ",
"                                            &*'+''''''--                                        ",
"                                            )!,+'''---!!                                        ",
"                                            )!~+++,---!!                                        ",
"                                            $##~~,,----{                                        ",
"                                          ~~$$#~>,-----{                                        ",
"                                        ~~~~~~>>>,------                                        ",
"                                     ~~~~~~~,,>>>,------                                        ",
"                                   ~~~~~~~ ,,,>>,,-----                                         ",
"                                  ~~~~~    ,,>>>,------                                         ",
"                                           ,,>>,,-----                                          ",
"                                           ,,,,,,-----                                          ",
"                                            ))!, -!!-                                           ",
"                                            ))!   !!                                            ",
"                                           ))!    !!!                                           ",
"                                           !!!    !!!!                                          ",
"                                                                                                ",
"                                                                                                ",
"                                                                                                ",
"                                                                                                ",
"                                                                                                ",
"                                                                                                ",
"                                                                                                ",
"                                                                                                ",
"                                                                                                ",
"                                                                                                ",
"                                                                                                ",
"                                                                                                ",
"                                                                                                ",
"                                                                                                ",
"                                                                                                "};
