/* XPM */
static char *_dc91411892045befaebc2dbe834c06a5d1ikSk9MMZqCKgz[] = {
/* columns rows colors chars-per-pixel */
"256 256 140 2 ",
"   c #1D2F3C",
".  c #253B46",
"X  c #223848",
"o  c #233948",
"O  c #253C48",
"+  c #253C49",
"@  c #253C4A",
"#  c #263D4B",
"$  c #263D4C",
"%  c #263D4D",
"&  c #263E4D",
"*  c #263E4E",
"=  c #2A4457",
"-  c #2B4659",
";  c #314452",
":  c #32505F",
">  c #2E4C61",
",  c #2F4D61",
"<  c #304F65",
"1  c #325060",
"2  c #325160",
"3  c #325161",
"4  c #325162",
"5  c #325163",
"6  c #335363",
"7  c #345363",
"8  c #315065",
"9  c #325164",
"0  c #335264",
"q  c #335265",
"w  c #345465",
"e  c #345466",
"r  c #315168",
"t  c #325268",
"y  c #335469",
"u  c #345569",
"i  c #35576C",
"p  c #35586E",
"a  c #3A5F77",
"s  c #395E78",
"d  c #3A5F78",
"f  c #3B6077",
"g  c #3C6177",
"h  c #3D6276",
"j  c #3D6277",
"k  c #3E6376",
"l  c #3E6377",
"z  c #3E6477",
"x  c #3C617A",
"c  c #3D627A",
"v  c #3E627B",
"b  c #3E6478",
"n  c #3E6479",
"m  c #3E647A",
"M  c #3E657A",
"N  c #3E657B",
"B  c #3F637C",
"V  c #3E657C",
"C  c #3F667D",
"Z  c #3F667E",
"A  c #3F667F",
"S  c #3F677F",
"D  c #476276",
"F  c #426679",
"G  c #43677A",
"H  c #44677A",
"J  c #40647D",
"K  c #41657E",
"L  c #42657E",
"P  c #42667E",
"I  c #43667F",
"U  c #44677F",
"Y  c #466A7C",
"T  c #4D6B7F",
"R  c #496C7E",
"E  c #4A6D7F",
"W  c #3F6780",
"Q  c #3F6781",
"!  c #3F6782",
"~  c #3F6882",
"^  c #3F6883",
"/  c #456880",
"(  c #416984",
")  c #416A84",
"_  c #416A85",
"`  c #426A85",
"'  c #426B85",
"]  c #446C86",
"[  c #456C87",
"{  c #456D87",
"}  c #466C86",
"|  c #496B83",
" . c #4B6F80",
".. c #486D83",
"X. c #4A6F83",
"o. c #4E6F86",
"O. c #466D88",
"+. c #466E88",
"@. c #476E88",
"#. c #476F88",
"$. c #486F89",
"%. c #497089",
"&. c #49708A",
"*. c #4A708A",
"=. c #4A718A",
"-. c #4B718B",
";. c #4B728B",
":. c #4C728B",
">. c #4D738C",
",. c #4E738C",
"<. c #4E748D",
"1. c #4F748D",
"2. c #4F758D",
"3. c #4F758E",
"4. c #507283",
"5. c #547586",
"6. c #557687",
"7. c #567787",
"8. c #507188",
"9. c #517188",
"0. c #537388",
"q. c #527289",
"w. c #537389",
"e. c #547488",
"r. c #547588",
"t. c #547688",
"y. c #557688",
"u. c #54778A",
"i. c #50758E",
"p. c #51768E",
"a. c #51768F",
"s. c #52778F",
"d. c #55788C",
"f. c #56788C",
"g. c #55798F",
"h. c #547891",
"j. c #557991",
"k. c #557A91",
"l. c #577B93",
"z. c #668297",
/* pixels */
"< 8 8 8 6 7 < 8 < < < < < < < 8 8 < 8 < < 8 < < < < < < < 8 < < < < < < < < < < < < 8 < 8 < < < < < < < < 8 7 7 7 7 8 < < < < < < < 8 < < < < < < 8 < < 8 8 < < < 8 < < 8 < < < 8 < < 7 6 p p < 7 < 6 7 7 8 < 8 8 8 < 8 < < < < < < < 8 < < < < < < 8 < < < 8 8 < < < < p p p 6 6 8 8 < < < < < < < < < < < 7 7 7 < < p p < 8 < < 8 p < p p p < 8 < p p p p < < < 8 p < 8 < < < 8 8 8 < < 8 < 8 < < < < < < 8 < < < < < < < < < < < < 7 7 8 8 < < < < < < < < < < < < < < < < 8 < 8 < < < < < < < < < < < 8 < 8 7 7 8 7 8 8 8 8 ",
"< w.w.w.w.7.w.w.w.w.w.w.w.w.w.w.w.w.w.w.w.w.w.l.w.w.w.w.w.w.w.w.w.w.w.w.w.w.w.w.w.w.w.w.w.w.w.w.w.w.w.w.w.w.w.w.w.w.w.w.w.w.w.w.w.w.w.w.w.w.w.w.w.w.w.w.w.w.w.w.w.w.w.w.w.w.w.w.w.w.w.w.w.l.l.w.w.w.7.y.7.w.w.w.w.w.w.w.w.w.w.w.w.w.w.w.w.w.w.w.w.w.w.w.w.w.w.w.w.w.w.w.w.w.w.w.y.w.w.w.w.w.w.w.w.w.w.w.w.w.7.7.7.w.w.w.w.w.w.w.l.l.l.w.w.l.l.w.w.l.l.l.l.l.l.d.d.w.l.w.w.w.w.w.w.w.w.w.w.w.w.w.w.w.w.w.w.w.w.w.w.w.w.w.w.w.w.w.w.w.w.7.7.7.7.w.w.w.w.w.w.w.w.w.w.w.w.w.w.w.w.w.w.7.7.7.7.w.w.w.w.w.w.w.w.w.y.y.y.7.w.w.w.w.w.8 ",
"< w.s s s s s s s s s s s s s s s s s s s s s s s s s s s s s s s s s s s s s s s s s s s s j s s s s s s s s s s s s s s s s s s s s s s s s s s s s s s s ^ ^ s s s s s s s s s s s s s s ^ s s ^ s s s s s s s s s s s s s s s s s s s s s s s s s s s s s s j s j j s ^ s s s s s s ^ ^ s s s ^ s ^ ^ ^ ^ s s s s s s s j s ^ ^ ^ s s ^ s s s s ^ ^ ^ ^ W j s s j s s s ^ s s s s s s s ^ ^ s s ^ ^ ^ ^ s ^ ^ ^ ^ ^ ^ ^ ^ s s a j j j j s s s s s s s s s s s s s s s s s s s s s j s s s s s s s s f s j j s j s s s s s 8 ",
"< w.s s s s s s s s s s s s s s s s s s s s s s s s s s s s s s s s s s s s s s s s s s s s s s s s s s s s s j j s s s s s s s s s s s s s s s s s s s s s ^ ^ s s s s s s s s s s s s s s s s s s s s s s ^ s ^ s s s s s s s s s s s s s s s s s s s s s s ^ j j j j s s j s j s j j s ^ ^ s s s s ^ ^ ^ ^ s s s ^ ^ j j j s s ^ ^ ^ ^ s ^ s s s s s s s f j j s j s s s s s s s s s s s ^ ^ s s ^ ^ ^ ^ s s ^ ^ ^ ^ ^ ^ s s s s W C ^ ^ ^ ^ ^ s s s s s s s s s s s s s s s ^ s s s s s s s s s s s s s j j s s s s s s s 8 ",
"< w.s s s s s s s s s s s s s s s s s s s j s s s s s s s s s s s s s s s s s s s s s s s s s f s s s s s s j s s s s s s s s s s s s s s s s s s s s s s s ^ s s s s s s s s s s s s s s s s ^ s s s s s s ^ ^ s s s s s s s s s s s s s s s s s s s s s ^ s j j j j j s s j j s s s j s s ^ ^ s s s s s ^ ^ s s s ^ ^ f j s s s ^ s ^ s s s s s s s s s s s s s s s s s s s s s s j j ^ s ^ s s ^ ^ ^ ^ ^ ^ s ^ ^ ^ ^ ^ ^ s s s ^ ^ ^ ^ W ^ ^ ^ s ^ ^ s s s s s s s s s s s s ^ s s s s s s s s s s s s s j f s s s s s s s 8 ",
"< w.s s s s s s s s s s s s s s s s s s s s ^ s s s s s s s s s s s ^ ^ ^ ^ ^ ^ W ^ s ^ s ^ ^ s ^ ^ ^ ^ ^ ^ ^ C ^ s s s s s s s s s s s s s s s s s s ^ ^ s ^ ^ s s s s s s s s s s s s s s s ^ ^ s s ^ ^ ^ ^ ^ s s ^ s s s s s s s s s s s s s s s s s ^ ^ ^ ^ j j j b ^ s ^ j s s s s s s ^ ^ ^ ^ s ^ ^ ^ ^ ^ ^ ^ ^ s s s ^ s ^ s s s s s s s s s s s s s s s s s s s s s j s s s s s ^ s ^ s s ^ ^ ^ ^ s ^ s ^ ^ ^ s ^ ^ s s ^ ^ ^ ^ ^ ^ ^ ^ s ^ ^ ^ ^ s s s s s s s s s s s s s s s s s s s s s s s s s s s s s s j s s s 8 ",
"< w.s s s s s s s s s s s s s s s s s s s s s s s s s s s s ^ s s s ^ ^ ^ ^ ^ ^ ^ W s ^ s b ^ ^ ^ C ^ ^ ^ ^ ^ ^ ^ ^ s s s s s s s s s s s s s s s s s s s s s s s s s s s s s s s s s s s s s s ^ ^ s ^ ^ s ^ ^ s s s s s s s s s s s s s s s s ^ ^ s s s s s ^ ^ ^ j ^ ^ s ^ ^ s s s s ^ ^ ^ ^ ^ ^ s ^ ^ ^ ^ ^ ^ ^ s s s ^ ^ ^ ^ s s s s s s s s s s s s s s s s s s s s s j s s s s s ^ s ^ ^ ^ ^ s s ^ s ^ ^ ^ s ^ s ^ ^ ^ ^ ^ ^ s s s s b ^ s ^ ^ ^ ^ s ^ s s s s s s s s s s s s s s s s s s f s s s s s s j j j j j s s 8 ",
"< w.s s s s s s s s s s s s s s s s s s s s s s s s s s s ^ ^ s s s s s s ^ ^ ^ ^ ^ s ^ ^ j C ^ ^ ^ ^ ^ ^ s s ^ ^ ^ ^ ^ ^ ^ ^ s s s s s s s s s s s s s s s s ^ s ^ s s s s s s s s s s s s s ^ ^ ^ ^ ^ ^ s ^ ^ ^ s s s s s s s s s s s s s s s s ^ ^ s s s s ^ ^ ^ f s ^ s ^ s s s s ^ ^ s ^ s s ^ s ^ ^ ^ f ^ ^ ^ ^ s s s ^ ^ ^ s s s s s s s s s s s s s s j s s s s s s s s s s s ^ ^ s ^ ^ ^ s s ^ ^ ^ ^ ^ ^ s s s s ^ ^ ^ ^ ^ s ^ s s j C f s ^ ^ ^ ^ ^ ^ s s s s s s s s s s s s s s s s s s s ^ s s s s j j s s s s s 8 ",
"< w.s s s s s s s s s s s s s s s s s s s s s s s s s s s s s s s s s ^ ^ ^ ^ ^ ^ ^ s ^ j b j ^ ^ ^ ^ ^ ^ s s ^ j ^ ^ ^ ^ ^ ^ a s f s s s s s s s s s ^ s s ^ ^ ^ s s s s s s s s s s s s s ^ ^ s ^ ^ ^ ^ s s ^ ^ s ^ s s s s s s s s ^ ^ ^ s s s ^ ^ ^ s ^ s s ^ ^ j s j j j s s s s ^ ^ ^ ^ s s ^ s ^ s s s ^ ^ ^ ^ ^ ^ ^ ^ ^ ^ s s s s s s s s s s s s s s s s s s s s s s s s s s ^ s s ^ ^ s s s ^ ^ s ^ ^ ^ s s s ^ ^ ^ ^ ^ ^ ^ ^ s s ^ s s s ^ ^ s s ^ ^ ^ s s s s s s s s s s s s s s s s s s ^ s s s s j s s s s s s 8 ",
"< w.s s s s s s s s s s s s s s s s s s s s s s s s ^ ^ s ^ ^ s s s s ^ ^ ^ ^ ^ ^ s s ^ j j j ^ ^ ^ ^ ^ ^ s s ^ W C ^ ^ ^ ^ ^ s s s s s s s s s s s ^ ^ s ^ ^ ^ ^ ^ s s s s s s s s ^ ^ ^ s ^ s s ^ ^ ^ ^ s ^ s ^ ^ s s s s s s s s s s ^ ^ ^ s s s s ^ s s s ^ ^ C j s j s j s j s s W ^ C ^ s s ^ s s ^ ^ ^ ^ s ^ ^ ^ ^ ^ ^ s s s s s ^ s s s s s s s s s s s s s s f j s ^ s s s s ^ s s ^ ^ s s ^ ^ ^ s ^ ^ ^ s s s ^ ^ ^ ^ ^ ^ ^ ^ s s s s s s ^ ^ ^ ^ ^ ^ ^ ^ s s s ^ s s s ^ s s s s s s s s s s s s s s s s s s s s s 8 ",
"< w.s s s s s s s s s s s s s s s s s ^ s s s s s s ^ ^ ^ ^ ^ s s s s s ^ ^ ^ ^ ^ ^ ^ W C j j ^ ^ ^ ^ ^ ^ ^ ^ ^ ^ ^ ^ ^ ^ ^ ^ ^ s ^ s s s s s s s s ^ ^ ^ ^ ^ ^ s ^ ^ ^ s s s s ^ ^ ^ ^ ^ ^ ^ ^ ^ ^ C ^ ^ s ^ s s ^ s s s s s s s s s s ^ ^ ^ s s s ^ ^ s s s ^ ^ ^ W j j s j s s s j j j j ^ s ^ ^ s s s ^ ^ ^ ^ ^ ^ ^ ^ ^ s s s s s ^ ^ s s s s s s s s s s s s s s f f s j ^ s ^ s s ^ s ^ ^ s ^ ^ ^ ^ s s ^ ^ ^ s ^ ^ ^ ^ ^ ^ ^ ^ ^ s j s s s s ^ ^ ^ ^ ^ ^ ^ ^ s s s ^ ^ s s ^ s s s s s s s s s s s s s s s s s s s s s 8 ",
"< w.s s s s s s s s s s s s s s s s ^ s s s s s s s ^ ^ ^ ^ ^ ^ ^ s s s ^ ^ ^ ^ ^ ^ ^ ^ ^ b j ^ ^ ^ ^ ^ ^ ^ ^ ^ ^ ^ ^ ^ ^ ^ ^ ^ s ^ ^ s s s s s ^ ^ ^ ^ s s ^ ^ ^ ^ ^ ^ ^ s s ^ s ^ ^ ^ ^ s ^ ^ ^ ^ ^ ^ ^ s ^ s s ^ s ^ s s s s s s s s ^ s s s s s s s ^ s s ^ ^ ^ ^ ^ j s s s j j s j j j ^ s ^ ^ s s s ^ ^ ^ s ^ s s j j j s s s s ^ s s s s s s ^ s s s s s s s s s f ^ j f s s s s s s ^ ^ ^ ^ ^ ^ ^ s s s ^ ^ ^ ^ ^ ^ ^ ^ ^ ^ ^ ^ s j s ^ ^ s s ^ ^ ^ ^ ^ ^ ^ ^ ^ ^ ^ ^ ^ s s s s s s s s s s s s s s s s s s s s s s s 8 ",
"< w.s s s s s s s s s s s s s s s s s s s s s s s s ^ ^ ^ ^ ^ ^ ^ ^ s s ^ ^ ^ ^ ^ ^ s ^ ^ ^ ^ ^ ^ ^ s ^ ^ ^ ^ ^ ^ ^ ^ s ^ ^ ^ ^ ^ ^ ^ s s s s s ^ ^ ^ s s s ^ ^ ^ ^ ^ ^ ^ s s ^ s s ^ ^ ^ s ^ s ^ ^ ^ ^ ^ s ^ s s ^ ^ s s s s s s s s s ^ ^ ^ ^ ^ ^ s s ^ ^ s ^ ^ ^ ^ ^ s s s f s j j j j j C ^ ^ ^ s ^ s ^ ^ ^ s ^ ^ s s j j j ^ s s s s s s s s s ^ s s s s s s s s s j j j s s s s s s s j ^ ^ ^ C ^ ^ ^ s s ^ ^ ^ s ^ ^ ^ ^ ^ ^ ^ s s j s ^ ^ s s ^ ^ ^ ^ ^ s ^ ^ ^ ^ ^ ^ ^ ^ s s s s s s s s s s s s s s s s s s s s s s 8 ",
"< w.s s s s s s s s s s s s s s s s s s s s j s s s s ^ z s j ^ ^ ^ ^ ^ ^ ^ ^ ^ ^ ^ ^ ^ ^ ^ ^ ^ ^ ^ s ^ s ^ ^ ^ s ^ ^ ^ ^ ^ ^ ^ ^ s ^ s s s ^ s ^ ^ ^ s s ^ ^ ^ ^ ^ ^ s ^ s s ^ s ^ ^ ^ ^ ^ ^ ^ ^ ^ s s ^ s ^ s s ^ ^ s s s ^ ^ ^ s s ^ ^ ^ ^ ^ ^ ^ ^ ^ ^ ^ ^ ^ ^ ^ ^ j s j s j s s j b j j ^ ^ ^ ^ s ^ ^ ^ ^ s s ^ ^ ^ ^ s j W ^ s ^ s s s s s s s s s s s s s s s s s j j j ^ s s s j s s j j j ^ ^ ^ ^ ^ ^ ^ ^ ^ ^ ^ ^ ^ ^ ^ z ^ s s s C ^ ^ s s s b C W ^ ^ s ^ ^ ^ ^ ^ ^ ^ ^ ^ ^ s s s s s s s s s s s s s s s s s s s f 8 ",
"< w.s s s s s s s s s s s s s s s s s s s s s s s s s W C s W ^ ^ ^ ^ s ^ ^ ^ ^ ^ ^ ^ ^ ^ ^ ^ ^ s ^ ^ ^ s C ^ ^ ^ ^ ^ ^ ^ ^ ^ ^ ^ ^ ^ s s s ^ ^ ^ ^ ^ s s ^ ^ ^ ^ ^ ^ s ^ ^ ^ ^ ^ s s ^ ^ ^ ^ ^ ^ ^ ^ ^ ^ s ^ s s ^ ^ s s s ^ ^ ^ s s ^ ^ ^ ^ ^ ^ ^ ^ ^ s ^ ^ ^ f ^ ^ s j j s s s s b j j b ^ ^ ^ ^ s s ^ ^ ^ ^ ^ ^ ^ ^ ^ s ^ ^ ^ s ^ ^ ^ ^ s s s s s s j j s s s s s s s ^ C ^ s s s j s j ^ ^ ^ ^ s ^ ^ ^ ^ s ^ ^ ^ ^ ^ ^ ^ j j b ^ ^ s ^ W j s s ^ j j ^ ^ j ^ ^ ^ ^ ^ ^ ^ ^ ^ ^ s s s s s s s ^ s s s s f s s s s s s s s 8 ",
"8 w.s s s s s s s s s s s s s s s s s ^ ^ s s ^ ^ s s s ^ ^ W ^ ^ ^ ^ s ^ ^ ^ ^ ^ ^ ^ ^ ^ ^ ^ ^ ^ ^ ^ ^ s C b ^ ^ ^ ^ ^ ^ ^ ^ ^ ^ s ^ s s ^ ^ ^ ^ ^ ^ s ^ ^ ^ ^ ^ ^ ^ ^ ^ ^ ^ ^ ^ ^ s ^ ^ ^ ^ ^ ^ ^ ^ ^ ^ s ^ s s s ^ s s ^ ^ ^ ^ s s s ^ ^ ^ ^ ^ ^ ^ ^ s W s b ^ ^ j s j j s j j s j s b ^ ^ ^ ^ ^ s s ^ ^ ^ ^ ^ ^ ^ ^ b ^ ^ ^ ^ s s s ^ ^ s s s s ^ s s s s s s s s s s ^ ^ ^ s s W j s ^ ^ ^ ^ ^ s ^ ^ ^ ^ ^ ^ ^ ^ ^ ^ ^ W j j ^ ^ ^ s ^ ^ j j s ^ ^ ^ ^ ^ b b ^ ^ ^ ^ ^ ^ ^ ^ s ^ ^ s s s s s ^ s s s s s s s s s s s s s 8 ",
"8 w.s s s s s s s s s s s j j s s s s s ^ ^ j ^ ^ b j s s ^ ^ ^ ^ ^ s s ^ ^ ^ ^ ^ s ^ ^ ^ ^ ^ ^ ^ ^ ^ ^ ^ ^ ^ ^ ^ ^ ^ ^ ^ ^ ^ ^ ^ s ^ s s ^ s ^ ^ ^ ^ ^ s ^ ^ ^ ^ ^ ^ ^ ^ ^ ^ ^ ^ ^ s W W ^ ^ ^ ^ s s ^ ^ s ^ s s s ^ ^ s ^ ^ ^ ^ ^ s ^ ^ s ^ ^ ^ W j ^ s j s ^ ^ ^ j s j j j j j s C s s ^ ^ ^ ^ ^ s s s ^ ^ b j ^ ^ C j ^ ^ ^ ^ s s ^ ^ ^ s s ^ ^ ^ s s s s ^ s s s j s ^ ^ ^ s ^ ^ W s ^ ^ ^ s ^ s ^ ^ s ^ ^ ^ ^ ^ ^ ^ ^ ^ ^ ^ ^ ^ ^ s ^ ^ b b s j ^ ^ ^ C b ^ ^ ^ ^ ^ ^ ^ ^ ^ ^ s ^ ^ s s s s s s s s s s s s s s s s s s 8 ",
"8 w.s s s s s s s s ^ s s j j j s s s s j s s s s j j f s ^ ^ ^ ^ ^ s s s ^ ^ ^ ^ s ^ ^ ^ ^ ^ ^ ^ ^ ^ ^ s s ^ ^ ^ ^ ^ ^ ^ ^ ^ ^ ^ s ^ s s s C ^ ^ s ^ ^ s ^ ^ ^ ^ ^ ^ ^ ^ ^ ^ ^ ^ ^ ^ ^ ^ ^ ^ ^ ^ ^ s s ^ s s s s ^ s ^ ^ ^ ^ ^ ^ ^ ^ ^ ^ ^ ^ C ^ b j j s j s s ^ ^ s j j j j b s ^ ^ s b ^ ^ ^ ^ ^ ^ ^ s ^ ^ s ^ ^ ^ ^ C ^ ^ ^ b s ^ C ^ ^ ^ s ^ ^ s s s s s ^ s f s f s ^ ^ ^ s s ^ ^ s ^ ^ ^ ^ ^ ^ ^ ^ s ^ ^ ^ ^ ^ ^ ^ ^ ^ ^ ^ ^ ^ ^ s ^ ^ ^ ^ s W W ^ ^ ^ ^ ^ ^ ^ ^ ^ ^ ^ ^ ^ ^ s ^ s s s s s s s s s s s s s s s s s s j 8 ",
"8 w.s s s s s s s s s s s s j j j j j j j s s s s f j j s ^ ^ ^ ^ ^ s s s ^ ^ ^ ^ ^ ^ ^ ^ ^ ^ ^ ^ ^ ^ ^ s s ^ ^ ^ ^ ^ ^ ^ ^ ^ ^ ^ s ^ s s s s ^ ^ s s ^ ^ ^ ^ ^ ^ ^ ^ ^ ^ ^ ^ ^ ^ ^ ^ ^ ^ ^ ^ ^ ^ ^ s s ^ s ^ s s ^ ^ ^ ^ ^ ^ ^ ^ ^ s ^ ^ j j W s j j j j j j s ^ ^ ^ j j j j b ^ ^ ^ ^ W ^ ^ C ^ ^ ^ ^ s ^ ^ s ^ b ^ ^ ^ ^ ^ ^ j j s s ^ ^ s s ^ j s j s s ^ s s j s s s s ^ ^ s s ^ ^ s ^ ^ ^ s ^ ^ ^ ^ s ^ ^ ^ ^ ^ s ^ ^ ^ ^ ^ ^ ^ ^ s ^ ^ ^ s s s ^ ^ ^ ^ ^ ^ ^ ^ ^ ^ ^ ^ ^ ^ ^ ^ ^ s ^ s s s s s s ^ s s s s s s s s s s 8 ",
"< w.s s s s s s s s s s s s j s j s s j j j s s s s s s ^ ^ ^ ^ ^ ^ ^ s s ^ ^ ^ ^ ^ ^ ^ s ^ ^ ^ ^ ^ ^ ^ s ^ ^ ^ ^ ^ ^ ^ ^ ^ ^ ^ ^ ^ ^ s s s s ^ ^ s s ^ ^ ^ ^ ^ ^ ^ ^ ^ ^ ^ ^ ^ ^ ^ ^ s ^ ^ ^ ^ ^ ^ s ^ ^ s ^ s ^ ^ ^ ^ ^ ^ ^ ^ ^ ^ ^ ^ j j j j j j j j j j ^ s W ^ ^ ^ j C s s s ^ ^ ^ ^ ^ ^ ^ j C s ^ ^ ^ ^ s ^ ^ ^ W s ^ ^ ^ s s s s s ^ s s j j s j j s j j s j s s s ^ ^ ^ s s ^ s s ^ ^ ^ ^ ^ ^ ^ ^ s ^ ^ ^ s s s ^ ^ ^ ^ ^ ^ ^ ^ s ^ ^ ^ ^ ^ ^ ^ ^ ^ ^ ^ ^ ^ ^ ^ ^ ^ ^ ^ ^ ^ ^ ^ ^ ^ s s s s s s ^ s s s s s s s s s s 8 ",
"8 w.s s s s s s s s s s s s s s j j s s j s ^ ^ s s ^ ^ ^ ^ ^ ^ ^ ^ ^ ^ ^ ^ ^ ^ ^ ^ ^ ^ ^ ^ ^ ^ ^ ^ ^ ^ s ^ ^ ^ ^ ^ ^ ^ ^ ^ ^ ^ ^ ^ ^ ^ s s ^ s ^ s s s ^ s ^ ^ ^ ^ ^ ^ ^ ^ ^ ^ ^ ^ ^ s s W C ^ ^ ^ ^ ^ ^ s ^ s ^ ^ ^ ^ ^ ^ ^ ^ ^ ^ ^ ^ ^ s j j j j j j j j ^ ^ j s ^ ^ ^ ^ s s ^ ^ s ^ ^ ^ ^ ^ W C ^ ^ ^ ^ ^ ^ ^ ^ ^ ^ s j s ^ ^ ^ s s ^ ^ s s j j j j j j j j s j s s s ^ ^ ^ s s ^ ^ s ^ ^ ^ ^ ^ ^ ^ ^ s ^ ^ ^ s s s ^ ^ ^ ^ ^ ^ ^ ^ s ^ ^ ^ ^ ^ ^ ^ ^ ^ ^ s ^ ^ ^ ^ ^ ^ ^ ^ ^ ^ ^ ^ ^ ^ j s s s s s ^ ^ s s s s s s s s s 8 ",
"8 w.s s s s s s s s s s s s s s s j j s s ^ ^ ^ s ^ ^ ^ ^ ^ ^ ^ ^ ^ ^ ^ ^ ^ ^ ^ ^ ^ ^ ^ ^ ^ ^ ^ ^ ^ ^ s s ^ ^ ^ ^ ^ ^ ^ ^ ^ ^ ^ ^ ^ ^ s s ^ s s ^ ^ ^ s ^ s ^ ^ ^ ^ ^ ^ ^ ^ ^ ^ ^ ^ ^ s ^ ^ ^ j ^ ^ ^ ^ ^ s ^ ^ ^ ^ ^ s ^ ^ ^ ^ ^ ^ ^ ^ ^ s j j b ^ j j j j ^ ^ j s s s s s f ^ ^ ^ ^ ^ s s ^ ^ ^ ^ s ^ s ^ ^ ^ ^ ^ ^ ^ ^ s s ^ ^ ^ ^ s s ^ s ^ b j j j j j j s s j s s ^ ^ ^ j W s ^ ^ s ^ ^ ^ ^ ^ ^ ^ ^ ^ ^ ^ ^ s ^ ^ ^ ^ ^ ^ ^ ^ ^ ^ s ^ ^ ^ ^ ^ ^ ^ ^ ^ ^ ^ ^ ^ ^ ^ ^ ^ ^ ^ s ^ ^ ^ ^ ^ f s s s s s ^ ^ s s s s s s s s s < ",
"8 w.s s s s s s s s s s s s s s s s s s j s ^ ^ s ^ ^ ^ ^ ^ ^ ^ s ^ ^ ^ ^ ^ ^ ^ ^ s ^ ^ ^ ^ ^ ^ ^ ^ ^ ^ ^ ^ ^ ^ ^ ^ ^ ^ ^ ^ ^ ^ s ^ ^ s s ^ s ^ ^ ^ ^ s ^ ^ s ^ ^ ^ ^ ^ ^ s ^ ^ ^ ^ ^ s s ^ ^ j ^ ^ ^ ^ ^ s ^ ^ ^ ^ ^ s ^ ^ ^ ^ ^ ^ ^ ^ ^ s s j ^ ^ ^ j j C ^ ^ ^ ^ s ^ s W s ^ ^ ^ ^ ^ s s ^ ^ ^ ^ s ^ s ^ s ^ ^ ^ ^ ^ C b ^ s ^ ^ ^ ^ s ^ C j j j j j s j j s s j s ^ ^ ^ ^ ^ ^ s ^ ^ ^ ^ ^ ^ ^ ^ s ^ ^ ^ ^ ^ ^ ^ ^ ^ ^ ^ ^ ^ ^ ^ ^ ^ s ^ ^ ^ C j C ^ ^ ^ ^ ^ ^ ^ ^ ^ ^ ^ ^ ^ s ^ ^ ^ ^ ^ s s s s s s ^ ^ s s s s s s s s s 8 ",
"8 w.s s s s s s s s s s s s s s s s s s s s s s s s ^ ^ ^ ^ ^ s s ^ ^ ^ ^ ^ ^ ^ ^ s ^ ^ ^ ^ ^ ^ ^ ^ ^ ^ ^ ^ ^ ^ ^ ^ ^ ^ ^ ^ ^ ^ ^ ^ ^ s s ^ ^ s ^ ^ ^ ^ ^ ^ s j ^ ^ ^ s ^ s ^ ^ ^ ^ ^ ^ b ^ ^ j b b ^ ^ ^ ^ ^ s ^ ^ ^ ^ ^ ^ ^ ^ ^ ^ ^ ^ ^ s j s ^ ^ ^ ^ ^ ^ C ^ ^ ^ s C ^ ^ s ^ ^ ^ ^ ^ s ^ ^ ^ ^ ^ ^ ^ s ^ s ^ ^ ^ ^ ^ ^ ^ ^ ^ ^ ^ ^ ^ s b j j j j j j j j ^ ^ s j s ^ ^ s ^ ^ ^ s ^ ^ ^ ^ ^ ^ ^ ^ ^ ^ s ^ ^ ^ ^ ^ s ^ ^ ^ ^ ^ ^ ^ ^ ^ s ^ ^ ^ s s s ^ ^ ^ ^ ^ ^ ^ ^ ^ ^ ^ ^ ^ ^ ^ ^ ^ ^ ^ s ^ s s s s ^ ^ s s s s s s s s s 8 ",
"8 w.j s s s s s s s s s s s s s j s s s s s s s s s s ^ ^ s ^ s ^ ^ ^ ^ ^ ^ ^ ^ ^ ^ ^ ^ ^ ^ ^ ^ ^ ^ ^ ^ ^ ^ ^ ^ ^ ^ ^ ^ ^ ^ ^ ^ ^ ^ ^ ^ s ^ ^ s ^ ^ ^ s ^ ^ ^ j ^ ^ ^ ^ ^ s ^ ^ ^ ^ ^ ^ C j ^ ^ ^ ^ ^ ^ ^ ^ ^ s ^ ^ ^ ^ ^ ^ ^ ^ b j W ^ ^ s C s ^ ^ ^ ^ ^ ^ ^ ^ ^ ^ s s ^ s s ^ s s s ^ s W ^ ^ ^ ^ ^ ^ ^ ^ s ^ ^ ^ ^ ^ s ^ ^ ^ ^ ^ ^ C j j j j C j ^ C s ^ ^ ^ s j s ^ ^ ^ ^ j j s ^ ^ ^ ^ ^ ^ ^ ^ ^ ^ s ^ ^ ^ ^ ^ s ^ ^ ^ ^ ^ ^ ^ ^ ^ ^ ^ ^ ^ s ^ s ^ ^ ^ ^ ^ ^ ^ ^ ^ ^ ^ ^ ^ ^ ^ ^ ^ ^ ^ s ^ s ^ s s s s s s s ^ s s s s s < ",
"8 w.s s s s s s s s s s s s f f s s ^ s s s s s s s ^ ^ ^ ^ s s ^ ^ ^ ^ ^ ^ ^ ^ ^ ^ ^ ^ ^ ^ ^ ^ ^ ^ ^ ^ ^ ^ ^ ^ ^ ^ ^ ^ ^ ^ ^ ^ ^ ^ ^ ^ W ^ ^ s ^ ^ ^ ^ ^ ^ ^ b j b ^ ^ ^ ^ C ^ ^ ^ ^ ^ ^ b ^ ^ ^ ^ ^ ^ ^ ^ ^ ^ ^ ^ ^ ^ ^ ^ ^ ^ C j ^ ^ ^ s ^ s ^ ^ ^ ^ ^ ^ ^ ^ ^ ^ s s s s ^ ^ s s s ^ s ^ C ^ ^ ^ s ^ ^ ^ ^ ^ ^ ^ ^ ^ s ^ ^ ^ ^ ^ ^ C s j j s s ^ ^ j s ^ ^ ^ s j s j ^ ^ ^ s C s ^ ^ ^ ^ ^ s ^ ^ ^ ^ ^ ^ ^ ^ ^ s s ^ ^ ^ ^ ^ ^ ^ ^ ^ s ^ ^ ^ s ^ ^ ^ ^ s ^ ^ ^ ^ ^ ^ ^ ^ ^ ^ ^ ^ ^ ^ ^ s s s s s s s s s s s s s s s s s s < ",
"8 y.j s s s s s s s s s s s s s s s s s s s s s s ^ ^ ^ ^ ^ ^ ^ ^ ^ ^ ^ ^ ^ ^ ^ ^ ^ ^ ^ ^ ^ ^ ^ ^ ^ ^ ^ ^ ^ ^ ^ ^ ^ ^ ^ ^ ^ ^ ^ ^ ^ C ^ ^ ^ ^ s ^ ^ ^ ^ ^ ^ ^ ^ b j ^ ^ ^ s C ^ ^ s ^ ^ ^ s ^ ^ ^ ^ j ^ ^ s ^ s ^ ^ ^ ^ ^ ^ ^ s ^ ^ ^ ^ ^ s ^ ^ ^ j ^ C ^ ^ ^ ^ s ^ s s s s ^ ^ s s s ^ ^ j j ^ ^ ^ s ^ ^ ^ ^ ^ s ^ ^ ^ s ^ ^ ^ ^ ^ ^ ^ s b ^ j s ^ ^ j s ^ ^ s s j s ^ ^ ^ ^ s ^ s ^ s ^ ^ ^ ^ ^ ^ ^ ^ ^ ^ ^ ^ ^ s ^ ^ ^ ^ ^ s ^ ^ ^ ^ s ^ ^ ^ s ^ ^ ^ ^ ^ ^ ^ ^ ^ ^ ^ ^ ^ ^ s s ^ ^ ^ ^ s s s s s s s s s s s s s s s s s s < ",
"8 7.j j s s s s s s s s s s s s s s s s s s s ^ ^ ^ ^ ^ ^ ^ ^ ^ ^ ^ ^ ^ ^ ^ ^ ^ ^ ^ ^ ^ ^ ^ ^ ^ C ^ ^ ^ s ^ s s ^ ^ ^ j C ^ ^ ^ ^ ^ ^ ^ ^ ^ ^ ^ ^ ^ ^ ^ s ^ ^ ^ s j ^ ^ ^ ^ b ^ ^ s ^ s ^ ^ ^ ^ ^ j s j ^ s ^ s ^ ^ ^ ^ ^ ^ ^ ^ ^ ^ ^ ^ ^ ^ ^ ^ ^ ^ C b ^ ^ W ^ s ^ s s s s s ^ s ^ s ^ ^ j j ^ ^ s s ^ ^ ^ ^ ^ ^ ^ ^ s s ^ ^ ^ ^ ^ s ^ s ^ ^ W j ^ ^ ^ ^ ^ ^ s s j s ^ ^ ^ ^ s ^ s ^ s ^ ^ ^ ^ ^ ^ ^ ^ ^ ^ ^ ^ ^ ^ ^ ^ ^ ^ ^ ^ ^ ^ ^ ^ s ^ ^ s ^ ^ s ^ ^ ^ ^ s ^ s ^ ^ ^ ^ ^ s s ^ ^ ^ ^ s s s s s s s s s s s s s s ^ s s s < ",
"8 7.s j s s s s s s s s s s s s s s s s ^ ^ ^ ^ ^ ^ ^ ^ ^ ^ ^ ^ ^ ^ ^ ^ ^ ^ ^ ^ ^ ^ ^ ^ ^ ^ ^ ^ ^ ^ ^ ^ ^ ^ s s ^ ^ ^ ^ ^ ^ ^ ^ ^ ^ ^ ^ ^ j C ^ ^ ^ ^ s s ^ ^ ^ j ^ ^ ^ ^ ^ j ^ ^ s ^ ^ s ^ ^ ^ C j j j ^ s ^ ^ ^ ^ ^ ^ ^ ^ ^ ^ ^ ^ ^ ^ ^ ^ ^ ^ ^ ^ b j ^ ^ ^ ^ ^ ^ s s s s s ^ s ^ s ^ ^ ^ C ^ ^ s s ^ ^ ^ s ^ ^ ^ ^ s s ^ ^ ^ ^ ^ s ^ s ^ b C ^ ^ ^ ^ ^ ^ ^ s W s s ^ ^ ^ j s ^ s W s ^ ^ ^ s ^ ^ s ^ ^ s ^ ^ ^ ^ ^ ^ ^ s ^ ^ ^ ^ ^ ^ s ^ ^ ^ ^ ^ ^ ^ ^ ^ ^ s ^ ^ ^ ^ ^ ^ ^ ^ s s ^ ^ ^ ^ ^ s s s s s s s s s s s s s s s s < ",
"8 w.s s s s s s s s s s s s s s s s s s s ^ ^ s ^ ^ s ^ ^ ^ ^ ^ ^ ^ ^ ^ ^ ^ ^ ^ ^ ^ ^ ^ ^ ^ ^ ^ ^ ^ ^ ^ ^ ^ ^ ^ ^ ^ ^ ^ ^ ^ ^ ^ ^ ^ ^ ^ ^ s j C ^ ^ ^ ^ ^ ^ ^ ^ j ^ ^ ^ ^ j j C ^ s ^ ^ ^ ^ ^ ^ ^ ^ b ^ ^ s ^ ^ ^ ^ ^ ^ C ^ ^ ^ ^ ^ ^ ^ ^ ^ ^ ^ ^ j j ^ s ^ ^ s ^ ^ s s s s s ^ s ^ s ^ ^ ^ ^ ^ ^ s s ^ ^ ^ s ^ ^ ^ ^ ^ s ^ ^ ^ ^ ^ ^ ^ ^ ^ ^ s ^ ^ ^ ^ ^ ^ ^ s ^ ^ ^ ^ ^ W j s ^ s j s s ^ ^ ^ ^ ^ ^ ^ ^ s ^ ^ s ^ ^ ^ ^ s ^ ^ ^ ^ ^ ^ s ^ ^ ^ ^ ^ ^ ^ ^ ^ s s ^ ^ ^ ^ ^ ^ ^ ^ s s ^ ^ s ^ ^ ^ s s ^ s s s s s s s s s s s s < ",
"8 w.s s s s s s j j s s s s s s s s s s s ^ s s ^ ^ ^ ^ ^ ^ ^ ^ ^ ^ ^ ^ ^ ^ ^ ^ ^ ^ ^ ^ ^ ^ ^ W ^ s ^ ^ ^ ^ ^ ^ ^ ^ ^ ^ ^ ^ ^ ^ ^ ^ ^ ^ ^ ^ ^ ^ ^ ^ ^ ^ s ^ ^ ^ C ^ ^ ^ C j j ^ ^ s ^ s ^ ^ ^ ^ ^ ^ j ^ ^ ^ ^ s ^ ^ ^ ^ j ^ ^ ^ ^ ^ ^ ^ ^ ^ ^ ^ ^ ^ ^ ^ s ^ s s ^ ^ ^ s s s ^ ^ s ^ s ^ ^ ^ ^ ^ ^ s s ^ ^ ^ s ^ ^ ^ ^ s ^ ^ ^ ^ j C ^ ^ ^ ^ ^ s ^ ^ s ^ ^ ^ ^ s ^ s ^ ^ ^ b j s s s j ^ ^ ^ ^ ^ ^ ^ ^ ^ ^ ^ ^ ^ s s ^ ^ ^ s ^ ^ ^ ^ ^ ^ ^ ^ ^ ^ ^ ^ C C s ^ s s ^ ^ ^ ^ ^ ^ ^ ^ s s ^ ^ s ^ ^ ^ s ^ ^ s s s s s s s s s s s s < ",
"8 w.s s s s s s j s s s s s s s s s s s s s s s ^ ^ ^ ^ ^ ^ ^ ^ ^ ^ ^ ^ ^ ^ ^ ^ ^ ^ ^ ^ ^ W W ^ ^ s ^ ^ ^ ^ ^ ^ ^ ^ ^ ^ ^ ^ ^ ^ ^ ^ ^ s ^ ^ ^ ^ C ^ ^ ^ s ^ s s ^ b ^ ^ ^ j b ^ ^ ^ ^ s ^ ^ ^ ^ ^ C j ^ ^ ^ ^ s ^ ^ ^ ^ j ^ ^ ^ ^ ^ ^ j C ^ ^ ^ ^ ^ ^ ^ ^ ^ ^ s ^ ^ s s s s ^ ^ s ^ s ^ ^ ^ ^ ^ ^ C s ^ ^ ^ ^ ^ ^ ^ ^ s ^ ^ ^ ^ ^ ^ ^ ^ ^ ^ ^ ^ ^ ^ ^ ^ ^ ^ ^ s s s ^ ^ ^ b j s s s ^ ^ ^ ^ ^ ^ ^ ^ ^ ^ ^ ^ ^ ^ s s ^ ^ ^ s ^ ^ ^ ^ ^ ^ ^ ^ ^ ^ s ^ ^ ^ s ^ s s ^ ^ ^ ^ ^ ^ ^ ^ ^ ^ ^ ^ s ^ ^ ^ s ^ ^ s s s s s s s s s s s s < ",
"8 w.s s s s s s s s s s s s s s s s s s s s s s ^ ^ ^ ^ ^ ^ ^ ^ ^ ^ ^ ^ ^ ^ ^ ^ ^ ^ ^ ^ ^ ^ ^ ^ ^ s ^ ^ ^ W ^ ^ ^ s ^ ^ ^ ^ ^ s ^ ^ ^ s s ^ ^ ^ ^ W ^ s s ^ ^ ^ ^ ^ ^ ^ ^ ^ ^ ^ ^ s ^ s ^ s ^ ^ ^ ^ s ^ ^ ^ ^ s ^ ^ ^ s ^ ^ ^ ^ ^ ^ ^ W j ^ ^ ^ ^ ^ ^ ^ s ^ ^ ^ ^ ^ s s s s ^ ^ ^ ^ s ^ ^ ^ ^ ^ ^ s s ^ ^ ^ ^ ^ ^ ^ ^ ^ ^ ^ ^ ^ ^ ^ ^ ^ s ^ ^ ^ ^ ^ ^ ^ ^ ^ ^ s ^ s ^ ^ ^ ^ ^ s s s ^ s s ^ ^ s ^ ^ s ^ s ^ ^ ^ s ^ ^ ^ ^ s ^ ^ ^ ^ ^ ^ ^ ^ ^ ^ s ^ ^ ^ C ^ s s ^ ^ ^ ^ ^ ^ ^ ^ ^ ^ ^ ^ s ^ s s s s s s s s s s s s s s s s s < ",
"8 w.s s s s s s s s s s s s s s s s s s ^ ^ ^ s ^ ^ ^ ^ ^ ^ ^ ^ ^ ^ ^ ^ ^ ^ ^ ^ ^ ^ ^ ^ ^ ^ ^ ^ ^ ^ ^ ^ W j ^ ^ ^ ^ ^ ^ ^ ^ ^ s s ^ ^ s s ^ ^ ^ s ^ ^ ^ s ^ ^ ^ ^ ^ ^ ^ s ^ ^ ^ ^ ^ ^ s ^ s ^ ^ ^ ^ ^ ^ ^ ^ ^ s ^ ^ ^ ^ ^ ^ ^ ^ ^ ^ ^ ^ ^ ^ ^ ^ ^ ^ ^ ^ ^ ^ ^ ^ ^ ^ ^ ^ s s ^ ^ ^ ^ ^ ^ ^ ^ ^ ^ ^ s s ^ ^ ^ s ^ ^ ^ ^ ^ ^ ^ ^ ^ ^ ^ ^ ^ s ^ s ^ ^ ^ ^ ^ ^ ^ ^ s ^ s s s ^ ^ ^ s s s ^ s s ^ ^ s ^ ^ s ^ ^ ^ ^ ^ ^ ^ ^ ^ ^ s ^ ^ ^ ^ ^ ^ ^ ^ ^ ^ s ^ ^ ^ j j ^ ^ ^ ^ ^ ^ ^ ^ s ^ s ^ ^ ^ s ^ ^ s s s s s s s s s s s s s s s s < ",
"8 w.s s s s s s s s s s s s s s s f s s s s ^ s ^ ^ ^ ^ ^ ^ ^ ^ ^ ^ ^ ^ ^ ^ ^ ^ ^ ^ ^ ^ ^ ^ ^ W ^ b b C W ^ W s ^ ^ ^ ^ ^ ^ ^ ^ ^ ^ ^ s s s ^ ^ s ^ s ^ s ^ ^ ^ ^ ^ s ^ s ^ ^ ^ s ^ s s ^ ^ ^ ^ ^ ^ ^ ^ ^ ^ ^ s ^ ^ ^ ^ ^ ^ ^ ^ ^ ^ ^ ^ ^ ^ ^ s ^ ^ ^ ^ ^ ^ ^ ^ ^ ^ ^ ^ s s ^ ^ C ^ ^ ^ ^ ^ ^ ^ ^ ^ ^ ^ ^ ^ ^ ^ ^ ^ ^ ^ ^ ^ ^ ^ ^ ^ ^ ^ ^ ^ s ^ ^ ^ W W j ^ ^ s s ^ ^ s ^ ^ ^ s ^ ^ ^ s s ^ s ^ ^ ^ s ^ s ^ ^ ^ ^ s ^ ^ ^ s ^ ^ ^ ^ ^ ^ ^ ^ ^ ^ ^ ^ ^ ^ j C ^ ^ ^ ^ ^ ^ s ^ s ^ s s ^ ^ s ^ ^ ^ s s s s s s s s s s s s s s s < ",
"8 w.s s s s s s s s s s s s s s ^ s s s ^ ^ ^ ^ ^ ^ ^ ^ ^ ^ ^ ^ ^ ^ ^ ^ ^ ^ ^ ^ ^ ^ ^ ^ ^ C W ^ C j C ^ ^ ^ ^ s ^ ^ ^ ^ ^ ^ ^ ^ ^ ^ ^ s s s ^ ^ s ^ s s s ^ s ^ ^ ^ ^ ^ s ^ ^ ^ s ^ ^ s ^ ^ ^ ^ ^ ^ ^ ^ s ^ ^ s ^ ^ ^ ^ ^ ^ ^ ^ ^ ^ s ^ ^ s ^ s ^ ^ ^ ^ ^ ^ ^ ^ ^ ^ ^ ^ s s ^ ^ j j s ^ ^ ^ ^ b W ^ C ^ ^ ^ ^ ^ ^ ^ ^ ^ ^ ^ ^ ^ ^ ^ ^ ^ ^ ^ s ^ s j W j ^ ^ ^ s ^ ^ ^ ^ ^ ^ ^ s ^ ^ ^ s s ^ C ^ ^ ^ s ^ s ^ ^ ^ ^ s ^ ^ ^ ^ ^ ^ ^ ^ ^ ^ ^ ^ ^ ^ ^ ^ ^ ^ s ^ ^ ^ ^ ^ ^ ^ s ^ s ^ s ^ ^ ^ ^ ^ ^ ^ s s s s s s s s s s s s s s s < ",
"8 w.s s s s s s s s s s s j s s s s ^ ^ ^ ^ ^ ^ ^ ^ ^ ^ ^ ^ ^ ^ ^ ^ ^ ^ ^ ^ ^ ^ ^ ^ ^ ^ W ^ ^ ^ ^ C C ^ W ^ ^ s ^ ^ ^ ^ ^ ^ ^ ^ ^ ^ ^ ^ ^ ^ ^ ^ ^ ^ ^ s s ^ ^ ^ ^ ^ ^ ^ s ^ ^ ^ s ^ ^ s ^ ^ ^ ^ ^ ^ ^ ^ s ^ ^ s ^ ^ ^ ^ ^ W ^ ^ ^ ^ s ^ s ^ ^ ^ ^ ^ ^ ^ ^ ^ ^ ^ ^ ^ ^ ^ s s ^ ^ s s j j j C ^ ^ ^ ^ ^ ^ ^ ^ ^ ^ ^ ^ ^ ^ ^ ^ ^ ^ ^ ^ ^ ^ ^ ^ s ^ ^ j j j ^ ^ ^ s b b ^ ^ ^ ^ ^ s ^ ^ ^ s ^ ^ ^ ^ ^ ^ ^ ^ s ^ ^ ^ s s W j C ^ ^ ^ ^ ^ ^ ^ ^ ^ ^ ^ ^ ^ ^ ^ s ^ s ^ ^ ^ ^ ^ s ^ s ^ s ^ ^ ^ ^ ^ ^ s s ^ s s s s s s s s s s s s s < ",
"8 w.s s s s s s s s s s j s s s s s ^ ^ ^ ^ ^ ^ ^ ^ ^ ^ ^ ^ ^ ^ ^ ^ ^ ^ ^ ^ ^ ^ ^ ^ ^ ^ ^ ^ ^ W ^ ^ ^ ^ j ^ ^ s ^ ^ ^ ^ ^ ^ ^ ^ ^ ^ ^ ^ ^ ^ ^ ^ ^ ^ ^ ^ s s ^ ^ ^ ^ ^ ^ ^ ^ ^ ^ ^ ^ s s ^ ^ ^ ^ ^ ^ ^ ^ s ^ ^ s ^ ^ ^ ^ ^ C ^ ^ ^ ^ ^ ^ ^ ^ ^ ^ ^ ^ ^ ^ ^ ^ ^ ^ ^ ^ C j s s ^ ^ ^ C j ^ ^ ^ ^ ^ ^ ^ ^ ^ C s s ^ ^ ^ ^ ^ ^ ^ ^ ^ ^ ^ ^ ^ ^ ^ s ^ ^ j j ^ s ^ s ^ ^ ^ ^ ^ ^ ^ ^ s ^ ^ ^ s j ^ ^ ^ ^ ^ ^ ^ s ^ ^ ^ ^ s C W s s ^ ^ ^ ^ ^ ^ ^ ^ ^ ^ ^ ^ ^ ^ s ^ s ^ ^ ^ ^ ^ ^ ^ s ^ s s ^ ^ s ^ s ^ s ^ ^ ^ ^ ^ s s s s s s s s s < ",
"8 w.s s s s s s s s s s j s s s ^ s ^ ^ ^ ^ ^ ^ ^ ^ ^ ^ ^ ^ ^ ^ ^ ^ ^ ^ ^ ^ ^ ^ ^ ^ ^ ^ ^ ^ C ^ ^ ^ ^ ^ W ^ s s ^ ^ ^ ^ ^ ^ ^ s ^ ^ ^ s ^ ^ ^ ^ ^ ^ s ^ s ^ ^ ^ ^ ^ s ^ s ^ ^ ^ s ^ s s ^ ^ ^ ^ ^ ^ ^ ^ ^ ^ ^ ^ ^ ^ s ^ ^ ^ ^ ^ ^ ^ ^ ^ ^ ^ ^ ^ ^ ^ ^ ^ ^ ^ s ^ ^ j W W s s ^ ^ ^ j s ^ ^ b ^ ^ ^ ^ ^ ^ W s s ^ ^ ^ ^ ^ ^ ^ ^ ^ ^ ^ ^ ^ s ^ ^ ^ ^ ^ ^ ^ C ^ ^ C ^ s s ^ s ^ ^ s ^ j j s s ^ ^ ^ ^ ^ ^ j s W ^ ^ ^ s ^ ^ s s ^ ^ ^ ^ ^ ^ ^ ^ ^ ^ ^ ^ ^ ^ s ^ ^ ^ ^ ^ ^ ^ ^ ^ s ^ s ^ ^ ^ s ^ s ^ ^ ^ s ^ ^ ^ s s s s s s s s s < ",
"8 w.s s s s s s s s s s j s s s ^ ^ ^ ^ ^ ^ ^ s ^ ^ ^ ^ ^ ^ ^ ^ ^ ^ ^ ^ ^ ^ ^ ^ ^ ^ ^ ^ ^ ^ ^ ^ ^ ^ b j s ^ ^ s ^ ^ ^ ^ ^ ^ ^ s ^ ^ ^ s s ^ ^ ^ ^ s s s s s s ^ ^ s s ^ s ^ ^ ^ s s ^ s ^ ^ ^ ^ ^ ^ ^ ^ ^ ^ ^ ^ ^ ^ s ^ ^ ^ ^ ^ ^ ^ ^ ^ s ^ ^ ^ ^ ^ ^ ^ ^ ^ ^ ^ ^ ^ s ^ b s ^ ^ s s ^ ^ s j W ^ ^ s ^ ^ ^ ^ ^ ^ ^ ^ ^ ^ ^ s ^ ^ ^ ^ ^ j C ^ ^ ^ ^ ^ ^ j s ^ C s ^ s s ^ s ^ ^ s ^ j ^ s s ^ ^ ^ s ^ ^ j j j C ^ b j ^ ^ s s ^ ^ ^ ^ ^ ^ ^ ^ ^ ^ ^ ^ ^ ^ s ^ ^ ^ ^ s ^ s ^ ^ s ^ s s ^ ^ s s s ^ ^ s s s s ^ s s s s s s s s s < ",
"8 w.s s s s s s s s s s j s j ^ ^ ^ j ^ ^ ^ ^ s ^ ^ ^ ^ ^ ^ ^ ^ ^ ^ ^ ^ ^ ^ ^ ^ ^ ^ ^ ^ ^ ^ W ^ C C j j ^ ^ ^ s ^ ^ ^ ^ ^ ^ ^ s ^ ^ ^ s s ^ ^ C s z s ^ ^ ^ ^ ^ ^ ^ s ^ ^ ^ ^ ^ ^ s ^ s ^ ^ ^ ^ ^ ^ ^ ^ ^ ^ ^ s ^ ^ s ^ ^ ^ ^ ^ ^ ^ ^ ^ ^ ^ ^ ^ ^ ^ ^ ^ s ^ ^ ^ ^ ^ W ^ W ^ ^ ^ s s s j s W C ^ ^ s ^ ^ ^ s ^ ^ ^ ^ ^ ^ ^ s ^ ^ ^ s ^ j j b s ^ ^ ^ j j s W ^ ^ ^ s b ^ s ^ ^ ^ ^ b ^ s s j s W s ^ ^ j j ^ ^ ^ j j j W ^ ^ ^ ^ ^ ^ ^ ^ ^ ^ ^ ^ ^ ^ ^ ^ s ^ s ^ ^ ^ ^ s ^ ^ s ^ ^ ^ ^ ^ ^ ^ ^ ^ s s s s s s s ^ s s s s s s s < ",
"8 w.j s s s s s s s j j j s s j ^ ^ W C ^ ^ ^ s ^ ^ ^ ^ ^ ^ ^ ^ ^ ^ ^ ^ ^ ^ ^ ^ ^ ^ ^ ^ ^ ^ ^ ^ s j b b ^ ^ s s ^ ^ ^ ^ ^ ^ ^ ^ ^ ^ ^ s s ^ ^ ^ ^ ^ s ^ ^ ^ ^ ^ ^ ^ s ^ ^ ^ ^ ^ ^ ^ ^ ^ ^ ^ ^ ^ ^ ^ ^ ^ ^ ^ ^ s ^ ^ ^ ^ ^ ^ ^ ^ ^ ^ ^ ^ ^ ^ ^ ^ ^ ^ ^ j s s ^ ^ ^ ^ b C b s ^ ^ s s C ^ s ^ j j j s ^ ^ ^ ^ ^ ^ ^ ^ ^ ^ ^ s s ^ ^ s W j j ^ s ^ ^ j j j j ^ ^ ^ s s ^ ^ ^ ^ ^ s ^ ^ ^ s j j j j ^ ^ ^ ^ s ^ ^ W C b C ^ ^ ^ ^ ^ ^ ^ ^ ^ ^ ^ ^ ^ ^ ^ ^ ^ s ^ s ^ ^ ^ ^ s ^ s ^ ^ ^ ^ ^ ^ ^ ^ ^ ^ ^ s s s s s s ^ s s s s s s s < ",
"8 w.s j s s s s s j j j j s s s ^ ^ j j ^ ^ ^ s ^ ^ ^ ^ ^ ^ ^ ^ ^ ^ ^ ^ ^ ^ ^ ^ ^ ^ j j ^ ^ ^ ^ j b j ^ ^ ^ s s ^ ^ ^ ^ ^ ^ ^ ^ ^ ^ ^ s s ^ ^ ^ j ^ ^ ^ ^ ^ ^ ^ ^ ^ s ^ ^ ^ ^ ^ ^ ^ ^ ^ ^ ^ ^ ^ ^ ^ ^ ^ ^ j ^ s ^ ^ ^ ^ ^ ^ ^ ^ ^ ^ ^ ^ ^ ^ ^ s ^ ^ ^ W ^ ^ ^ ^ ^ ^ C W ^ s ^ ^ j j C ^ ^ ^ j W ^ s ^ ^ ^ ^ ^ ^ ^ ^ ^ ^ ^ s ^ ^ ^ s C ^ W j s ^ ^ ^ ^ ^ j j ^ s C ^ ^ ^ ^ ^ ^ s ^ ^ ^ ^ W j s j ^ ^ ^ ^ s ^ ^ ^ ^ ^ ^ ^ ^ ^ ^ ^ ^ ^ ^ ^ ^ ^ ^ ^ ^ ^ ^ ^ s ^ s ^ ^ ^ ^ s ^ s ^ ^ ^ ^ ^ ^ s ^ ^ ^ ^ ^ s ^ s s s s s s s s s s s 8 ",
"8 w.s s s s s s s f f j f s s W j C j j ^ ^ ^ s ^ ^ ^ ^ ^ ^ ^ ^ ^ ^ ^ ^ ^ ^ ^ ^ ^ ^ j j ^ W ^ b j b j ^ ^ ^ s ^ ^ ^ s ^ ^ ^ W ^ ^ ^ s s s C W ^ j s ^ ^ ^ ^ s ^ ^ ^ s j s W ^ ^ ^ ^ ^ s ^ ^ ^ ^ ^ ^ j W b b ^ s ^ ^ ^ ^ ^ s ^ ^ ^ ^ ^ ^ ^ ^ ^ ^ ^ ^ ^ s ^ ^ s ^ ^ ^ C b C s ^ b z j ^ ^ ^ ^ ^ ^ s s ^ ^ ^ ^ ^ ^ ^ ^ ^ ^ W s ^ s ^ s j j b ^ s ^ ^ s ^ s j j j s ^ ^ ^ ^ ^ ^ ^ ^ s s ^ ^ ^ ^ C C ^ ^ ^ ^ s ^ ^ ^ ^ ^ ^ ^ ^ ^ ^ ^ ^ ^ ^ ^ ^ ^ ^ ^ ^ ^ ^ s s ^ s ^ ^ ^ ^ ^ ^ ^ ^ ^ ^ s ^ s s ^ ^ s s ^ s ^ ^ ^ s s s s s s s s s 8 ",
"8 w.s s s s s s s j s j j s s ^ s ^ ^ ^ ^ ^ W ^ ^ ^ ^ ^ ^ ^ ^ ^ ^ ^ ^ ^ C ^ ^ ^ ^ ^ ^ j j j j j C ^ ^ ^ ^ ^ s ^ ^ ^ s ^ ^ ^ ^ ^ ^ ^ s s s C W ^ W s j j b j s ^ ^ s s j s ^ ^ ^ ^ ^ s s ^ ^ ^ ^ ^ ^ j b C ^ ^ ^ ^ ^ ^ ^ ^ ^ ^ ^ ^ ^ ^ ^ ^ ^ ^ ^ ^ ^ s ^ ^ ^ s ^ ^ j b b j ^ W C ^ W ^ ^ ^ ^ ^ ^ s s ^ ^ ^ ^ ^ ^ ^ ^ ^ b ^ s ^ s ^ ^ j j ^ ^ s ^ ^ s ^ ^ s ^ C s s ^ ^ ^ ^ ^ ^ ^ s s ^ s ^ ^ ^ ^ ^ ^ ^ ^ ^ ^ ^ ^ ^ s ^ ^ ^ ^ ^ ^ ^ ^ ^ ^ ^ ^ ^ ^ ^ ^ ^ s ^ ^ s ^ s ^ ^ ^ ^ ^ ^ ^ s ^ ^ s s ^ s s s ^ ^ ^ ^ ^ s s s s s s s s s 8 ",
"8 w.s s s s s s s s s s ^ s s ^ s ^ ^ ^ ^ ^ ^ ^ ^ ^ ^ ^ ^ ^ ^ ^ ^ ^ ^ ^ j ^ ^ ^ ^ ^ ^ j j j j j j ^ ^ ^ ^ ^ ^ ^ ^ ^ ^ ^ ^ ^ ^ s ^ ^ s s ^ ^ ^ ^ ^ s W j W ^ s ^ s s s j j j ^ ^ ^ ^ s s ^ ^ ^ ^ ^ ^ ^ j ^ ^ ^ ^ ^ ^ ^ ^ ^ ^ ^ ^ ^ ^ ^ ^ ^ ^ ^ ^ ^ ^ s s s ^ s ^ ^ ^ ^ ^ s s ^ ^ ^ ^ ^ s ^ ^ ^ ^ ^ ^ ^ ^ ^ ^ ^ ^ ^ ^ j j ^ s ^ s ^ ^ j j ^ ^ s ^ ^ ^ ^ ^ ^ ^ j s s ^ ^ ^ ^ W b s s s ^ s ^ ^ ^ ^ ^ ^ ^ ^ s ^ ^ ^ ^ ^ ^ ^ ^ ^ ^ ^ ^ ^ ^ ^ ^ ^ ^ ^ ^ ^ ^ s ^ ^ ^ ^ ^ ^ ^ ^ ^ ^ ^ ^ s ^ ^ s ^ ^ s s s s s ^ ^ ^ s s s s s s s s s < ",
"8 w.s s s s s s s s s ^ ^ s s ^ s ^ ^ ^ ^ ^ ^ s ^ ^ ^ ^ ^ ^ ^ ^ ^ ^ ^ ^ C C ^ C ^ ^ ^ j j j ^ j s b ^ ^ ^ ^ ^ ^ ^ ^ ^ ^ ^ ^ ^ s W C s ^ ^ ^ ^ s ^ s s ^ ^ ^ s ^ ^ s s ^ j b ^ ^ s s s s ^ ^ j ^ b j j ^ ^ ^ ^ ^ ^ ^ ^ ^ ^ ^ s ^ ^ ^ ^ ^ ^ ^ ^ s ^ ^ s s s s s ^ s s s ^ ^ ^ ^ ^ s s ^ s ^ s ^ ^ ^ ^ ^ ^ ^ ^ ^ ^ ^ W ^ C ^ s ^ ^ ^ ^ j j ^ s s ^ ^ ^ ^ ^ ^ ^ s s s ^ C ^ ^ s s s s ^ ^ ^ ^ ^ ^ ^ ^ ^ ^ ^ s ^ ^ ^ ^ ^ ^ ^ ^ ^ ^ ^ ^ ^ ^ ^ ^ ^ ^ s ^ ^ ^ s ^ s s ^ ^ ^ ^ ^ ^ ^ b b s ^ ^ ^ s ^ s s s s s s ^ s s s s s s s s s s < ",
"8 w.s s s s s s s s ^ ^ ^ s s ^ ^ ^ ^ ^ ^ ^ ^ ^ ^ ^ ^ ^ ^ ^ ^ ^ ^ ^ ^ ^ ^ j C ^ ^ ^ W j j b C ^ s j ^ ^ ^ ^ ^ ^ ^ ^ ^ ^ ^ ^ ^ s ^ W ^ ^ ^ ^ ^ s ^ s ^ ^ ^ ^ s ^ ^ ^ ^ ^ j b ^ ^ ^ s s s ^ j ^ ^ C ^ s ^ ^ ^ ^ ^ ^ ^ ^ ^ s ^ ^ ^ ^ ^ ^ ^ ^ ^ ^ s ^ s s ^ s ^ s ^ ^ s ^ ^ ^ ^ ^ ^ s s ^ s ^ ^ ^ ^ ^ ^ ^ ^ ^ ^ ^ ^ C ^ ^ ^ ^ s ^ ^ ^ ^ j b ^ s s ^ ^ ^ ^ ^ s W s s ^ ^ ^ s ^ s s s s ^ ^ ^ ^ ^ ^ ^ ^ ^ ^ ^ s ^ ^ ^ ^ ^ ^ ^ ^ ^ ^ ^ ^ ^ ^ ^ ^ ^ s s ^ ^ ^ ^ s s ^ ^ ^ ^ ^ ^ ^ ^ j ^ b ^ ^ ^ ^ s s s ^ s ^ s s s s s s s s s s s s < ",
"8 w.s s s s s s s s ^ ^ ^ s s ^ ^ ^ ^ ^ ^ ^ ^ ^ C ^ ^ ^ ^ ^ ^ ^ ^ ^ ^ ^ ^ W j W ^ z j j j j j ^ ^ ^ ^ ^ ^ ^ s W ^ ^ ^ ^ ^ ^ ^ b b ^ j ^ ^ ^ ^ s s s ^ ^ ^ ^ ^ ^ ^ s ^ ^ ^ ^ ^ ^ s s s j j j j ^ ^ ^ ^ ^ ^ ^ ^ ^ ^ ^ ^ ^ s ^ ^ ^ ^ ^ ^ ^ ^ ^ ^ s ^ s s ^ ^ ^ ^ ^ ^ ^ ^ ^ ^ ^ ^ ^ s s ^ ^ ^ ^ ^ ^ ^ ^ ^ ^ ^ s ^ ^ ^ ^ ^ ^ ^ s ^ ^ ^ ^ j j ^ s s ^ ^ ^ ^ s s ^ s s ^ b b s ^ ^ s s s ^ ^ s ^ ^ ^ ^ s ^ ^ ^ ^ W ^ ^ ^ ^ ^ ^ ^ ^ ^ ^ ^ ^ ^ ^ ^ ^ s s ^ ^ s s s s ^ ^ ^ ^ ^ ^ ^ ^ ^ ^ ^ ^ ^ ^ ^ ^ ^ ^ ^ s s s s s s s s s s s s s s < ",
"8 w.s s s s s s s ^ ^ ^ ^ s s ^ ^ ^ ^ ^ ^ ^ ^ ^ ^ ^ ^ ^ ^ ^ ^ ^ ^ ^ ^ ^ ^ ^ W b j j j b ^ j j ^ s ^ ^ ^ s ^ s ^ ^ ^ ^ ^ ^ ^ ^ ^ b j j ^ ^ ^ ^ s s s ^ ^ ^ ^ ^ ^ ^ ^ ^ ^ ^ ^ ^ ^ ^ ^ s s j j b ^ ^ ^ ^ ^ ^ ^ ^ ^ ^ ^ ^ s s ^ ^ ^ ^ ^ ^ ^ ^ ^ ^ ^ ^ s s ^ s ^ ^ W C ^ ^ ^ ^ s ^ ^ s s ^ ^ ^ ^ ^ ^ ^ s s ^ ^ s ^ ^ ^ ^ ^ ^ ^ s ^ ^ ^ ^ j j W s s ^ ^ ^ ^ s s ^ s ^ ^ ^ ^ s ^ ^ s s ^ ^ ^ s ^ ^ s ^ s ^ ^ ^ ^ ^ ^ ^ ^ s ^ ^ ^ ^ ^ ^ ^ ^ ^ ^ ^ ^ s s ^ ^ ^ s s s ^ ^ ^ ^ ^ ^ ^ ^ ^ ^ ^ ^ ^ ^ ^ ^ ^ ^ s s s s s ^ ^ ^ s s s s s s s < ",
"8 w.s s s s s s ^ s ^ s ^ s s ^ ^ ^ ^ ^ ^ ^ ^ ^ ^ ^ ^ ^ ^ ^ ^ ^ ^ ^ ^ ^ ^ ^ ^ ^ ^ j C j W j W ^ ^ ^ ^ ^ s ^ ^ ^ ^ ^ ^ ^ ^ ^ ^ ^ ^ b ^ ^ ^ ^ s ^ ^ ^ ^ ^ ^ ^ ^ ^ ^ ^ ^ ^ ^ ^ ^ ^ ^ ^ ^ s b j C ^ ^ s ^ ^ ^ ^ ^ ^ ^ ^ ^ ^ ^ ^ ^ ^ ^ ^ ^ ^ ^ ^ ^ ^ ^ ^ ^ ^ s s ^ ^ ^ ^ ^ ^ ^ ^ ^ ^ ^ ^ ^ ^ ^ ^ ^ ^ ^ ^ s ^ ^ s ^ ^ ^ ^ ^ ^ ^ ^ ^ ^ s ^ ^ ^ ^ ^ ^ ^ ^ ^ ^ s ^ ^ s W ^ ^ ^ s ^ ^ s ^ ^ ^ ^ s ^ s s j s b ^ ^ ^ ^ ^ ^ ^ s ^ ^ ^ ^ ^ ^ ^ ^ ^ ^ ^ ^ s s ^ ^ ^ s s s ^ ^ ^ ^ ^ ^ ^ ^ ^ ^ s ^ ^ s ^ ^ ^ ^ ^ s s s s s s ^ s s s s s s s 8 ",
"8 w.s s s s s s ^ s ^ s ^ s ^ ^ ^ ^ ^ ^ ^ ^ ^ ^ ^ ^ ^ ^ ^ ^ ^ C ^ ^ ^ ^ ^ ^ ^ ^ b b ^ ^ ^ ^ ^ ^ ^ ^ ^ ^ ^ ^ ^ ^ ^ ^ ^ ^ ^ ^ ^ j j j s s s ^ s s ^ s ^ ^ ^ ^ ^ ^ ^ s ^ ^ ^ ^ ^ ^ s ^ ^ ^ j b ^ ^ ^ ^ ^ ^ ^ ^ ^ ^ ^ ^ ^ ^ ^ ^ ^ ^ ^ ^ ^ ^ ^ ^ ^ ^ ^ ^ ^ ^ s s ^ ^ ^ ^ ^ ^ ^ ^ ^ ^ s ^ ^ ^ ^ ^ ^ ^ ^ ^ s ^ s s ^ ^ ^ ^ s ^ ^ ^ ^ ^ ^ ^ ^ ^ ^ ^ ^ ^ ^ ^ ^ s ^ j s C j ^ ^ ^ ^ ^ s j j j ^ s ^ s s j s j b b ^ ^ ^ ^ ^ ^ ^ ^ ^ ^ ^ ^ ^ ^ ^ ^ ^ ^ s s s ^ ^ ^ ^ s ^ ^ j z ^ s ^ ^ ^ ^ s ^ ^ ^ ^ ^ ^ ^ ^ s s s s s s s s s s s s s s 8 ",
"< w.s s s s s s ^ s ^ ^ s s ^ ^ ^ ^ ^ ^ ^ ^ ^ ^ ^ ^ ^ ^ ^ ^ ^ W ^ ^ ^ ^ ^ ^ ^ ^ b C ^ ^ ^ ^ ^ ^ ^ ^ ^ ^ ^ ^ ^ ^ ^ ^ ^ ^ ^ ^ ^ ^ ^ j s s s s ^ ^ ^ s ^ ^ ^ s s s s s ^ ^ ^ ^ ^ ^ s s ^ ^ ^ ^ ^ j C ^ ^ s ^ ^ ^ ^ ^ ^ ^ ^ ^ ^ ^ ^ ^ ^ ^ ^ s ^ ^ ^ ^ ^ ^ ^ ^ s s ^ ^ ^ ^ ^ ^ ^ ^ ^ ^ ^ ^ s ^ ^ s ^ ^ ^ ^ ^ s s ^ ^ ^ ^ ^ ^ ^ ^ ^ ^ ^ ^ ^ ^ ^ ^ ^ ^ ^ ^ ^ ^ C ^ s j j ^ ^ ^ ^ ^ s j j b ^ s ^ s C j s b ^ W ^ ^ ^ ^ s ^ ^ ^ ^ ^ ^ ^ ^ ^ ^ ^ ^ ^ s s s ^ ^ ^ s s ^ ^ j ^ s s ^ ^ ^ ^ s ^ ^ ^ ^ ^ ^ ^ ^ ^ ^ ^ ^ s s s s s s s s s s 8 ",
"< w.s s s s s s s s ^ ^ s ^ ^ ^ ^ ^ ^ ^ ^ ^ ^ ^ ^ ^ ^ ^ ^ ^ ^ W ^ ^ ^ ^ ^ ^ ^ j j ^ ^ ^ ^ ^ ^ ^ ^ ^ ^ ^ C W ^ ^ ^ s ^ ^ ^ ^ ^ ^ ^ W j s s s ^ ^ ^ s s s ^ s s ^ ^ s s ^ ^ ^ ^ ^ s ^ ^ ^ ^ ^ ^ j j ^ ^ ^ ^ ^ ^ ^ ^ ^ ^ ^ b W ^ ^ ^ ^ ^ ^ s ^ ^ ^ ^ ^ s ^ ^ s s ^ ^ ^ ^ ^ ^ ^ ^ ^ ^ ^ ^ ^ s ^ s ^ ^ ^ ^ ^ s ^ ^ ^ ^ ^ ^ ^ ^ ^ ^ ^ ^ ^ ^ ^ ^ s ^ ^ ^ ^ ^ ^ W b s b j ^ ^ ^ ^ ^ b s j j b s ^ ^ ^ s s j j ^ ^ ^ ^ ^ ^ ^ ^ ^ ^ ^ ^ ^ ^ ^ ^ ^ ^ ^ s W ^ ^ ^ ^ s s ^ ^ ^ ^ ^ s ^ ^ ^ ^ s ^ ^ ^ ^ ^ ^ ^ ^ ^ ^ ^ ^ ^ ^ s s s s s s s s 8 ",
"< w.s s s s s s s s ^ ^ ^ ^ s ^ ^ ^ ^ ^ ^ ^ ^ ^ ^ ^ ^ ^ ^ ^ ^ ^ ^ ^ ^ ^ ^ ^ ^ C j ^ ^ ^ ^ ^ ^ ^ ^ ^ ^ s j j ^ ^ ^ s ^ ^ ^ ^ ^ ^ ^ C b j j s ^ ^ ^ s s s ^ s s ^ ^ s s ^ ^ ^ ^ ^ s s ^ s ^ ^ ^ ^ j W ^ ^ ^ ^ ^ ^ ^ ^ ^ ^ C ^ ^ ^ ^ ^ ^ ^ s ^ ^ ^ s ^ s ^ ^ s s ^ ^ ^ ^ ^ ^ s ^ ^ ^ ^ ^ ^ s ^ ^ ^ ^ ^ ^ ^ s ^ ^ ^ ^ ^ ^ ^ s ^ ^ ^ ^ ^ ^ ^ ^ s ^ ^ ^ ^ ^ ^ b j j j b ^ ^ ^ ^ ^ ^ j j j j s j ^ ^ s s ^ ^ ^ ^ ^ ^ ^ s ^ ^ ^ ^ ^ ^ ^ ^ ^ ^ ^ ^ ^ s ^ ^ ^ ^ ^ ^ s ^ ^ ^ C ^ s ^ ^ ^ ^ s ^ ^ ^ ^ ^ ^ ^ ^ ^ ^ ^ ^ ^ ^ ^ s s s s s s s 8 ",
"< w.s s s s s s ^ s s s s ^ ^ ^ ^ ^ ^ ^ ^ ^ ^ ^ ^ ^ ^ ^ ^ ^ ^ ^ ^ ^ ^ ^ ^ ^ ^ ^ W ^ ^ ^ ^ ^ ^ ^ ^ ^ ^ s ^ ^ ^ ^ ^ ^ ^ ^ ^ ^ ^ s ^ z ^ j s ^ ^ ^ s ^ ^ s ^ s ^ ^ ^ s ^ ^ ^ ^ ^ ^ s s ^ s s ^ ^ ^ ^ ^ ^ ^ ^ ^ ^ ^ ^ ^ ^ ^ ^ ^ ^ ^ ^ ^ ^ ^ ^ ^ ^ ^ s ^ s ^ ^ s ^ s ^ s ^ ^ ^ ^ ^ ^ ^ ^ ^ ^ ^ ^ ^ ^ ^ ^ ^ ^ s ^ ^ ^ ^ ^ ^ ^ s s ^ ^ ^ ^ ^ ^ ^ ^ ^ ^ ^ ^ ^ ^ ^ ^ b b s ^ ^ ^ W ^ ^ j j j j j j j b ^ ^ ^ ^ ^ ^ ^ b C s ^ ^ ^ ^ ^ ^ ^ ^ ^ ^ ^ s ^ s s ^ ^ ^ ^ ^ s ^ ^ s ^ ^ s ^ ^ ^ ^ ^ ^ ^ s ^ ^ ^ ^ ^ ^ ^ ^ ^ ^ ^ ^ ^ s s s s s s 8 ",
"< w.s s s s s s ^ s s s s ^ ^ ^ ^ ^ s ^ ^ ^ ^ ^ ^ ^ ^ ^ ^ ^ ^ ^ ^ ^ ^ ^ ^ ^ ^ ^ ^ ^ ^ ^ ^ ^ ^ ^ s ^ ^ s ^ ^ ^ ^ ^ ^ ^ ^ ^ ^ ^ ^ b b ^ s s j ^ ^ ^ ^ ^ s s s W s ^ ^ ^ ^ ^ ^ ^ s s ^ ^ ^ ^ ^ ^ ^ ^ ^ ^ ^ ^ ^ ^ ^ ^ ^ ^ ^ ^ ^ ^ ^ ^ ^ ^ ^ ^ ^ ^ ^ s ^ s ^ ^ s ^ s s s ^ ^ ^ s ^ ^ ^ ^ ^ ^ ^ ^ ^ ^ ^ ^ ^ ^ ^ ^ ^ ^ ^ ^ ^ ^ s ^ ^ ^ j j ^ ^ ^ ^ ^ ^ ^ ^ ^ ^ ^ ^ ^ b s ^ s s ^ ^ b C ^ W s j j b ^ ^ ^ ^ C ^ W j j j ^ ^ ^ ^ ^ ^ ^ ^ ^ ^ ^ ^ s ^ ^ ^ ^ ^ ^ ^ ^ ^ ^ ^ s ^ ^ ^ ^ ^ ^ ^ ^ ^ ^ s ^ s ^ ^ ^ ^ ^ ^ ^ ^ ^ ^ ^ s s s s s s 8 ",
"8 w.s s s s s s s s s s s ^ ^ ^ ^ ^ ^ s ^ ^ ^ ^ ^ ^ ^ ^ ^ ^ ^ ^ ^ ^ ^ ^ ^ ^ ^ ^ ^ ^ ^ ^ ^ W ^ ^ s ^ ^ s ^ ^ ^ C ^ ^ ^ ^ ^ ^ ^ W C ^ s s s s ^ ^ s ^ ^ s b s j s ^ ^ s ^ ^ ^ ^ s s ^ ^ ^ ^ ^ ^ W ^ ^ ^ ^ ^ ^ s b ^ C ^ s ^ ^ ^ ^ s ^ ^ ^ s ^ ^ ^ s ^ ^ ^ ^ s ^ s ^ ^ ^ ^ ^ ^ ^ ^ ^ ^ s s s ^ ^ ^ ^ ^ ^ ^ ^ ^ ^ ^ ^ ^ ^ ^ ^ ^ ^ C z j ^ ^ ^ ^ ^ ^ ^ ^ ^ s ^ s ^ ^ ^ ^ s s j j W ^ ^ ^ s W C C ^ ^ s ^ ^ W ^ j W ^ ^ ^ ^ ^ ^ ^ ^ C ^ ^ ^ ^ ^ ^ ^ ^ ^ ^ ^ s ^ s ^ s s ^ ^ ^ ^ ^ ^ ^ ^ ^ ^ ^ s s s s s s ^ ^ ^ ^ ^ ^ ^ s s s s s s < ",
"8 w.s s s s s s s s ^ ^ s s s ^ ^ ^ ^ ^ ^ ^ ^ ^ ^ ^ ^ ^ ^ ^ ^ ^ ^ ^ ^ ^ ^ ^ ^ ^ ^ ^ ^ ^ ^ C C W s ^ ^ ^ ^ ^ ^ b b s ^ ^ ^ ^ ^ ^ ^ ^ ^ s s s ^ s ^ ^ ^ ^ s ^ W ^ s ^ s ^ ^ ^ ^ ^ ^ ^ ^ ^ W ^ j W ^ ^ ^ ^ ^ j s b ^ ^ W s ^ ^ ^ ^ ^ ^ ^ ^ s ^ ^ ^ s ^ ^ ^ ^ s ^ s ^ ^ ^ ^ ^ ^ ^ ^ s ^ s s s ^ ^ ^ ^ ^ ^ ^ ^ ^ ^ ^ ^ ^ ^ W ^ ^ ^ j j j W ^ ^ ^ ^ ^ ^ ^ ^ s ^ s ^ ^ ^ ^ s s ^ ^ ^ ^ ^ ^ s s j j ^ ^ s ^ ^ ^ ^ ^ ^ ^ ^ ^ ^ ^ ^ ^ ^ ^ ^ ^ ^ ^ ^ ^ ^ s ^ ^ ^ s ^ s ^ s s ^ ^ ^ ^ ^ ^ ^ ^ ^ ^ s ^ s s s s s ^ ^ ^ ^ ^ ^ ^ s s s s s s < ",
"8 w.s s s s s s s s ^ ^ s s ^ ^ ^ ^ ^ ^ ^ ^ ^ ^ ^ ^ ^ ^ ^ ^ ^ ^ ^ ^ ^ ^ ^ ^ ^ ^ ^ ^ ^ ^ ^ ^ ^ ^ s ^ ^ ^ ^ ^ ^ ^ ^ ^ ^ ^ ^ ^ ^ ^ ^ ^ ^ ^ s ^ ^ ^ ^ ^ ^ ^ ^ ^ b j s ^ s ^ ^ s ^ ^ ^ ^ ^ j W C j W ^ ^ ^ ^ ^ C s ^ ^ ^ W W ^ ^ ^ ^ ^ ^ ^ ^ s ^ ^ ^ s ^ ^ ^ ^ ^ ^ s ^ ^ ^ ^ ^ ^ ^ ^ s ^ s s ^ ^ ^ ^ s ^ ^ ^ ^ ^ ^ ^ ^ ^ j j W ^ ^ ^ ^ ^ b ^ ^ ^ ^ ^ ^ ^ ^ s ^ s ^ ^ ^ ^ s ^ ^ ^ ^ s ^ ^ ^ s ^ s W ^ s ^ ^ ^ ^ ^ j ^ ^ ^ ^ ^ ^ ^ ^ ^ ^ ^ ^ ^ ^ ^ ^ ^ ^ ^ s s ^ s ^ ^ W C s ^ ^ s ^ ^ ^ ^ ^ ^ ^ ^ ^ s ^ ^ ^ ^ s s ^ s ^ s s s s s s < ",
"< w.s s s s s s s s ^ ^ s s ^ C ^ ^ ^ ^ ^ ^ ^ ^ ^ ^ ^ ^ ^ ^ ^ ^ ^ ^ ^ ^ ^ ^ ^ ^ ^ ^ ^ ^ ^ ^ ^ ^ s ^ ^ ^ ^ ^ ^ ^ s ^ ^ ^ ^ ^ ^ ^ ^ s ^ s s s ^ ^ ^ ^ s ^ ^ s C C ^ ^ ^ ^ ^ ^ ^ ^ ^ s ^ s ^ j j ^ ^ ^ ^ ^ ^ ^ s s s s ^ j ^ ^ ^ ^ s ^ ^ ^ s ^ ^ ^ ^ ^ ^ ^ ^ s ^ s ^ s ^ ^ ^ ^ ^ ^ s ^ s s s ^ ^ ^ s ^ b ^ ^ ^ ^ ^ ^ ^ ^ ^ ^ ^ ^ ^ ^ ^ ^ ^ ^ ^ ^ ^ ^ ^ ^ s ^ s ^ ^ s ^ ^ ^ ^ ^ ^ s ^ ^ s ^ b s s ^ s ^ ^ ^ ^ ^ b ^ ^ ^ ^ ^ ^ ^ ^ ^ ^ ^ ^ ^ ^ ^ ^ ^ ^ ^ ^ ^ s s ^ ^ ^ ^ s ^ s s ^ ^ ^ ^ ^ ^ ^ ^ ^ ^ ^ ^ ^ ^ ^ ^ ^ s s s s s s s s 8 ",
"< w.s s s s s s s s ^ ^ s s C j ^ ^ ^ ^ ^ s ^ ^ ^ ^ ^ ^ ^ ^ ^ ^ ^ ^ ^ ^ ^ ^ ^ ^ ^ ^ ^ ^ ^ ^ ^ ^ ^ ^ ^ ^ ^ ^ ^ ^ s ^ ^ ^ ^ ^ ^ ^ ^ ^ s s s s ^ ^ ^ ^ s ^ ^ s ^ ^ ^ ^ ^ ^ s s ^ ^ ^ s ^ W j ^ ^ ^ ^ ^ ^ ^ ^ ^ b j s s j s ^ ^ ^ ^ s ^ ^ ^ s ^ ^ ^ ^ ^ s ^ ^ s ^ s ^ ^ ^ ^ ^ ^ ^ ^ s ^ ^ ^ s ^ ^ ^ s ^ ^ ^ ^ ^ ^ ^ ^ ^ ^ ^ ^ ^ ^ ^ ^ ^ ^ ^ ^ s ^ ^ ^ ^ ^ s ^ s ^ ^ ^ ^ s ^ ^ ^ ^ s ^ ^ s ^ ^ ^ s ^ s ^ ^ ^ ^ ^ C ^ ^ ^ ^ ^ ^ ^ ^ ^ ^ ^ ^ ^ ^ ^ ^ ^ ^ ^ ^ ^ s s ^ ^ ^ ^ ^ ^ ^ ^ ^ ^ ^ ^ ^ ^ ^ ^ ^ ^ ^ ^ b j ^ ^ s s s s s s s s s 8 ",
"< w.s s s s s s s s ^ ^ j s j j b ^ ^ ^ ^ s s ^ ^ ^ ^ ^ ^ ^ ^ ^ ^ ^ ^ ^ ^ ^ ^ ^ ^ ^ ^ ^ ^ ^ ^ ^ ^ ^ ^ ^ ^ ^ ^ ^ s ^ ^ ^ ^ ^ ^ ^ ^ ^ ^ s s s s ^ s ^ s ^ ^ s s ^ ^ ^ ^ ^ C ^ s ^ ^ s ^ ^ ^ ^ ^ ^ ^ ^ ^ ^ ^ ^ b W ^ ^ s s ^ ^ ^ ^ ^ ^ ^ ^ s ^ ^ ^ ^ ^ ^ ^ ^ s ^ s ^ ^ ^ ^ ^ ^ ^ ^ s ^ s ^ s ^ ^ ^ s ^ ^ ^ s ^ ^ ^ ^ ^ s ^ ^ ^ ^ ^ ^ ^ ^ ^ ^ s ^ ^ ^ ^ ^ s ^ s ^ s s ^ s ^ ^ ^ ^ s ^ ^ s C ^ ^ s ^ s ^ ^ ^ ^ b W ^ s ^ ^ ^ ^ ^ ^ ^ ^ ^ ^ ^ ^ ^ ^ ^ ^ ^ ^ ^ ^ s s s ^ ^ ^ ^ ^ ^ ^ ^ ^ ^ s ^ ^ ^ ^ ^ ^ b C j j ^ ^ ^ s s s s s s s < ",
"< w.s s s s j s s s ^ ^ s s j ^ ^ ^ ^ ^ ^ ^ ^ ^ ^ ^ ^ ^ ^ ^ ^ ^ ^ ^ ^ ^ ^ ^ ^ ^ ^ ^ ^ ^ ^ ^ ^ ^ s ^ ^ ^ ^ ^ ^ ^ ^ ^ ^ ^ ^ ^ ^ ^ ^ s ^ s s ^ s ^ s ^ s s ^ s s b s ^ ^ ^ ^ ^ ^ ^ s s ^ ^ ^ ^ ^ ^ s ^ ^ ^ ^ ^ ^ ^ ^ ^ s s ^ ^ ^ ^ ^ ^ ^ ^ ^ ^ ^ ^ s ^ ^ ^ ^ s ^ s ^ s ^ ^ ^ ^ ^ ^ ^ ^ s s s ^ ^ ^ s ^ ^ ^ s ^ s ^ ^ ^ s ^ s ^ ^ ^ ^ ^ ^ ^ ^ s ^ ^ ^ ^ ^ s ^ ^ ^ s s ^ s b ^ ^ ^ s s ^ ^ ^ ^ ^ s ^ ^ ^ ^ ^ ^ ^ ^ ^ s ^ ^ ^ ^ ^ ^ ^ ^ ^ ^ s ^ s s s ^ ^ ^ ^ ^ ^ s s ^ ^ ^ ^ ^ ^ ^ ^ ^ ^ s ^ ^ ^ ^ ^ ^ ^ ^ ^ b ^ ^ ^ ^ s s s s s s < ",
"< w.s s s s j j s ^ ^ s s s ^ ^ ^ ^ s ^ ^ ^ ^ ^ ^ ^ ^ ^ ^ ^ ^ ^ ^ ^ ^ ^ ^ ^ ^ ^ ^ ^ ^ ^ ^ ^ ^ ^ s ^ ^ ^ ^ ^ ^ ^ ^ ^ ^ ^ ^ ^ ^ ^ ^ s s s s ^ s ^ s ^ s ^ ^ s s W s ^ ^ ^ ^ ^ ^ ^ s s ^ ^ ^ ^ ^ ^ s ^ W W ^ ^ ^ ^ ^ ^ C s ^ ^ ^ ^ ^ ^ ^ ^ ^ ^ ^ ^ ^ ^ s ^ ^ s s s s s ^ ^ ^ ^ ^ ^ s ^ s s s ^ ^ ^ s ^ ^ ^ s ^ s ^ ^ ^ s ^ s ^ ^ ^ ^ ^ ^ ^ ^ ^ ^ ^ ^ ^ ^ s ^ s ^ s s s s ^ ^ ^ ^ s s ^ ^ ^ ^ ^ ^ ^ C ^ ^ ^ ^ ^ ^ ^ s ^ ^ s ^ ^ ^ ^ ^ ^ ^ ^ ^ s ^ ^ ^ ^ ^ ^ ^ s s ^ ^ ^ ^ ^ ^ ^ ^ ^ ^ ^ s ^ ^ ^ ^ ^ ^ s ^ ^ ^ ^ ^ ^ s s s s s s s < ",
"< w.s s s s j j s s W s s s ^ ^ ^ ^ ^ ^ ^ ^ ^ ^ ^ ^ ^ ^ ^ ^ ^ ^ ^ ^ ^ ^ ^ ^ ^ ^ ^ ^ ^ ^ ^ ^ ^ ^ ^ ^ ^ s C j ^ ^ ^ ^ ^ ^ ^ ^ ^ ^ ^ s ^ ^ s s s ^ s ^ s b j s s s s ^ ^ ^ ^ ^ s ^ ^ ^ ^ ^ ^ ^ ^ ^ s s C b ^ s ^ ^ ^ s ^ ^ ^ ^ ^ ^ ^ ^ ^ ^ ^ ^ ^ s s ^ s ^ ^ s s s s ^ ^ ^ ^ ^ ^ ^ s ^ s s s ^ ^ ^ s ^ ^ ^ s ^ s ^ ^ ^ ^ ^ ^ ^ ^ ^ ^ ^ ^ ^ ^ ^ ^ ^ ^ ^ s s ^ s ^ s s s ^ ^ ^ ^ j s s s ^ ^ ^ ^ ^ ^ C ^ ^ ^ ^ ^ ^ ^ s ^ j s ^ C C b ^ ^ ^ ^ ^ ^ ^ ^ ^ ^ s ^ ^ ^ ^ ^ ^ ^ ^ ^ ^ ^ ^ ^ ^ ^ ^ ^ ^ ^ ^ ^ ^ s s ^ ^ ^ ^ ^ ^ s s s s s s < ",
"< w.s s s s j j s s ^ ^ s ^ ^ ^ ^ ^ s s s s s ^ ^ ^ ^ ^ ^ ^ ^ ^ ^ ^ ^ ^ ^ ^ ^ ^ ^ ^ ^ ^ ^ ^ ^ ^ ^ ^ s s ^ ^ ^ ^ ^ ^ ^ ^ ^ ^ ^ ^ ^ s s ^ s s s ^ s ^ s s s j s s s W ^ ^ ^ ^ ^ ^ s ^ ^ ^ ^ ^ ^ ^ s s ^ ^ ^ s ^ ^ ^ ^ ^ ^ ^ ^ ^ ^ ^ ^ ^ ^ ^ ^ ^ s s ^ s ^ ^ s s s s ^ ^ ^ ^ ^ ^ ^ s ^ ^ s s ^ ^ ^ ^ ^ ^ ^ s ^ ^ ^ ^ ^ ^ ^ s ^ ^ ^ ^ ^ ^ ^ s ^ ^ ^ ^ ^ s ^ ^ s s ^ s ^ ^ ^ ^ ^ ^ s s s ^ ^ ^ ^ C C W ^ ^ ^ ^ ^ ^ ^ s ^ j s ^ ^ ^ ^ ^ ^ C s ^ s s ^ ^ ^ s s ^ ^ ^ ^ ^ ^ ^ ^ ^ ^ ^ ^ ^ ^ ^ ^ s ^ ^ ^ ^ ^ s ^ ^ ^ ^ ^ s s s s s s s < ",
"< w.s s s s s s s s ^ ^ s ^ ^ ^ ^ ^ s s ^ ^ ^ ^ ^ ^ ^ ^ ^ ^ ^ ^ ^ ^ ^ ^ ^ ^ ^ ^ ^ ^ ^ ^ ^ ^ ^ ^ ^ ^ s ^ ^ ^ ^ ^ ^ ^ ^ ^ ^ ^ ^ ^ ^ s s s s s ^ ^ s ^ s ^ s C s ^ s ^ ^ ^ ^ ^ ^ ^ ^ ^ ^ ^ ^ ^ b ^ ^ ^ ^ ^ ^ s ^ ^ ^ s ^ ^ ^ ^ ^ ^ ^ ^ ^ ^ ^ ^ ^ s s ^ s ^ ^ ^ s s s s ^ ^ ^ ^ ^ ^ ^ ^ ^ ^ ^ ^ ^ ^ s ^ ^ ^ s ^ ^ ^ ^ ^ ^ ^ s ^ ^ ^ ^ ^ ^ ^ s ^ ^ ^ ^ ^ s s ^ s ^ ^ s ^ ^ ^ ^ ^ ^ s ^ s ^ s ^ ^ C b s ^ ^ ^ ^ ^ ^ ^ s ^ j s ^ ^ ^ ^ ^ ^ ^ ^ ^ s s ^ ^ ^ s s s s ^ ^ ^ ^ ^ ^ ^ ^ ^ ^ ^ ^ s ^ s ^ ^ ^ ^ ^ s ^ ^ ^ ^ ^ s s s s s s s < ",
"< w.s s s s s s s s ^ ^ s ^ ^ j ^ ^ s j ^ ^ ^ ^ ^ ^ ^ ^ ^ ^ ^ ^ ^ ^ ^ ^ ^ ^ ^ ^ ^ ^ ^ ^ ^ ^ ^ ^ s ^ s W j s ^ ^ s ^ b ^ ^ ^ ^ ^ ^ ^ s ^ s s ^ ^ s ^ s ^ s s s s ^ ^ ^ ^ ^ ^ ^ ^ s s ^ ^ ^ ^ ^ ^ ^ ^ ^ ^ ^ s ^ ^ ^ ^ ^ ^ ^ ^ ^ ^ ^ ^ ^ ^ ^ ^ ^ s s ^ s ^ ^ ^ ^ s s s ^ ^ ^ ^ ^ ^ ^ ^ ^ s ^ ^ ^ ^ s ^ ^ b ^ ^ ^ ^ ^ ^ ^ ^ ^ ^ ^ ^ ^ ^ ^ ^ s ^ ^ ^ ^ ^ ^ ^ ^ s ^ ^ s ^ ^ ^ ^ ^ ^ s ^ s ^ s ^ ^ s C s ^ ^ C ^ s s ^ ^ b j ^ ^ ^ ^ ^ ^ ^ W ^ ^ ^ ^ ^ ^ ^ s ^ s ^ ^ ^ ^ ^ ^ ^ W ^ ^ ^ ^ ^ s s ^ ^ ^ ^ ^ ^ s ^ ^ ^ ^ ^ ^ s s s s s s < ",
"< w.s s s s s s ^ s ^ ^ s s ^ ^ ^ ^ ^ j ^ ^ ^ ^ ^ ^ ^ ^ ^ ^ ^ ^ ^ ^ ^ ^ ^ ^ ^ ^ ^ ^ ^ ^ ^ ^ ^ ^ s ^ s W ^ s ^ ^ ^ ^ ^ ^ ^ ^ ^ ^ ^ ^ s s s s s s s ^ s ^ s s s s s ^ ^ ^ ^ s ^ ^ ^ ^ ^ ^ ^ ^ ^ ^ ^ ^ ^ ^ ^ ^ ^ ^ ^ ^ ^ ^ ^ ^ ^ ^ ^ ^ ^ ^ ^ ^ ^ ^ ^ ^ s ^ ^ s ^ ^ ^ s ^ ^ ^ ^ ^ ^ ^ ^ ^ s ^ ^ ^ ^ s ^ ^ ^ ^ ^ ^ ^ ^ ^ ^ ^ ^ ^ ^ ^ ^ ^ ^ ^ ^ ^ ^ ^ ^ ^ ^ ^ ^ ^ ^ ^ s ^ ^ ^ ^ ^ ^ s ^ s ^ ^ ^ ^ s ^ ^ ^ ^ ^ ^ ^ ^ ^ ^ j ^ s ^ ^ ^ ^ ^ ^ ^ ^ ^ ^ s ^ ^ ^ s ^ s ^ ^ ^ ^ s ^ W j ^ ^ ^ ^ ^ s ^ ^ ^ ^ s s ^ s ^ ^ ^ ^ ^ ^ j s s s s s < ",
"< w.s s s s s s ^ s ^ ^ s s ^ ^ ^ ^ ^ ^ C ^ ^ ^ ^ ^ ^ ^ ^ ^ ^ ^ ^ ^ ^ ^ ^ ^ ^ ^ W j j ^ ^ ^ ^ ^ ^ j s ^ ^ ^ ^ ^ ^ ^ ^ ^ ^ ^ ^ ^ ^ s ^ s s s s ^ s ^ s ^ s s s s ^ ^ ^ ^ ^ ^ s s s s ^ ^ ^ ^ ^ ^ ^ ^ ^ ^ ^ ^ ^ ^ ^ ^ ^ ^ ^ ^ ^ ^ ^ ^ ^ ^ ^ ^ ^ ^ ^ ^ s ^ s s s ^ ^ s ^ ^ ^ ^ ^ ^ ^ ^ s s ^ ^ ^ ^ s ^ ^ ^ ^ ^ ^ ^ ^ ^ ^ s s ^ ^ ^ ^ ^ ^ ^ s ^ ^ ^ ^ ^ ^ ^ ^ ^ ^ ^ ^ ^ ^ ^ ^ ^ ^ s ^ s ^ ^ ^ ^ s ^ ^ ^ ^ ^ ^ ^ ^ ^ s b W s ^ ^ ^ ^ ^ ^ ^ s ^ ^ ^ ^ ^ ^ s ^ ^ ^ ^ ^ ^ ^ ^ ^ s ^ ^ ^ ^ ^ s ^ ^ ^ ^ ^ ^ ^ s ^ ^ ^ ^ ^ ^ s s s s s s < ",
"8 w.s s s s s s ^ s ^ ^ s s ^ ^ ^ ^ ^ C j C ^ ^ ^ ^ ^ ^ ^ ^ ^ ^ ^ ^ ^ ^ ^ ^ C ^ C b j ^ ^ ^ ^ ^ ^ j j W ^ ^ ^ ^ ^ C ^ ^ ^ ^ ^ ^ ^ s W W b C s ^ s ^ s ^ s s s s s ^ ^ ^ ^ ^ s s s ^ s ^ ^ ^ ^ ^ ^ ^ ^ ^ ^ ^ ^ ^ ^ ^ ^ ^ ^ ^ ^ ^ s ^ ^ ^ ^ ^ ^ ^ ^ ^ ^ ^ s s s ^ ^ s ^ ^ ^ ^ ^ ^ ^ ^ s s ^ ^ ^ ^ s ^ ^ ^ s ^ ^ ^ ^ ^ ^ s s ^ ^ ^ ^ ^ ^ ^ s ^ ^ ^ ^ ^ ^ ^ ^ ^ ^ ^ ^ ^ ^ ^ C ^ ^ s ^ s s ^ ^ s s ^ ^ ^ ^ ^ ^ ^ ^ ^ s ^ ^ s ^ ^ ^ ^ ^ ^ ^ ^ s ^ ^ ^ ^ ^ ^ ^ ^ s ^ ^ ^ ^ ^ ^ ^ ^ ^ ^ ^ ^ s ^ ^ ^ ^ ^ ^ ^ s ^ ^ s s s ^ s s s s s s < ",
"8 w.s s s s s s ^ s ^ ^ s s ^ ^ ^ ^ C j s ^ ^ ^ ^ ^ ^ ^ ^ ^ ^ ^ ^ ^ ^ ^ ^ ^ ^ j j j b ^ ^ ^ ^ ^ ^ C ^ ^ ^ ^ ^ ^ j ^ ^ ^ ^ ^ ^ ^ ^ s b s s ^ s ^ s ^ s ^ s ^ s ^ ^ ^ ^ s ^ ^ s s s ^ s ^ ^ ^ ^ ^ ^ ^ ^ ^ ^ ^ ^ ^ ^ ^ ^ ^ ^ ^ ^ ^ s ^ ^ ^ ^ ^ ^ ^ ^ ^ ^ ^ s s s ^ ^ s ^ W ^ ^ ^ ^ s ^ s ^ ^ ^ ^ W s ^ ^ ^ ^ ^ ^ ^ ^ ^ ^ s s ^ ^ ^ ^ ^ ^ ^ s ^ ^ ^ ^ ^ ^ ^ ^ ^ ^ s ^ ^ ^ ^ ^ ^ ^ s C s s ^ ^ s s ^ ^ ^ ^ C ^ ^ ^ ^ b ^ ^ s ^ ^ ^ ^ ^ ^ ^ ^ s ^ s ^ ^ ^ s ^ s s ^ s ^ ^ ^ ^ s ^ ^ ^ ^ ^ ^ ^ ^ ^ ^ ^ s ^ ^ ^ ^ s s ^ s s s s s s s < ",
"< w.s s s s s s s ^ ^ ^ s s ^ ^ ^ ^ C ^ j ^ ^ ^ ^ ^ ^ ^ ^ ^ ^ ^ ^ ^ ^ ^ ^ ^ ^ ^ ^ ^ ^ ^ ^ ^ ^ C C ^ ^ ^ ^ ^ ^ ^ ^ ^ ^ ^ ^ ^ ^ ^ ^ s W j s ^ ^ ^ s ^ s ^ ^ ^ s ^ ^ ^ ^ s ^ ^ s s s ^ s ^ C W ^ ^ ^ ^ ^ ^ ^ ^ ^ ^ ^ ^ ^ ^ ^ ^ ^ ^ s ^ ^ ^ ^ ^ ^ ^ ^ ^ ^ C s s ^ ^ ^ s ^ W ^ ^ ^ ^ s s s ^ ^ ^ ^ b s ^ C C ^ ^ ^ ^ ^ ^ ^ s s ^ ^ ^ ^ ^ ^ ^ s ^ ^ ^ ^ ^ ^ ^ ^ s ^ s ^ s s ^ ^ ^ ^ s ^ s s ^ ^ s s ^ ^ ^ C C ^ ^ ^ s ^ ^ ^ ^ ^ ^ ^ ^ ^ ^ ^ ^ ^ ^ s ^ ^ ^ s s s s s s ^ ^ ^ ^ s ^ ^ ^ ^ ^ ^ ^ ^ ^ ^ ^ s ^ s ^ ^ s ^ ^ s s s s s s s < ",
"8 w.s s s s s s s s ^ ^ s ^ ^ ^ ^ s W ^ j ^ ^ ^ ^ ^ ^ ^ ^ ^ ^ ^ ^ ^ ^ ^ ^ ^ ^ ^ ^ ^ ^ ^ ^ ^ ^ ^ j C b ^ ^ ^ ^ ^ ^ b W ^ ^ ^ ^ ^ ^ s s ^ s ^ ^ ^ s ^ s ^ ^ ^ s ^ ^ ^ ^ ^ ^ ^ ^ ^ s ^ s j j ^ ^ ^ ^ ^ ^ ^ ^ ^ ^ ^ ^ ^ ^ ^ ^ ^ ^ ^ ^ ^ ^ ^ ^ ^ ^ ^ ^ ^ C ^ ^ ^ ^ s ^ ^ ^ ^ ^ ^ ^ ^ s s s ^ ^ ^ ^ ^ s ^ ^ s ^ ^ ^ ^ ^ ^ s s ^ ^ ^ s ^ ^ ^ ^ s ^ ^ ^ s ^ ^ ^ ^ s s s ^ ^ ^ ^ s s ^ s ^ s b s ^ s s ^ ^ ^ ^ ^ ^ ^ ^ s ^ ^ ^ ^ ^ ^ ^ ^ ^ ^ ^ s s ^ s ^ ^ ^ s ^ s ^ s s ^ s ^ ^ s ^ ^ ^ s ^ ^ ^ ^ ^ ^ ^ s ^ s ^ ^ s ^ s s s s s s s s < ",
"8 w.s s s s s s s s ^ ^ s ^ ^ ^ ^ s ^ ^ j ^ ^ ^ ^ ^ ^ ^ ^ ^ ^ ^ C W ^ ^ ^ ^ ^ ^ ^ ^ ^ ^ W ^ ^ ^ j C s ^ ^ ^ ^ ^ s j j W ^ ^ ^ ^ ^ s s ^ s b W ^ s ^ ^ ^ s ^ s ^ ^ ^ ^ ^ ^ s s ^ s j j C ^ ^ ^ ^ ^ ^ ^ ^ ^ ^ ^ ^ ^ ^ ^ ^ ^ ^ ^ ^ ^ ^ ^ ^ ^ ^ ^ ^ ^ C C ^ ^ ^ ^ s ^ ^ ^ ^ ^ ^ ^ ^ s s ^ ^ ^ ^ ^ ^ s ^ ^ s ^ ^ ^ ^ ^ ^ s s ^ ^ ^ s ^ ^ ^ ^ s ^ ^ ^ s s ^ ^ ^ s s s ^ ^ ^ ^ s s ^ s ^ s j s ^ s ^ ^ ^ ^ ^ ^ ^ ^ ^ s s ^ ^ s ^ ^ ^ ^ ^ ^ s s s ^ s ^ ^ s ^ ^ s ^ s ^ ^ s ^ ^ s ^ ^ ^ ^ ^ s ^ ^ ^ ^ ^ s ^ s a s ^ ^ s s s s s s s s < ",
"8 w.s s s s s s s ^ ^ ^ s ^ ^ ^ ^ s ^ ^ j ^ ^ ^ ^ ^ ^ ^ ^ ^ ^ ^ C j j ^ ^ ^ ^ ^ ^ ^ W C C W ^ ^ ^ ^ s C ^ ^ ^ s s j j W ^ ^ ^ ^ ^ s s ^ s C j ^ ^ ^ s ^ s ^ s ^ ^ ^ ^ ^ ^ s s j j j C ^ s ^ ^ ^ ^ ^ ^ ^ ^ ^ ^ ^ ^ ^ ^ ^ ^ ^ ^ ^ ^ ^ ^ ^ ^ ^ ^ ^ ^ W ^ ^ ^ ^ ^ s ^ ^ ^ ^ ^ ^ ^ ^ s s ^ s ^ ^ ^ b s ^ ^ s s ^ ^ ^ ^ ^ s s s ^ ^ s s ^ ^ ^ s s ^ ^ ^ ^ C ^ ^ s ^ s ^ s ^ ^ s s ^ s ^ s ^ s ^ ^ ^ ^ ^ ^ ^ ^ ^ ^ ^ s ^ ^ ^ s ^ ^ ^ ^ ^ ^ s ^ ^ ^ s ^ ^ s ^ ^ s ^ s ^ ^ s ^ ^ s ^ ^ ^ ^ ^ s ^ ^ ^ ^ ^ s ^ C j j ^ ^ s ^ s s s s s s < ",
"8 w.s s s s s s s ^ ^ ^ s ^ ^ ^ ^ ^ ^ ^ j ^ ^ ^ ^ ^ ^ ^ ^ ^ ^ ^ ^ ^ ^ ^ ^ ^ ^ ^ ^ ^ j C ^ ^ ^ ^ ^ ^ s ^ j ^ ^ s s j j b ^ ^ ^ ^ ^ s s ^ ^ s j C ^ ^ s ^ s ^ s ^ ^ ^ ^ ^ ^ s W j j j ^ ^ s ^ ^ ^ ^ ^ ^ ^ ^ ^ s ^ ^ ^ ^ ^ ^ ^ ^ ^ ^ ^ ^ ^ ^ ^ ^ ^ ^ ^ ^ ^ ^ ^ ^ s ^ ^ ^ ^ ^ ^ ^ ^ s s ^ s ^ ^ ^ W ^ ^ ^ ^ ^ W ^ ^ ^ ^ ^ s s ^ ^ s s ^ ^ ^ s s ^ ^ ^ ^ j ^ s s ^ s ^ s ^ ^ s s ^ s ^ s ^ ^ ^ s ^ ^ ^ ^ ^ ^ ^ ^ ^ ^ ^ ^ ^ s ^ ^ ^ ^ ^ ^ ^ ^ ^ s s ^ ^ s ^ ^ ^ ^ s ^ ^ s ^ ^ s ^ ^ ^ ^ s ^ ^ ^ ^ ^ s s ^ b j j j s s ^ s s s s s s < ",
"8 w.s s s s s s s ^ ^ ^ s ^ ^ ^ ^ ^ ^ ^ ^ s ^ ^ ^ ^ ^ ^ ^ ^ ^ ^ ^ ^ ^ ^ ^ ^ ^ ^ ^ ^ j j ^ ^ ^ ^ ^ ^ ^ ^ j W ^ s ^ b j z ^ ^ ^ ^ ^ s s ^ ^ s ^ ^ s s s ^ s ^ s ^ ^ ^ ^ s ^ ^ ^ ^ ^ ^ ^ ^ ^ ^ ^ ^ ^ ^ ^ ^ ^ ^ s ^ ^ ^ ^ ^ ^ ^ ^ ^ ^ ^ ^ ^ ^ ^ ^ s ^ ^ ^ ^ ^ ^ ^ s ^ ^ ^ ^ ^ ^ ^ ^ ^ s ^ s ^ ^ ^ ^ ^ ^ C ^ j C ^ ^ ^ ^ ^ s ^ ^ ^ s s ^ ^ ^ s s ^ ^ ^ C j ^ s s s s ^ s ^ ^ ^ ^ ^ s ^ s ^ ^ ^ s ^ ^ ^ ^ ^ ^ ^ ^ ^ ^ ^ ^ ^ s ^ ^ ^ ^ ^ ^ ^ ^ ^ s s ^ ^ ^ ^ ^ ^ ^ s ^ ^ s ^ ^ s ^ ^ ^ ^ ^ ^ ^ ^ ^ ^ s s ^ ^ b C b f s s s s s s s s < ",
"8 w.s s s s s s s ^ ^ ^ s ^ ^ ^ ^ ^ ^ ^ ^ ^ ^ ^ ^ ^ ^ ^ ^ ^ ^ ^ ^ ^ ^ ^ ^ ^ ^ ^ ^ ^ j ^ ^ ^ ^ ^ ^ ^ ^ ^ ^ ^ ^ s ^ C j ^ ^ ^ ^ ^ ^ s ^ ^ ^ s ^ ^ s s ^ ^ s ^ s ^ ^ ^ ^ s ^ ^ ^ ^ ^ ^ s ^ ^ ^ ^ ^ ^ ^ ^ ^ ^ ^ s ^ ^ ^ ^ ^ ^ ^ ^ ^ ^ ^ ^ ^ ^ ^ ^ s ^ ^ ^ ^ ^ ^ ^ s ^ ^ ^ ^ ^ ^ ^ ^ ^ s s s ^ ^ ^ ^ ^ ^ ^ s s ^ W ^ ^ ^ ^ s s ^ ^ ^ ^ ^ ^ ^ s ^ ^ ^ ^ ^ ^ ^ s ^ s s ^ s ^ ^ ^ ^ ^ ^ s s ^ ^ ^ s ^ ^ ^ ^ ^ ^ ^ ^ ^ s ^ ^ ^ s ^ ^ ^ ^ ^ ^ ^ ^ s s ^ s ^ s s s ^ ^ s ^ ^ ^ ^ ^ ^ W ^ ^ s ^ ^ ^ C s ^ ^ ^ ^ ^ ^ ^ ^ ^ ^ ^ s s s s s s 8 ",
"8 w.s s s s s s s ^ ^ ^ s ^ ^ ^ ^ ^ ^ ^ ^ ^ ^ ^ ^ ^ ^ ^ ^ ^ ^ ^ ^ ^ ^ ^ ^ ^ ^ ^ ^ ^ W ^ ^ ^ ^ ^ ^ ^ ^ ^ ^ ^ ^ s ^ ^ b ^ ^ ^ ^ ^ ^ ^ ^ ^ s s ^ ^ s ^ ^ ^ s ^ ^ ^ ^ ^ s s ^ ^ ^ ^ ^ ^ ^ s ^ ^ ^ ^ ^ ^ ^ ^ ^ ^ ^ ^ s ^ ^ ^ ^ ^ ^ ^ ^ ^ ^ ^ ^ ^ ^ s ^ ^ ^ ^ ^ ^ ^ s ^ ^ ^ ^ ^ ^ ^ ^ ^ s s s ^ ^ ^ ^ ^ ^ ^ s ^ ^ C W ^ ^ ^ s s ^ s ^ ^ ^ ^ ^ s ^ ^ ^ ^ ^ ^ ^ s ^ s s ^ s ^ ^ ^ s ^ s ^ s s ^ ^ ^ ^ ^ ^ ^ ^ ^ ^ ^ ^ s ^ ^ ^ s ^ ^ ^ ^ ^ W ^ ^ s s ^ s ^ s s s ^ ^ s ^ ^ ^ b W j j j ^ ^ ^ ^ ^ ^ s s ^ ^ ^ ^ ^ s ^ ^ ^ ^ s s s s s s < ",
"8 w.s s s s s s s s ^ ^ ^ ^ ^ ^ ^ ^ ^ ^ ^ ^ ^ ^ ^ ^ ^ ^ ^ ^ ^ ^ ^ ^ ^ ^ ^ ^ ^ ^ ^ ^ ^ C j ^ ^ ^ ^ ^ s ^ ^ ^ ^ s ^ ^ b ^ ^ ^ ^ ^ ^ ^ ^ s s ^ ^ s s ^ ^ ^ s b ^ ^ ^ ^ s s ^ ^ ^ ^ ^ ^ ^ s ^ ^ ^ ^ ^ ^ ^ ^ ^ ^ ^ ^ s ^ ^ ^ ^ ^ ^ ^ ^ ^ ^ ^ ^ ^ ^ ^ ^ ^ ^ ^ ^ ^ ^ s ^ ^ ^ ^ ^ ^ ^ ^ ^ s s ^ ^ ^ ^ ^ ^ ^ ^ s ^ ^ s ^ ^ j W s ^ ^ ^ ^ ^ s ^ ^ s ^ ^ ^ ^ s s ^ s ^ s s ^ s ^ ^ ^ s s s ^ s s ^ s ^ ^ ^ ^ ^ ^ ^ ^ ^ ^ ^ ^ ^ ^ s ^ ^ ^ ^ ^ ^ ^ ^ s s ^ s ^ s s s ^ ^ s ^ ^ ^ b C j j j j j b ^ ^ ^ ^ ^ ^ ^ ^ ^ s s s ^ ^ ^ s s s s s s 8 ",
"8 w.s s s s s s s s ^ ^ ^ ^ ^ ^ ^ ^ ^ s ^ ^ ^ ^ ^ ^ ^ ^ ^ ^ ^ ^ ^ ^ ^ ^ ^ ^ ^ ^ ^ ^ ^ b j ^ ^ ^ ^ ^ s ^ ^ ^ ^ s ^ ^ ^ ^ ^ ^ ^ ^ ^ ^ s s s ^ j s ^ ^ s ^ s z s ^ ^ ^ ^ ^ ^ ^ ^ ^ ^ ^ ^ ^ ^ ^ ^ ^ ^ ^ ^ ^ ^ ^ ^ s s ^ ^ ^ s ^ ^ ^ ^ ^ ^ ^ ^ ^ ^ s ^ ^ ^ ^ ^ ^ ^ s ^ ^ ^ ^ ^ ^ ^ ^ ^ s s ^ ^ ^ ^ ^ ^ ^ ^ ^ b W s ^ ^ C ^ s ^ ^ ^ ^ ^ s W ^ ^ ^ ^ ^ s s s ^ ^ ^ s s C ^ ^ ^ s ^ ^ s ^ ^ ^ ^ s ^ ^ ^ ^ ^ ^ ^ ^ ^ ^ ^ ^ ^ ^ ^ ^ ^ ^ ^ ^ ^ ^ ^ s s ^ ^ ^ ^ ^ ^ ^ ^ s ^ ^ b b ^ j j j j j s s ^ ^ ^ ^ ^ ^ s s s s s ^ ^ ^ s s s s s s 8 ",
"< w.s s s s s s s s ^ ^ s ^ ^ ^ s s s s ^ ^ ^ ^ ^ ^ ^ ^ ^ ^ ^ ^ ^ ^ ^ ^ ^ ^ ^ ^ ^ ^ ^ j b ^ ^ ^ ^ ^ ^ ^ ^ ^ ^ s ^ ^ ^ ^ ^ ^ ^ ^ ^ ^ s ^ ^ j j s j j s ^ b j s ^ ^ ^ s ^ ^ s s ^ ^ ^ ^ ^ ^ ^ ^ ^ ^ ^ ^ ^ ^ ^ ^ ^ s ^ ^ ^ s ^ ^ ^ ^ ^ ^ ^ C C ^ ^ ^ ^ ^ ^ s ^ ^ s ^ ^ ^ ^ ^ ^ ^ ^ ^ ^ s ^ ^ ^ ^ ^ ^ ^ ^ ^ ^ ^ s ^ ^ ^ ^ s ^ ^ ^ ^ C s ^ ^ ^ ^ ^ s s ^ ^ ^ s ^ s s ^ ^ ^ ^ s ^ ^ s s ^ ^ ^ s ^ ^ ^ ^ ^ ^ ^ ^ ^ ^ ^ ^ ^ ^ ^ ^ ^ ^ ^ ^ ^ ^ ^ s s ^ ^ ^ ^ ^ ^ ^ ^ s ^ ^ ^ ^ ^ C ^ j W ^ s s ^ ^ ^ ^ ^ s s s s ^ ^ ^ ^ s s s s s s s < ",
"< w.s s s s s s s s s ^ ^ ^ ^ ^ s s s ^ ^ ^ ^ ^ ^ ^ ^ ^ ^ ^ ^ ^ ^ ^ ^ ^ ^ ^ ^ ^ b ^ W b C ^ ^ ^ ^ ^ ^ ^ ^ ^ ^ s ^ ^ ^ ^ ^ ^ ^ ^ ^ s s s s s j j j j j ^ ^ s ^ ^ ^ s s s ^ ^ ^ ^ ^ ^ s ^ ^ ^ ^ ^ ^ ^ ^ ^ ^ ^ ^ s ^ ^ ^ ^ s ^ ^ ^ ^ ^ ^ ^ ^ ^ ^ ^ ^ ^ ^ ^ s s ^ s ^ ^ ^ ^ ^ ^ ^ ^ ^ ^ s ^ ^ ^ ^ ^ ^ ^ ^ ^ ^ ^ ^ ^ ^ ^ ^ s ^ ^ ^ s ^ s ^ ^ s ^ s ^ s ^ ^ ^ s ^ s s ^ ^ ^ ^ s s ^ s s ^ ^ ^ ^ ^ ^ ^ ^ ^ ^ ^ ^ ^ ^ ^ ^ ^ ^ ^ ^ ^ ^ ^ ^ ^ ^ s s s ^ ^ ^ s s ^ ^ ^ s ^ ^ ^ ^ ^ ^ ^ ^ ^ ^ ^ s ^ ^ ^ ^ ^ s s ^ ^ ^ ^ ^ s s s s s s s s 8 ",
"< w.s s s s s s s s f ^ ^ ^ ^ ^ ^ ^ ^ ^ ^ ^ ^ ^ ^ ^ ^ ^ ^ ^ ^ ^ ^ ^ ^ ^ ^ ^ ^ ^ j C ^ W ^ ^ ^ ^ ^ ^ ^ ^ ^ ^ C s ^ ^ ^ ^ ^ ^ ^ ^ ^ s s s j s j j j j j ^ ^ ^ ^ ^ ^ s s ^ ^ ^ ^ ^ ^ ^ ^ ^ ^ ^ ^ s ^ ^ ^ ^ ^ ^ ^ ^ ^ ^ ^ ^ s ^ ^ ^ ^ ^ ^ ^ ^ ^ ^ b ^ ^ ^ ^ s s ^ s ^ ^ ^ ^ ^ ^ ^ ^ ^ ^ ^ ^ ^ ^ ^ ^ ^ ^ ^ ^ ^ ^ ^ ^ ^ ^ ^ s ^ ^ ^ s ^ s ^ ^ s ^ s C s ^ ^ ^ s b s s ^ ^ b j ^ s s s s s ^ ^ ^ s ^ ^ ^ ^ ^ ^ ^ C ^ ^ ^ ^ ^ ^ ^ ^ ^ ^ ^ ^ ^ s s s ^ ^ s s s ^ ^ ^ s ^ ^ s ^ ^ ^ ^ ^ ^ ^ s s s ^ ^ ^ ^ s s ^ ^ ^ ^ ^ s ^ s s s s s s 8 ",
"< w.s s s s s s s s j ^ ^ ^ ^ ^ ^ ^ ^ s ^ ^ ^ ^ ^ ^ ^ ^ ^ ^ ^ ^ ^ ^ ^ ^ ^ ^ ^ ^ C ^ W W ^ ^ ^ ^ ^ ^ ^ ^ ^ ^ j s C ^ ^ ^ ^ ^ ^ ^ ^ s s s j j j s j s j ^ b ^ ^ ^ ^ s s s ^ ^ s ^ ^ ^ ^ s ^ ^ ^ s ^ ^ ^ ^ ^ ^ ^ ^ s ^ ^ ^ s ^ ^ ^ ^ ^ ^ ^ ^ ^ ^ j ^ ^ ^ s ^ ^ ^ s ^ ^ ^ ^ ^ ^ ^ ^ ^ ^ ^ ^ ^ ^ ^ ^ ^ ^ ^ ^ ^ s ^ ^ ^ ^ ^ s ^ ^ ^ ^ ^ s ^ ^ s ^ s ^ ^ ^ ^ C s s s ^ ^ ^ b j s s s s s ^ ^ ^ ^ ^ ^ ^ ^ ^ ^ ^ ^ j ^ ^ ^ ^ ^ ^ ^ ^ ^ ^ ^ ^ s s s s ^ s s s s s ^ ^ s ^ ^ s ^ ^ s ^ ^ ^ ^ s s s s ^ ^ ^ s s ^ ^ ^ s ^ s ^ s s s s s s 8 ",
"< w.s s s s s s s s f ^ ^ ^ ^ ^ ^ ^ ^ s ^ ^ ^ ^ ^ ^ ^ ^ ^ ^ ^ ^ ^ ^ ^ ^ ^ ^ ^ ^ ^ j ^ ^ ^ ^ ^ ^ ^ ^ ^ ^ ^ ^ ^ s ^ ^ ^ ^ ^ ^ ^ ^ ^ s s ^ j j W s ^ s ^ ^ j ^ ^ ^ W s ^ s j j s ^ ^ ^ ^ ^ ^ ^ ^ ^ ^ ^ ^ ^ ^ ^ ^ ^ s ^ ^ ^ ^ ^ ^ ^ ^ ^ ^ ^ ^ ^ ^ ^ ^ ^ ^ s ^ ^ W ^ ^ ^ ^ ^ ^ ^ ^ ^ ^ ^ ^ ^ ^ ^ ^ ^ ^ ^ ^ ^ ^ s ^ ^ ^ ^ C s ^ ^ ^ ^ ^ s ^ ^ s ^ ^ ^ ^ ^ ^ ^ s s s C ^ ^ W C ^ ^ s s ^ ^ s s ^ ^ ^ ^ ^ ^ ^ ^ ^ ^ ^ ^ ^ ^ ^ ^ ^ ^ ^ ^ ^ ^ s s s ^ ^ ^ ^ s s s ^ s s ^ ^ s ^ s ^ ^ ^ s s s s s s ^ ^ ^ s ^ ^ ^ ^ s s s ^ s s s s s s 8 ",
"< w.s s s s s s s s s s s s ^ s s ^ ^ ^ ^ ^ ^ ^ ^ ^ ^ ^ ^ ^ ^ ^ ^ ^ ^ ^ ^ ^ ^ ^ ^ W ^ ^ ^ ^ ^ ^ ^ ^ ^ ^ ^ ^ ^ ^ ^ ^ ^ ^ ^ ^ ^ ^ ^ s s ^ ^ ^ ^ s ^ s ^ ^ ^ ^ ^ ^ ^ j ^ s ^ j j ^ ^ s s ^ ^ ^ ^ ^ ^ ^ ^ ^ ^ ^ ^ ^ s ^ ^ ^ ^ ^ ^ ^ ^ ^ ^ ^ ^ ^ ^ ^ ^ ^ ^ ^ ^ ^ ^ ^ W ^ ^ ^ ^ ^ ^ ^ ^ s s ^ ^ ^ ^ ^ ^ ^ ^ ^ ^ ^ ^ ^ ^ ^ j s ^ ^ s ^ ^ ^ ^ ^ s ^ ^ s ^ b C W s s s W ^ s ^ ^ ^ ^ s s ^ ^ ^ s s s ^ ^ ^ ^ ^ ^ ^ ^ ^ ^ ^ ^ ^ ^ ^ ^ ^ ^ ^ ^ s ^ ^ ^ ^ ^ ^ s s s ^ s s ^ ^ ^ ^ ^ ^ ^ s s s s s s ^ ^ ^ ^ ^ ^ s ^ s s s s ^ s s s s s s < ",
"< w.s s s s s s s s s s s s s s s s ^ ^ ^ ^ ^ ^ ^ ^ ^ ^ ^ ^ ^ ^ ^ ^ ^ ^ ^ ^ ^ ^ ^ ^ ^ ^ ^ ^ ^ ^ ^ ^ ^ ^ ^ ^ ^ ^ ^ ^ ^ ^ ^ ^ ^ ^ ^ ^ s ^ ^ s ^ s s s ^ ^ ^ ^ s ^ ^ b ^ ^ ^ ^ j b ^ s ^ s ^ ^ j j j C ^ ^ s ^ W ^ s ^ ^ ^ ^ ^ ^ ^ C ^ ^ ^ ^ ^ s ^ ^ ^ ^ s ^ ^ ^ ^ j ^ ^ ^ ^ ^ ^ ^ ^ s s ^ ^ ^ ^ ^ ^ ^ ^ ^ ^ ^ ^ s ^ C b s ^ ^ s s ^ ^ ^ ^ s ^ ^ s ^ ^ j C s s s ^ ^ s ^ ^ ^ ^ s ^ ^ ^ ^ s s ^ ^ ^ ^ ^ ^ ^ ^ ^ ^ ^ ^ ^ ^ ^ ^ ^ ^ ^ ^ s s s ^ ^ ^ ^ s s s s ^ s s s ^ ^ ^ ^ ^ ^ s s s s s ^ ^ ^ ^ ^ ^ ^ s s s s s ^ ^ s s s s s s < ",
"< w.s s s s s s s s s ^ s ^ s s s ^ ^ ^ ^ ^ ^ ^ ^ ^ ^ ^ b ^ ^ ^ ^ ^ ^ ^ ^ ^ ^ ^ ^ ^ ^ ^ ^ ^ ^ ^ ^ ^ ^ ^ ^ ^ ^ ^ ^ ^ ^ ^ ^ ^ ^ ^ ^ ^ ^ ^ ^ ^ ^ s s s ^ ^ s ^ ^ ^ ^ s ^ s W s s ^ ^ s ^ s ^ j b j j j b C s ^ ^ ^ ^ ^ ^ ^ ^ ^ ^ ^ ^ j ^ ^ ^ ^ s ^ ^ ^ ^ s ^ s ^ ^ ^ ^ ^ ^ ^ ^ ^ ^ ^ s s ^ ^ ^ ^ ^ ^ ^ ^ ^ ^ s ^ s ^ ^ ^ ^ ^ ^ s s s ^ ^ ^ s ^ ^ s s s j s s W s ^ ^ s ^ ^ ^ ^ s ^ ^ s ^ ^ s ^ ^ ^ ^ ^ ^ ^ ^ ^ ^ ^ ^ ^ s ^ ^ ^ ^ ^ ^ s s s ^ ^ ^ ^ s s s s ^ ^ s s ^ s ^ ^ ^ s ^ ^ s s s ^ ^ ^ ^ ^ ^ ^ ^ s s s s ^ ^ s s s s j j 7 ",
"7 w.s s s s s s s s s s s s s s s ^ ^ ^ ^ ^ ^ ^ s ^ ^ ^ j W ^ ^ ^ ^ ^ ^ ^ ^ ^ ^ ^ ^ ^ ^ ^ ^ ^ ^ ^ ^ ^ ^ ^ ^ ^ ^ ^ ^ ^ ^ ^ ^ ^ C j s ^ s ^ s ^ ^ ^ ^ s s ^ ^ ^ ^ ^ s s s C s ^ ^ ^ s ^ ^ j j j j b j W ^ ^ ^ s ^ s ^ ^ ^ ^ ^ ^ ^ ^ ^ ^ ^ ^ ^ s ^ ^ ^ ^ ^ ^ s ^ ^ ^ ^ ^ ^ ^ ^ ^ ^ ^ s s ^ ^ ^ ^ ^ ^ ^ ^ ^ ^ s ^ ^ ^ ^ ^ ^ ^ ^ ^ ^ ^ ^ ^ ^ ^ ^ ^ s s s W s s ^ s ^ ^ s ^ ^ ^ ^ s s ^ s s ^ s ^ ^ ^ ^ ^ ^ ^ ^ ^ ^ ^ ^ ^ s ^ ^ ^ ^ ^ ^ s ^ s ^ ^ ^ s s s s ^ ^ ^ s s b s ^ ^ C ^ ^ ^ ^ ^ s ^ ^ ^ ^ ^ s ^ ^ s s s s s ^ s j s j s j 7 ",
"7 7.s s s s s s s ^ ^ ^ ^ ^ s s ^ ^ s ^ ^ s ^ s s ^ ^ ^ ^ C ^ ^ ^ ^ ^ ^ ^ ^ ^ ^ ^ ^ ^ ^ ^ ^ ^ ^ ^ ^ ^ ^ ^ ^ ^ ^ ^ ^ ^ ^ ^ ^ j j j s ^ s ^ s ^ ^ s ^ s ^ s ^ ^ ^ ^ s ^ s j s ^ ^ ^ s ^ ^ ^ ^ ^ W C ^ ^ ^ s ^ ^ ^ W j ^ ^ ^ ^ ^ ^ ^ ^ ^ ^ ^ ^ s ^ ^ ^ ^ ^ ^ s ^ s ^ ^ ^ ^ ^ ^ ^ ^ ^ ^ ^ ^ ^ ^ ^ ^ ^ ^ ^ ^ ^ s ^ ^ ^ s ^ ^ ^ ^ ^ s s ^ ^ ^ ^ ^ ^ s s s ^ s s ^ s ^ ^ ^ ^ ^ ^ ^ s s ^ s s ^ s ^ ^ ^ ^ ^ ^ ^ ^ ^ ^ ^ ^ ^ s ^ ^ ^ ^ ^ ^ s ^ s ^ ^ ^ ^ s ^ s ^ ^ ^ ^ ^ C s ^ ^ s ^ ^ ^ ^ s ^ s s s s s s ^ s s s s s s ^ s j s j s j 7 ",
"< w.s s s s s s s ^ ^ ^ ^ ^ s s ^ s s s ^ s s s s ^ ^ ^ ^ ^ ^ ^ ^ ^ ^ ^ ^ ^ ^ ^ ^ ^ ^ ^ ^ ^ ^ ^ ^ ^ ^ ^ ^ ^ ^ ^ ^ ^ ^ ^ ^ ^ j j j s s s s ^ ^ ^ s ^ s ^ s ^ s ^ ^ s s s j C ^ ^ ^ s ^ ^ ^ ^ ^ ^ ^ ^ ^ ^ s ^ ^ ^ j j ^ ^ ^ ^ ^ ^ ^ ^ ^ ^ ^ ^ s ^ ^ ^ ^ ^ ^ s ^ ^ ^ ^ ^ ^ ^ ^ ^ ^ ^ ^ ^ ^ ^ ^ ^ ^ ^ ^ ^ ^ ^ s ^ ^ s s ^ ^ s ^ ^ s s ^ ^ s ^ ^ ^ s s s ^ s s ^ s ^ ^ s ^ ^ ^ ^ s s ^ s s ^ s ^ ^ ^ ^ ^ ^ ^ ^ ^ ^ ^ ^ ^ ^ ^ ^ ^ ^ ^ ^ s ^ ^ ^ ^ ^ ^ s ^ s ^ ^ s ^ ^ W s ^ ^ ^ ^ ^ ^ ^ ^ s s s s s ^ s s s s s s s s ^ s j s j s j 8 ",
"< w.s s s s s s s ^ ^ s s s s s s s s s s s s s s ^ ^ ^ ^ ^ ^ ^ ^ ^ ^ ^ ^ ^ ^ ^ ^ ^ ^ ^ C W ^ ^ ^ ^ ^ ^ ^ ^ ^ ^ ^ ^ ^ ^ ^ ^ ^ ^ C j ^ s s ^ ^ ^ s ^ ^ s ^ ^ s ^ ^ s s s j W ^ ^ ^ s s s ^ ^ ^ ^ ^ ^ ^ ^ ^ ^ ^ ^ ^ C ^ ^ ^ ^ ^ ^ ^ ^ ^ ^ ^ ^ s ^ ^ ^ ^ s ^ s ^ ^ ^ ^ ^ ^ ^ ^ ^ ^ ^ ^ s ^ ^ ^ ^ ^ ^ ^ ^ ^ ^ ^ ^ ^ ^ s ^ ^ ^ ^ s s s ^ ^ s ^ ^ ^ s s ^ ^ C s ^ ^ ^ ^ s ^ ^ ^ ^ s s ^ s ^ ^ s ^ ^ ^ ^ ^ ^ ^ ^ ^ ^ ^ ^ ^ ^ ^ ^ ^ ^ ^ ^ s ^ ^ ^ ^ ^ ^ s ^ ^ s ^ s ^ ^ ^ s ^ ^ ^ ^ ^ ^ ^ ^ ^ ^ s s ^ ^ s s s s s s ^ s ^ s s s s s j 8 ",
"< w.s s s s s s s ^ ^ s s s s s ^ s s s s s ^ s s s ^ ^ ^ ^ ^ ^ ^ ^ ^ ^ ^ ^ ^ ^ ^ ^ ^ ^ ^ ^ ^ ^ ^ ^ ^ ^ ^ ^ ^ ^ ^ ^ ^ ^ ^ ^ ^ ^ ^ j ^ s ^ ^ ^ ^ s ^ ^ ^ ^ ^ ^ ^ ^ s ^ ^ s b ^ ^ ^ s s s ^ ^ ^ ^ ^ ^ ^ ^ ^ ^ ^ ^ ^ s ^ ^ ^ ^ ^ ^ ^ ^ ^ ^ ^ ^ ^ ^ ^ ^ ^ s ^ ^ ^ ^ ^ ^ ^ ^ ^ ^ ^ ^ ^ s s ^ ^ ^ ^ ^ ^ ^ ^ ^ ^ ^ ^ ^ s ^ ^ ^ ^ ^ s s s ^ ^ s ^ s ^ s ^ ^ ^ s ^ ^ ^ ^ ^ s ^ ^ ^ ^ s s ^ ^ s ^ s ^ ^ ^ ^ ^ ^ ^ ^ s ^ ^ ^ ^ ^ C ^ ^ ^ ^ ^ s ^ ^ s ^ C s s ^ s ^ ^ s s b ^ s ^ ^ ^ ^ ^ s s s ^ ^ s s ^ ^ ^ s s s s s ^ ^ ^ s s s s s s 8 ",
"< w.s s s s s s s ^ s s s ^ ^ s ^ ^ ^ s ^ ^ ^ ^ ^ ^ ^ ^ ^ ^ ^ ^ ^ ^ ^ ^ ^ ^ ^ ^ ^ ^ ^ ^ ^ ^ ^ ^ ^ ^ ^ ^ ^ ^ ^ ^ ^ ^ ^ ^ ^ ^ W b ^ j j s s s ^ ^ ^ ^ ^ ^ ^ ^ ^ ^ ^ s ^ ^ s ^ s ^ ^ ^ ^ ^ ^ ^ ^ ^ ^ ^ ^ ^ ^ ^ ^ ^ ^ ^ ^ ^ ^ ^ ^ ^ ^ ^ ^ ^ ^ ^ s ^ ^ ^ ^ s ^ ^ ^ ^ ^ ^ ^ ^ ^ ^ ^ ^ ^ ^ ^ ^ ^ ^ ^ ^ ^ ^ ^ ^ ^ ^ ^ ^ ^ ^ ^ ^ ^ ^ s s s ^ ^ ^ ^ s ^ s s ^ ^ ^ ^ ^ ^ ^ ^ s ^ ^ ^ ^ s s ^ ^ s ^ s ^ ^ ^ ^ ^ ^ ^ ^ s ^ ^ ^ ^ ^ ^ ^ ^ ^ ^ ^ s ^ j s ^ ^ s s ^ s ^ ^ s s ^ ^ ^ ^ ^ ^ ^ ^ s s s j W f s ^ ^ ^ ^ s s s s ^ ^ ^ s s s s s s < ",
"< w.s s s s s s s s s s ^ ^ ^ ^ ^ ^ ^ s ^ ^ ^ ^ ^ ^ ^ ^ ^ ^ ^ ^ ^ ^ ^ ^ ^ ^ ^ ^ ^ ^ ^ b b ^ ^ ^ ^ ^ ^ ^ ^ ^ ^ ^ ^ ^ ^ ^ ^ W j j j j j s s ^ ^ ^ ^ ^ ^ ^ ^ ^ ^ j s s ^ C s ^ s ^ ^ ^ ^ ^ ^ ^ ^ ^ ^ ^ ^ ^ ^ ^ ^ ^ ^ ^ ^ ^ ^ ^ ^ ^ ^ ^ ^ ^ ^ ^ s ^ ^ ^ ^ s ^ s ^ ^ ^ ^ ^ ^ ^ ^ ^ ^ ^ ^ ^ ^ ^ ^ ^ ^ ^ ^ ^ ^ ^ ^ ^ ^ s ^ ^ ^ ^ ^ s ^ s ^ ^ s ^ s ^ s s ^ ^ s s ^ ^ ^ ^ s ^ ^ ^ ^ s s ^ s s ^ s ^ ^ ^ ^ ^ ^ ^ ^ ^ ^ ^ ^ ^ ^ ^ ^ s ^ ^ ^ s C s s ^ ^ s s ^ s ^ ^ s s ^ ^ ^ ^ ^ W ^ s s j j j C j s s j s ^ s s s s s s s s s s s s s < ",
"< w.s s s s s s s s ^ ^ ^ ^ s s ^ s ^ s ^ ^ ^ ^ ^ ^ ^ ^ ^ ^ ^ ^ ^ ^ ^ ^ ^ ^ ^ ^ ^ ^ j j ^ ^ ^ ^ ^ ^ ^ ^ ^ ^ ^ ^ ^ ^ ^ ^ ^ ^ j j j j j s s s j j ^ ^ ^ ^ ^ ^ ^ ^ s s ^ ^ s ^ s ^ ^ ^ ^ ^ ^ ^ ^ ^ ^ ^ ^ ^ ^ ^ ^ ^ ^ ^ ^ ^ ^ ^ ^ ^ ^ ^ ^ ^ ^ ^ s ^ ^ ^ ^ s ^ s ^ ^ ^ ^ ^ ^ ^ ^ ^ ^ ^ ^ ^ W ^ ^ ^ ^ ^ ^ ^ ^ ^ ^ ^ s s ^ ^ ^ ^ ^ ^ ^ s ^ ^ ^ ^ ^ ^ ^ s ^ s s s ^ ^ ^ ^ s ^ ^ ^ ^ s s s s s s s ^ ^ ^ ^ s ^ ^ ^ ^ ^ ^ ^ ^ ^ ^ ^ s ^ ^ ^ ^ C s s ^ ^ s s ^ s ^ ^ s s b ^ ^ ^ ^ ^ ^ s f C f ^ s s s s s s s s s s s s s s s s s s s s < ",
"< w.s s s s s s s s ^ ^ ^ s s s s s s s ^ ^ ^ ^ ^ ^ ^ ^ ^ ^ ^ ^ ^ ^ ^ ^ ^ ^ ^ ^ ^ C j j ^ W ^ ^ j j ^ ^ ^ ^ ^ ^ ^ ^ ^ ^ ^ ^ ^ j j j s j s s j j s s ^ s ^ ^ ^ ^ s s ^ j s ^ s ^ ^ s ^ ^ ^ ^ ^ ^ ^ ^ ^ ^ ^ ^ ^ ^ ^ ^ ^ ^ ^ ^ ^ ^ ^ ^ ^ ^ ^ ^ s ^ ^ ^ ^ ^ ^ s ^ ^ ^ ^ ^ ^ ^ ^ ^ ^ ^ ^ W ^ ^ ^ ^ ^ ^ ^ ^ ^ ^ ^ ^ s ^ ^ ^ ^ ^ ^ s ^ s ^ ^ s ^ ^ ^ ^ ^ ^ ^ ^ s ^ ^ ^ s s ^ ^ ^ ^ s s s s s s s ^ ^ ^ ^ s ^ ^ ^ ^ ^ ^ ^ ^ ^ ^ ^ s ^ ^ ^ ^ ^ j ^ ^ ^ s s ^ s ^ s ^ s ^ C ^ ^ ^ ^ ^ ^ z j s s s s s s s s s s s s s s s s s s s s s s < ",
"< w.s s s s s s s s ^ ^ s s s s s s s s ^ ^ s s s ^ ^ ^ ^ ^ ^ ^ ^ ^ ^ ^ ^ ^ ^ ^ ^ j j ^ ^ ^ ^ j j j b ^ ^ ^ ^ ^ ^ ^ ^ ^ ^ ^ ^ ^ ^ s s j s s C j ^ s ^ s ^ ^ ^ ^ s s ^ C ^ ^ s ^ ^ s ^ ^ ^ ^ ^ ^ ^ ^ ^ ^ ^ ^ ^ ^ ^ ^ ^ ^ ^ ^ ^ ^ ^ ^ ^ ^ ^ ^ s ^ ^ ^ ^ ^ ^ ^ W ^ ^ ^ ^ ^ ^ ^ ^ ^ ^ ^ ^ ^ ^ ^ ^ ^ ^ ^ ^ ^ ^ ^ ^ ^ ^ s ^ s ^ ^ s ^ s ^ ^ s ^ ^ ^ s ^ ^ ^ ^ ^ ^ s ^ s s s ^ ^ ^ s s s s s s s ^ ^ ^ ^ s ^ ^ ^ ^ ^ ^ ^ ^ ^ ^ ^ ^ ^ ^ ^ ^ C j ^ ^ ^ s s ^ s ^ s s s ^ ^ ^ ^ ^ s ^ W s s s s s ^ s s s s s s s ^ s s s s s s s s s s < ",
"< w.s s s s s s s ^ s s s s s s s s s s s s s s ^ ^ ^ ^ ^ ^ ^ ^ ^ ^ ^ ^ ^ ^ ^ ^ ^ ^ ^ ^ ^ ^ j j j j ^ ^ ^ ^ ^ ^ ^ ^ ^ ^ ^ ^ ^ ^ ^ s s ^ s s ^ C ^ s ^ s ^ ^ ^ ^ ^ s ^ ^ s ^ ^ ^ ^ ^ ^ ^ ^ ^ ^ ^ ^ ^ ^ ^ ^ ^ ^ ^ ^ ^ ^ ^ ^ ^ ^ ^ ^ ^ ^ ^ ^ ^ ^ ^ ^ ^ ^ C ^ ^ ^ ^ ^ ^ ^ ^ ^ ^ ^ ^ ^ ^ ^ ^ ^ ^ ^ ^ ^ ^ ^ ^ ^ ^ ^ ^ ^ ^ s ^ ^ ^ s ^ s ^ ^ s ^ ^ ^ ^ ^ ^ ^ ^ s ^ ^ ^ s ^ s ^ ^ ^ s s s s s ^ ^ ^ ^ ^ ^ ^ ^ ^ ^ ^ ^ ^ ^ ^ ^ ^ ^ ^ ^ ^ ^ s C C ^ ^ ^ s s ^ s ^ s s s ^ ^ ^ ^ s s s s s s ^ ^ s s ^ ^ s s s s s ^ s s s s s s s s s s < ",
"< w.s s s s s s s s s s s s s s s s s ^ s s s ^ j W j j ^ ^ ^ ^ ^ ^ ^ ^ ^ ^ ^ ^ ^ ^ ^ ^ ^ ^ j j j j ^ ^ ^ ^ ^ ^ ^ ^ ^ ^ ^ ^ ^ ^ ^ s s ^ s ^ ^ ^ ^ s ^ s ^ ^ ^ ^ ^ s ^ ^ ^ ^ ^ ^ ^ ^ ^ ^ ^ ^ ^ ^ ^ ^ ^ ^ ^ ^ ^ ^ ^ ^ ^ ^ ^ ^ ^ ^ ^ ^ ^ ^ ^ ^ ^ ^ ^ ^ ^ W ^ ^ ^ ^ ^ ^ ^ ^ ^ ^ ^ ^ ^ ^ ^ ^ ^ ^ ^ ^ ^ ^ ^ ^ ^ s ^ ^ ^ ^ ^ ^ ^ ^ s ^ s ^ ^ s ^ ^ ^ ^ ^ ^ ^ ^ ^ ^ ^ ^ s ^ s ^ ^ ^ s s ^ s s ^ s ^ ^ ^ ^ ^ ^ ^ ^ ^ ^ ^ ^ ^ ^ ^ s ^ ^ ^ ^ s s ^ ^ ^ ^ ^ s ^ s ^ s s ^ ^ ^ ^ ^ s s s s s s s s s s s s s s s s s s s s s s s s s s s s < ",
"< w.s s s s s s s s s s s ^ ^ ^ ^ ^ ^ ^ s ^ ^ j j j j j ^ ^ ^ ^ ^ ^ ^ ^ ^ ^ ^ ^ ^ ^ ^ ^ ^ ^ j j j j j ^ ^ ^ ^ ^ ^ ^ ^ ^ ^ s ^ ^ ^ s ^ ^ s ^ s ^ ^ s ^ ^ ^ ^ s ^ ^ ^ s ^ ^ ^ ^ ^ ^ ^ ^ ^ ^ ^ ^ ^ ^ ^ ^ ^ ^ ^ ^ ^ ^ s ^ ^ ^ ^ ^ ^ ^ ^ ^ ^ ^ ^ ^ ^ ^ ^ ^ ^ ^ ^ ^ ^ ^ ^ ^ ^ ^ ^ ^ ^ ^ ^ ^ ^ ^ ^ ^ ^ ^ ^ ^ ^ ^ ^ ^ ^ ^ ^ ^ ^ ^ ^ ^ s s ^ s ^ ^ ^ ^ ^ ^ ^ ^ ^ s ^ ^ ^ ^ ^ ^ ^ ^ s s ^ ^ s ^ ^ s ^ ^ ^ ^ ^ ^ ^ ^ ^ ^ ^ ^ ^ ^ ^ s ^ ^ ^ ^ s s ^ s ^ ^ s s ^ s ^ s ^ ^ ^ ^ ^ ^ ^ s s s s s s s s s s s s s s s s s s s f s s s s s s s < ",
"< w.s s s s s s s ^ s s s ^ ^ ^ ^ ^ ^ ^ ^ ^ ^ j j j j j ^ ^ ^ ^ ^ ^ ^ ^ ^ ^ ^ ^ ^ ^ ^ ^ ^ ^ j j j j j ^ ^ ^ ^ ^ ^ ^ ^ ^ ^ s ^ ^ ^ ^ ^ ^ s ^ ^ ^ ^ s s ^ ^ ^ ^ ^ ^ ^ s ^ ^ ^ ^ ^ ^ ^ ^ ^ ^ ^ ^ ^ ^ ^ ^ ^ ^ ^ s ^ ^ s ^ ^ ^ ^ ^ ^ ^ ^ ^ ^ C C ^ ^ ^ ^ ^ ^ ^ ^ ^ ^ ^ ^ ^ ^ ^ ^ ^ ^ ^ ^ ^ ^ ^ ^ ^ ^ ^ ^ C ^ ^ ^ ^ s ^ ^ ^ ^ ^ ^ ^ s s ^ C s ^ b ^ ^ ^ ^ ^ ^ s ^ ^ ^ ^ ^ ^ ^ ^ s s ^ ^ ^ s ^ s ^ ^ ^ ^ ^ ^ ^ ^ ^ ^ ^ ^ ^ ^ ^ s ^ s ^ ^ s s ^ s ^ ^ s s ^ s ^ ^ ^ ^ ^ ^ ^ ^ ^ s s s s s s s s s s s s s s s s s s s s s s s s s s s < ",
"< w.s s s s s s s s s s s ^ ^ ^ ^ ^ ^ ^ ^ ^ ^ ^ C a j C ^ ^ ^ ^ ^ ^ ^ ^ ^ ^ ^ ^ ^ ^ ^ ^ ^ ^ ^ W j j j ^ ^ ^ ^ ^ ^ ^ ^ ^ ^ s ^ ^ ^ s s ^ s s ^ ^ ^ ^ ^ ^ ^ ^ ^ ^ ^ ^ s ^ ^ ^ ^ ^ ^ s ^ ^ ^ ^ ^ ^ ^ ^ ^ ^ ^ ^ ^ ^ ^ ^ ^ C ^ ^ ^ ^ ^ ^ C W W ^ s ^ ^ ^ W W ^ ^ ^ ^ ^ ^ ^ ^ ^ ^ ^ ^ ^ ^ ^ ^ ^ ^ ^ ^ ^ ^ W ^ s ^ ^ s s ^ ^ s ^ ^ ^ s s ^ W ^ ^ ^ ^ ^ ^ ^ ^ ^ ^ ^ ^ ^ ^ ^ ^ ^ ^ s ^ ^ ^ s s ^ s ^ ^ ^ ^ ^ ^ ^ s ^ ^ ^ ^ ^ ^ ^ s ^ s ^ ^ s s ^ ^ ^ ^ s s ^ s s s ^ ^ ^ ^ ^ ^ ^ ^ s s s s s ^ s s s s s s s s s s s s s s s s s s s s < ",
"< w.s s s s s s s s s s s ^ ^ ^ ^ ^ ^ ^ ^ ^ ^ ^ j j b ^ ^ ^ ^ ^ ^ ^ ^ ^ ^ ^ ^ ^ ^ ^ ^ ^ ^ ^ ^ ^ j j j ^ ^ ^ ^ ^ ^ ^ ^ ^ ^ s s ^ ^ ^ s ^ s s ^ ^ ^ ^ ^ ^ ^ ^ s ^ ^ ^ ^ ^ ^ ^ ^ ^ ^ s s ^ ^ ^ ^ ^ ^ ^ ^ ^ ^ ^ ^ ^ ^ ^ ^ ^ ^ ^ ^ ^ ^ ^ ^ C ^ W s ^ ^ ^ ^ W ^ ^ ^ ^ ^ ^ ^ ^ ^ ^ ^ ^ ^ ^ ^ ^ ^ ^ ^ ^ ^ ^ ^ ^ s ^ ^ s s ^ ^ s ^ ^ ^ s s ^ ^ ^ ^ ^ s ^ ^ ^ ^ ^ ^ ^ ^ ^ s ^ ^ s ^ s s ^ s s s ^ s ^ ^ ^ ^ ^ ^ ^ s ^ ^ ^ ^ ^ ^ ^ s ^ s ^ ^ ^ ^ s ^ ^ ^ s s ^ s s s b ^ ^ ^ ^ ^ ^ s s s s s s s s s s s s s s s j s s s s s s s s s s s < ",
"< w.s s s s s s s s s s s ^ ^ ^ ^ ^ ^ ^ ^ ^ ^ ^ C j j ^ ^ ^ ^ ^ ^ ^ ^ ^ ^ ^ ^ ^ ^ ^ ^ ^ ^ ^ s ^ ^ j ^ ^ ^ ^ ^ ^ ^ ^ ^ ^ ^ ^ ^ ^ ^ ^ s s s s ^ ^ ^ ^ ^ ^ b ^ s ^ ^ s ^ ^ ^ ^ ^ ^ ^ ^ s ^ ^ ^ ^ ^ ^ ^ ^ ^ ^ s ^ ^ ^ ^ ^ ^ ^ ^ ^ ^ ^ ^ C W ^ ^ s C ^ ^ ^ ^ ^ ^ ^ ^ ^ ^ ^ ^ ^ ^ ^ ^ ^ ^ ^ ^ ^ ^ ^ ^ ^ ^ ^ ^ ^ ^ ^ ^ ^ ^ ^ s ^ ^ s ^ ^ ^ ^ ^ ^ ^ s s ^ ^ ^ ^ ^ ^ ^ ^ s ^ ^ ^ ^ s s s ^ s s ^ ^ ^ ^ ^ ^ ^ ^ ^ s ^ ^ ^ ^ ^ ^ ^ s ^ ^ ^ ^ ^ ^ s s ^ ^ s s ^ s s s ^ ^ ^ b ^ ^ ^ s s s s s s s s s s s s s s s s s s s s s s s s s s s < ",
"< w.s s s s s s s s s s s ^ ^ ^ ^ ^ ^ ^ ^ ^ ^ ^ ^ j ^ ^ ^ ^ ^ ^ ^ ^ ^ ^ ^ ^ ^ ^ ^ ^ ^ ^ ^ ^ ^ ^ b ^ ^ ^ ^ ^ ^ ^ ^ ^ ^ ^ ^ ^ ^ ^ ^ ^ s s ^ ^ ^ ^ ^ ^ ^ s ^ ^ s ^ ^ s ^ ^ ^ ^ ^ ^ ^ ^ s ^ ^ ^ ^ ^ ^ ^ ^ ^ s ^ ^ ^ ^ ^ ^ ^ ^ ^ ^ ^ ^ W C b ^ ^ ^ ^ ^ ^ ^ ^ ^ ^ ^ ^ ^ ^ ^ ^ ^ ^ ^ ^ ^ ^ ^ ^ ^ ^ ^ ^ ^ ^ ^ ^ ^ ^ ^ ^ ^ ^ ^ ^ ^ ^ ^ ^ ^ ^ s s ^ ^ s ^ ^ ^ ^ ^ ^ ^ ^ ^ s ^ ^ ^ ^ s ^ s s s s ^ ^ ^ ^ ^ ^ ^ ^ ^ ^ ^ ^ ^ ^ ^ ^ ^ s ^ ^ ^ ^ ^ s ^ ^ ^ ^ s s ^ ^ ^ s ^ ^ ^ W ^ ^ ^ s s s s s s s s s s s s s s s s s s s s s s s s s s s < ",
"< w.s s s s s s s s s s s ^ ^ ^ ^ ^ ^ ^ ^ ^ ^ ^ s ^ ^ ^ ^ ^ ^ ^ ^ ^ ^ ^ ^ ^ ^ ^ ^ ^ ^ ^ ^ ^ ^ ^ ^ ^ ^ ^ ^ ^ ^ ^ ^ ^ ^ ^ ^ ^ ^ ^ ^ ^ s ^ ^ ^ ^ ^ ^ s ^ ^ ^ ^ ^ ^ ^ ^ ^ ^ ^ ^ ^ ^ ^ ^ ^ ^ ^ ^ ^ ^ ^ ^ ^ ^ s ^ ^ ^ ^ ^ ^ ^ ^ ^ ^ ^ ^ ^ ^ C b z ^ ^ ^ ^ ^ ^ ^ ^ ^ ^ ^ ^ ^ ^ ^ ^ ^ ^ ^ ^ ^ ^ ^ ^ ^ ^ ^ ^ ^ ^ ^ ^ ^ ^ s ^ ^ ^ ^ ^ ^ ^ ^ ^ ^ s ^ ^ s s s ^ ^ ^ ^ ^ ^ ^ s ^ s ^ ^ s ^ ^ s s ^ ^ ^ ^ ^ ^ ^ ^ ^ ^ ^ ^ ^ ^ ^ ^ ^ ^ s ^ ^ ^ ^ ^ s ^ ^ ^ ^ s s ^ s ^ ^ ^ ^ ^ ^ ^ ^ ^ s s s s s s s s s s s s s s s s s s j s s s s s s s s < ",
"< w.s s s s s s s s s s s s ^ ^ ^ ^ ^ ^ ^ ^ ^ ^ ^ ^ ^ ^ ^ ^ ^ ^ ^ ^ ^ ^ ^ ^ ^ ^ ^ ^ ^ ^ ^ ^ ^ ^ ^ ^ ^ ^ ^ ^ ^ ^ ^ ^ ^ ^ ^ ^ ^ ^ ^ ^ ^ s ^ s ^ ^ ^ s ^ ^ ^ ^ ^ ^ ^ ^ ^ ^ s ^ ^ ^ s ^ ^ ^ ^ ^ ^ ^ ^ ^ ^ ^ s ^ ^ ^ ^ ^ ^ ^ ^ ^ ^ ^ ^ ^ W b j j C ^ ^ ^ ^ ^ ^ ^ ^ s ^ ^ ^ ^ ^ ^ ^ ^ ^ ^ s ^ s ^ ^ W W ^ ^ ^ ^ ^ ^ ^ ^ ^ ^ ^ ^ ^ ^ ^ s ^ s ^ ^ ^ ^ s s s s s ^ ^ ^ ^ s ^ s ^ ^ s ^ ^ s s ^ ^ ^ ^ ^ ^ ^ ^ ^ s ^ ^ ^ ^ ^ ^ ^ ^ s ^ ^ ^ ^ ^ ^ ^ ^ ^ ^ s s s s ^ ^ ^ ^ ^ ^ ^ ^ ^ s s s s s s s s s s s s s s s s j j j s s s s s s s s < ",
"< w.s s s s s s s s s s s ^ ^ ^ ^ ^ ^ ^ ^ ^ ^ ^ ^ ^ ^ ^ ^ ^ ^ ^ ^ ^ ^ ^ ^ ^ ^ ^ ^ ^ ^ ^ ^ ^ ^ ^ ^ ^ ^ ^ ^ ^ ^ ^ ^ ^ ^ ^ ^ ^ ^ ^ ^ ^ ^ s ^ s ^ ^ ^ ^ ^ ^ ^ ^ ^ ^ ^ s ^ ^ ^ ^ ^ ^ ^ ^ ^ ^ ^ ^ ^ ^ ^ ^ ^ ^ ^ ^ ^ ^ ^ ^ ^ ^ ^ ^ ^ ^ ^ ^ ^ b j j ^ ^ ^ ^ ^ ^ ^ ^ ^ s ^ ^ ^ W ^ ^ ^ ^ ^ ^ s ^ s ^ ^ ^ s ^ ^ ^ ^ ^ ^ ^ ^ ^ ^ ^ ^ ^ ^ ^ s ^ s ^ ^ ^ ^ ^ ^ s s ^ ^ ^ ^ ^ s ^ s ^ ^ s ^ ^ s s ^ ^ ^ ^ ^ ^ ^ ^ ^ ^ ^ ^ ^ ^ ^ ^ ^ ^ ^ ^ ^ ^ ^ s ^ ^ ^ ^ ^ s s s s ^ ^ ^ ^ ^ ^ ^ ^ ^ ^ ^ s s s s s s s s s s s s s s s s s s s s s s s s s < ",
"p w.s s s s s s s s s s s ^ ^ ^ ^ ^ ^ ^ ^ ^ ^ ^ ^ ^ ^ ^ ^ ^ ^ ^ ^ ^ ^ ^ ^ ^ ^ ^ ^ ^ ^ ^ ^ ^ ^ ^ ^ ^ ^ ^ ^ ^ ^ ^ ^ ^ s ^ ^ ^ ^ ^ ^ ^ ^ ^ s s ^ ^ s s ^ ^ ^ ^ ^ ^ ^ s ^ ^ ^ ^ ^ ^ ^ ^ ^ ^ ^ ^ ^ ^ ^ ^ ^ ^ s ^ ^ ^ ^ ^ ^ ^ ^ ^ ^ ^ ^ ^ ^ ^ ^ ^ ^ ^ ^ ^ ^ ^ ^ ^ ^ ^ ^ ^ ^ ^ ^ ^ ^ ^ ^ ^ ^ ^ ^ ^ ^ ^ s ^ ^ ^ ^ ^ ^ ^ s ^ ^ ^ ^ ^ ^ ^ s ^ ^ ^ ^ ^ ^ ^ ^ s s ^ s ^ ^ ^ s ^ s ^ ^ s ^ ^ s s ^ ^ ^ ^ ^ ^ ^ ^ ^ s ^ s ^ ^ ^ ^ ^ ^ ^ ^ ^ ^ ^ s s ^ ^ ^ ^ s ^ s s ^ ^ ^ s ^ ^ ^ ^ ^ s s s s s s s s s s a s s s s s s s s s s s s s s s s < ",
"p w.s s s s s s s s s s s s ^ ^ ^ ^ ^ ^ ^ ^ ^ ^ ^ ^ ^ ^ ^ ^ ^ ^ ^ ^ ^ ^ ^ ^ ^ ^ ^ ^ ^ ^ ^ ^ ^ ^ ^ s ^ ^ ^ ^ ^ ^ ^ ^ s ^ ^ ^ ^ ^ ^ ^ ^ ^ ^ ^ ^ ^ s ^ s ^ ^ ^ ^ ^ s s ^ ^ ^ ^ ^ ^ ^ ^ ^ ^ ^ ^ ^ ^ ^ ^ ^ ^ s ^ ^ ^ ^ ^ ^ ^ ^ ^ ^ ^ ^ ^ ^ ^ ^ ^ ^ ^ ^ ^ ^ ^ ^ ^ ^ s ^ ^ ^ ^ ^ ^ ^ ^ ^ ^ ^ ^ ^ ^ ^ s s ^ ^ ^ s ^ ^ ^ ^ ^ ^ ^ ^ ^ ^ ^ s ^ ^ ^ ^ ^ ^ ^ ^ s s ^ s ^ ^ ^ s ^ s ^ ^ s ^ ^ ^ s ^ ^ ^ ^ ^ ^ ^ ^ ^ s ^ s ^ ^ ^ ^ ^ ^ ^ ^ ^ ^ ^ s s ^ ^ ^ ^ s ^ s s ^ s ^ s ^ ^ ^ ^ ^ ^ ^ s s s s s s s s s s s s s s s s s s s s s s s s s p ",
"p w.s s s s s s s s s s s s ^ ^ ^ ^ s ^ ^ ^ ^ ^ ^ ^ ^ ^ ^ ^ ^ ^ ^ ^ ^ ^ ^ ^ ^ ^ ^ ^ ^ ^ ^ ^ ^ ^ s s ^ ^ ^ ^ ^ ^ ^ ^ s ^ ^ ^ ^ ^ ^ ^ ^ ^ ^ ^ ^ ^ s s s ^ ^ ^ ^ s s ^ ^ ^ ^ ^ ^ ^ ^ ^ ^ ^ ^ ^ ^ ^ ^ ^ ^ C s ^ ^ ^ ^ ^ ^ ^ ^ ^ ^ ^ ^ ^ ^ ^ ^ ^ ^ ^ ^ ^ ^ ^ ^ ^ ^ s ^ ^ ^ ^ ^ ^ ^ ^ j ^ ^ ^ ^ ^ ^ ^ s ^ ^ ^ s ^ ^ ^ ^ ^ ^ ^ ^ ^ ^ s ^ ^ ^ ^ ^ ^ s s s s s ^ s ^ ^ ^ s s s ^ ^ s ^ s s ^ ^ ^ ^ ^ ^ ^ ^ ^ ^ ^ ^ s ^ ^ ^ ^ ^ ^ ^ ^ ^ ^ ^ s s ^ ^ ^ s s s ^ s ^ s ^ s ^ ^ ^ ^ s ^ ^ s s s s s s s s s s s s s s s s s s s s s s s s s p ",
"p w.s s s s s s s s s s s s ^ ^ ^ ^ ^ ^ ^ ^ ^ ^ ^ ^ ^ ^ ^ ^ ^ ^ ^ ^ ^ ^ ^ ^ ^ ^ ^ ^ ^ ^ ^ ^ ^ ^ ^ s ^ ^ ^ ^ ^ ^ ^ ^ ^ ^ ^ ^ ^ ^ ^ ^ ^ ^ ^ ^ ^ ^ s ^ s ^ ^ ^ ^ s ^ ^ ^ ^ ^ ^ ^ ^ ^ ^ ^ ^ ^ ^ ^ ^ ^ ^ ^ j s ^ ^ ^ ^ ^ ^ ^ ^ ^ ^ ^ ^ ^ ^ ^ ^ ^ ^ ^ ^ ^ ^ ^ ^ ^ ^ s ^ ^ ^ ^ ^ ^ ^ ^ W ^ ^ ^ s ^ ^ ^ s ^ ^ ^ ^ ^ ^ ^ s ^ ^ ^ ^ ^ ^ s s ^ ^ ^ ^ ^ s s s s ^ ^ ^ ^ ^ ^ ^ ^ ^ ^ s s ^ s s ^ ^ ^ s ^ ^ ^ ^ ^ ^ s ^ ^ ^ ^ ^ ^ ^ ^ ^ ^ ^ ^ ^ s s s ^ ^ s s s s ^ ^ s ^ ^ ^ ^ ^ ^ s s ^ s s s s s s s s s s s s s s s s s s s s s s s s s p ",
"p w.s s s s s s s s s s s ^ ^ ^ ^ s ^ ^ ^ ^ ^ ^ ^ ^ ^ ^ ^ ^ ^ ^ ^ ^ ^ ^ ^ ^ ^ ^ ^ ^ ^ ^ ^ ^ ^ ^ ^ ^ ^ ^ ^ ^ ^ ^ ^ ^ ^ ^ ^ ^ ^ ^ ^ ^ ^ ^ ^ ^ ^ ^ ^ s s ^ ^ ^ ^ s ^ s ^ ^ ^ ^ ^ ^ W C C b j ^ ^ ^ ^ ^ ^ j s C ^ ^ ^ ^ ^ ^ ^ ^ ^ ^ ^ ^ ^ ^ ^ ^ ^ ^ ^ ^ ^ ^ ^ ^ s s ^ ^ s ^ ^ ^ ^ ^ ^ ^ ^ ^ ^ ^ s ^ s ^ ^ ^ ^ ^ ^ ^ s ^ ^ ^ ^ ^ ^ ^ s ^ ^ ^ ^ ^ ^ ^ s s s ^ ^ ^ ^ ^ ^ ^ ^ ^ ^ s ^ ^ s ^ ^ ^ ^ ^ ^ ^ ^ ^ ^ s ^ ^ ^ ^ ^ ^ ^ ^ ^ ^ ^ ^ ^ s s s ^ ^ s s s s s s s ^ ^ ^ ^ ^ ^ s s s ^ s s s s s s s s s s s s s s s s s s s s ^ s s s p ",
"p w.s s s s s s s j s s s ^ ^ ^ ^ ^ ^ ^ ^ ^ ^ ^ ^ ^ ^ ^ ^ ^ ^ ^ ^ ^ ^ ^ ^ ^ ^ ^ ^ ^ ^ ^ ^ ^ ^ ^ ^ ^ ^ ^ ^ s ^ ^ ^ ^ ^ ^ ^ ^ ^ ^ ^ ^ ^ ^ s ^ ^ ^ ^ s s ^ ^ ^ ^ s ^ s ^ ^ ^ ^ ^ j C j j C j s ^ ^ ^ ^ ^ ^ s j ^ ^ ^ ^ ^ W W W ^ ^ ^ ^ ^ ^ ^ ^ ^ ^ ^ ^ ^ ^ ^ ^ s ^ ^ ^ s ^ ^ ^ ^ ^ ^ ^ ^ ^ ^ s s s s ^ ^ ^ ^ ^ ^ ^ C C ^ ^ ^ ^ ^ ^ ^ ^ ^ s ^ ^ ^ ^ s s s s ^ s ^ s ^ s ^ ^ ^ ^ ^ ^ s ^ ^ ^ ^ ^ ^ ^ ^ ^ ^ ^ C ^ ^ ^ ^ ^ ^ ^ s ^ ^ ^ ^ s s s ^ ^ s s s s s s s s ^ ^ ^ ^ ^ s s s ^ s s s s s s s s s s s s s s s s s s s s ^ s ^ s < ",
"p w.s s s s s s ^ j s s s s s s ^ ^ ^ ^ ^ ^ ^ ^ ^ ^ ^ ^ ^ ^ ^ ^ ^ ^ ^ ^ ^ ^ ^ ^ ^ ^ ^ ^ ^ ^ ^ ^ ^ ^ ^ ^ ^ ^ ^ ^ ^ ^ ^ ^ ^ ^ ^ ^ ^ ^ s ^ ^ ^ s ^ ^ s ^ ^ ^ ^ ^ s ^ s ^ ^ ^ ^ ^ ^ j j j j b s ^ ^ ^ ^ ^ ^ s C ^ C ^ ^ ^ ^ ^ ^ ^ ^ ^ ^ ^ ^ ^ ^ ^ ^ ^ ^ ^ ^ ^ ^ ^ ^ ^ ^ s ^ ^ ^ ^ ^ ^ ^ ^ ^ ^ s s s s ^ ^ ^ ^ ^ ^ C j ^ ^ ^ ^ ^ ^ ^ ^ ^ ^ s ^ ^ ^ ^ s s s s ^ ^ ^ ^ ^ s ^ ^ ^ s ^ ^ ^ ^ ^ ^ b ^ ^ ^ ^ ^ ^ ^ ^ ^ ^ ^ ^ ^ ^ ^ ^ ^ ^ ^ ^ ^ s s ^ ^ s s s s ^ s ^ s ^ ^ ^ ^ ^ s s s ^ s s s s s s s s s s s s s s s s s s s s ^ s ^ s < ",
"p w.s s s s s s s ^ s s s s s ^ ^ ^ ^ ^ ^ ^ ^ ^ ^ ^ ^ ^ ^ ^ ^ ^ ^ ^ ^ ^ ^ ^ ^ ^ ^ ^ ^ ^ ^ ^ ^ ^ ^ ^ ^ ^ ^ ^ ^ ^ ^ ^ ^ ^ ^ ^ ^ ^ ^ ^ s ^ ^ s s ^ ^ s ^ ^ ^ ^ ^ ^ ^ ^ ^ ^ ^ ^ ^ ^ C j j j j s ^ ^ ^ ^ ^ ^ ^ ^ C ^ ^ b ^ ^ ^ ^ ^ ^ ^ ^ ^ ^ ^ ^ ^ ^ ^ ^ ^ ^ ^ ^ ^ ^ ^ ^ ^ ^ ^ ^ ^ s s ^ ^ s ^ s s s ^ ^ ^ ^ ^ ^ ^ ^ ^ ^ ^ ^ ^ ^ ^ ^ ^ ^ s s ^ ^ ^ ^ s s s s ^ s ^ ^ ^ ^ s ^ ^ s ^ ^ ^ ^ ^ W ^ j C ^ ^ s s s ^ ^ ^ ^ ^ ^ ^ ^ ^ ^ ^ ^ ^ ^ s s ^ ^ s s s ^ ^ s ^ s ^ s ^ ^ ^ ^ ^ ^ ^ s s s s s s s s s s s s s s s s s s s s ^ s ^ ^ p ",
"p w.s s s s s s s ^ s s s s ^ ^ ^ ^ ^ ^ ^ ^ ^ ^ ^ ^ ^ ^ ^ ^ ^ ^ ^ ^ ^ ^ ^ ^ ^ ^ ^ ^ ^ ^ ^ ^ ^ ^ ^ ^ s ^ s ^ ^ ^ ^ ^ ^ ^ s ^ ^ ^ ^ ^ ^ ^ s s s ^ ^ ^ ^ ^ ^ ^ ^ ^ ^ ^ ^ ^ ^ ^ ^ ^ ^ j j ^ ^ C ^ C ^ ^ ^ ^ ^ ^ ^ ^ ^ C b C ^ ^ ^ ^ ^ ^ ^ ^ ^ ^ ^ ^ ^ ^ ^ ^ ^ ^ ^ ^ ^ ^ ^ ^ ^ ^ ^ ^ s ^ ^ s ^ ^ s s s ^ ^ ^ ^ ^ ^ ^ ^ ^ ^ ^ ^ s s s ^ s ^ ^ ^ ^ ^ ^ ^ ^ s s ^ ^ ^ ^ ^ ^ ^ ^ ^ s ^ ^ ^ s j j ^ j C ^ ^ ^ s s ^ ^ ^ ^ ^ ^ ^ ^ ^ ^ ^ ^ ^ ^ ^ s ^ ^ s s s ^ ^ s ^ s ^ s ^ ^ ^ s s s s s s s s s s s s s s s ^ ^ ^ ^ s s ^ s ^ ^ s ^ ^ p ",
"p w.s s s s s s s s s s s s ^ ^ ^ ^ ^ ^ ^ ^ ^ ^ ^ ^ ^ ^ ^ ^ ^ ^ ^ ^ ^ ^ ^ ^ ^ ^ ^ ^ ^ ^ ^ ^ ^ ^ ^ ^ ^ ^ s ^ ^ ^ ^ ^ ^ ^ s ^ ^ ^ ^ ^ s ^ ^ ^ ^ ^ ^ ^ ^ ^ ^ ^ ^ ^ ^ ^ ^ ^ ^ ^ ^ ^ ^ C j j C C ^ C ^ ^ ^ ^ ^ ^ ^ ^ ^ ^ ^ j ^ ^ ^ ^ ^ ^ ^ ^ ^ ^ ^ ^ ^ ^ ^ ^ ^ ^ ^ ^ ^ s ^ ^ ^ ^ ^ s ^ ^ ^ ^ ^ ^ s s ^ ^ ^ ^ ^ ^ ^ ^ ^ ^ ^ ^ ^ s s ^ ^ s s ^ ^ ^ ^ ^ ^ s s ^ ^ ^ ^ ^ ^ ^ ^ ^ ^ s ^ s j s b j j W ^ ^ ^ ^ ^ s ^ ^ ^ ^ ^ ^ ^ s ^ ^ ^ ^ ^ ^ ^ s ^ ^ s s ^ ^ ^ s ^ s ^ s ^ ^ ^ s s s s s s s s s s s s s s s ^ ^ ^ ^ s s s s ^ ^ s ^ s p ",
"p w.s s s s s s s s s s s s ^ ^ ^ s ^ ^ ^ ^ ^ ^ ^ ^ ^ ^ ^ ^ ^ ^ ^ ^ ^ ^ ^ ^ ^ ^ ^ ^ ^ ^ ^ ^ ^ ^ ^ ^ ^ ^ ^ ^ s ^ ^ ^ ^ ^ ^ ^ ^ ^ ^ ^ ^ ^ ^ ^ ^ ^ s ^ ^ ^ ^ ^ ^ ^ ^ ^ ^ ^ ^ ^ ^ ^ ^ j j j W b ^ ^ ^ ^ ^ ^ ^ ^ ^ ^ ^ ^ ^ ^ ^ ^ ^ ^ ^ ^ ^ ^ ^ ^ ^ ^ ^ ^ ^ ^ ^ ^ ^ ^ ^ ^ s ^ ^ ^ ^ s ^ ^ ^ ^ ^ ^ ^ ^ ^ W ^ s ^ ^ ^ ^ ^ ^ ^ ^ ^ s C C ^ s ^ ^ ^ ^ ^ ^ ^ s s s s ^ ^ ^ ^ s ^ ^ ^ s C s s s ^ b b ^ ^ ^ ^ ^ ^ s ^ ^ ^ ^ ^ ^ ^ s ^ ^ ^ ^ ^ ^ s s ^ ^ s s ^ ^ ^ s ^ s ^ ^ ^ ^ ^ s s s s s s s s s s s s s s s s s ^ ^ ^ ^ s s s ^ s ^ ^ p ",
"p w.s s s s s ^ s s s s s ^ ^ ^ ^ ^ ^ ^ ^ ^ ^ ^ ^ ^ ^ ^ ^ ^ ^ ^ ^ ^ ^ ^ ^ ^ ^ ^ ^ ^ ^ ^ ^ ^ ^ ^ ^ ^ ^ ^ ^ ^ s ^ ^ ^ ^ ^ ^ ^ ^ ^ ^ s ^ ^ ^ ^ ^ ^ ^ ^ ^ ^ ^ ^ ^ ^ ^ ^ ^ ^ ^ ^ ^ ^ ^ s ^ C b W ^ s ^ ^ C ^ ^ ^ ^ ^ ^ ^ ^ ^ ^ ^ ^ W ^ ^ ^ ^ ^ ^ ^ ^ ^ ^ ^ ^ ^ ^ ^ ^ ^ ^ s s ^ ^ s s ^ ^ ^ ^ ^ ^ ^ ^ ^ ^ ^ ^ ^ ^ ^ ^ ^ ^ ^ ^ ^ s j C ^ s ^ ^ ^ s ^ s s s s s s ^ ^ ^ ^ s s ^ ^ s ^ s s ^ b j j ^ ^ ^ ^ ^ s s ^ ^ ^ ^ ^ ^ ^ s ^ ^ ^ ^ ^ ^ s s ^ ^ ^ ^ ^ s ^ s ^ s ^ ^ ^ ^ ^ s s s ^ s s s s s s s s f s s s s ^ ^ ^ ^ ^ s s ^ ^ ^ ^ p ",
"p w.s s s s s s s s s s s ^ ^ ^ ^ ^ ^ ^ ^ ^ ^ ^ ^ ^ ^ ^ ^ ^ ^ ^ ^ ^ ^ ^ ^ ^ ^ ^ ^ ^ ^ ^ ^ ^ ^ ^ ^ ^ ^ ^ ^ ^ ^ ^ ^ ^ ^ ^ ^ ^ ^ ^ ^ ^ ^ C j ^ ^ ^ ^ ^ ^ ^ ^ ^ ^ ^ ^ ^ ^ ^ ^ ^ ^ ^ ^ s ^ ^ ^ ^ s ^ ^ ^ ^ ^ j j j ^ ^ ^ ^ ^ ^ ^ ^ W ^ ^ ^ ^ ^ ^ ^ ^ ^ ^ ^ ^ ^ ^ ^ ^ ^ j s s ^ ^ s s ^ ^ ^ s s ^ s ^ s ^ ^ ^ ^ ^ ^ ^ ^ ^ W ^ ^ s ^ ^ ^ s ^ ^ ^ s ^ s s s ^ ^ s ^ ^ ^ ^ s s ^ ^ s ^ s s ^ j j j j ^ ^ ^ ^ s s s ^ ^ ^ ^ ^ ^ ^ ^ ^ ^ ^ ^ ^ s s ^ ^ ^ ^ ^ s ^ s ^ ^ ^ ^ ^ ^ ^ ^ s ^ ^ s s s s s s s s s s s s s s ^ s ^ ^ s s s s ^ ^ p ",
"p w.s s s s s s s s s s ^ ^ ^ ^ ^ ^ ^ ^ ^ ^ ^ ^ ^ ^ ^ ^ ^ ^ ^ ^ ^ ^ ^ ^ ^ ^ ^ ^ ^ ^ ^ ^ ^ ^ ^ ^ ^ ^ ^ ^ ^ ^ ^ ^ ^ ^ ^ ^ ^ ^ ^ ^ ^ ^ ^ ^ j b ^ s s ^ ^ ^ ^ ^ ^ s ^ ^ ^ ^ ^ ^ ^ ^ ^ ^ ^ ^ ^ ^ ^ ^ ^ ^ ^ ^ j j j ^ ^ ^ ^ ^ ^ ^ ^ ^ W ^ ^ ^ ^ ^ ^ ^ ^ ^ ^ ^ ^ ^ ^ ^ ^ s ^ s ^ ^ s ^ ^ ^ ^ ^ s ^ s ^ s ^ ^ ^ ^ ^ ^ ^ ^ ^ ^ ^ ^ s W ^ ^ s ^ ^ ^ s s s ^ s s ^ ^ ^ s s ^ s s ^ ^ s ^ s s ^ b j j C C ^ ^ ^ s s s ^ ^ ^ ^ ^ ^ ^ ^ ^ ^ ^ ^ ^ s s ^ ^ s ^ ^ s ^ s ^ ^ ^ ^ ^ ^ ^ s s ^ ^ s ^ s ^ ^ s s s s s s s ^ s s s s s s s s ^ ^ ^ p ",
"< z.w.w.w.w.w.w.w.w.w.w.| ' ' O.l.l.l.l.l.l.l.$.' $.l.l.-.-.^ ^ ^ ^ ^ ^ ^ ^ ^ ^ ^ ^ ^ ^ ^ ^ ^ ^ ^ ^ ^ ^ ^ ^ ^ ^ ^ ^ ^ ^ ^ ^ s ^ ^ ^ ^ ^ j j j s s j ^ ^ ^ ^ ^ s ^ ^ ^ ^ ^ ^ ^ ^ ^ ^ ^ ^ ^ ^ ^ ^ ^ ^ ^ ^ ^ ^ ^ ^ ^ ^ ^ ^ ^ ^ ^ ^ ^ W ^ ^ ^ ^ ^ ^ ^ s s ^ ^ ^ ^ ^ ^ ^ ^ ^ ^ ^ ^ ^ ^ ^ ^ ^ ^ ^ s ^ ^ ^ ^ ^ ^ ^ ^ ^ ^ ^ ^ ^ ^ s s ^ ^ s ^ ^ j s s s s s s s ^ ^ ^ ^ ^ s s ^ ^ s ^ ^ ^ ^ ^ ^ ^ ^ ^ ^ ^ ^ s s s ^ ^ ^ ^ ^ ^ ^ ^ ^ ^ ^ ^ ^ s ^ ^ ^ s s s s ^ s ^ ^ ^ ^ ^ ^ O.$.1.l.l.w.l.l.w.l.l.P | U P P O.{ P P / w.w.w.w.w.$.O.l.T ",
"  ; X X X X X X X X X X X * * * * * * * * * * * * * * * * * l.^ ^ ^ ^ ^ ^ ^ ^ ^ ^ ^ ^ ^ ^ ^ ^ ^ ^ ^ ^ ^ ^ ^ ^ ^ ^ ^ ^ ^ ^ ^ ^ ^ ^ ^ ^ ^ ^ j ^ ^ j ^ ^ ^ ^ ^ ^ s ^ ^ ^ ^ ^ ^ ^ ^ ^ ^ ^ ^ ^ ^ ^ ^ ^ ^ ^ ^ ^ ^ ^ ^ ^ ^ ^ ^ ^ ^ ^ ^ ^ ^ ^ ^ ^ ^ ^ ^ ^ s s ^ ^ ^ s ^ ^ ^ ^ ^ ^ ^ ^ ^ ^ ^ C ^ s ^ s ^ ^ ^ s ^ ^ ^ ^ s ^ ^ ^ ^ ^ ^ ^ s ^ ^ ^ s ^ s s ^ s ^ s s s ^ ^ s ^ s s ^ ^ s ^ ^ ^ ^ ^ ^ ^ ^ ^ ^ ^ ^ ^ ^ ^ ^ ^ ^ ^ ^ ^ ^ ^ ^ ^ ^ ^ ^ s ^ ^ ^ s ^ s s ^ s ^ s ^ ^ ^ ' * * * * * X X * X * * X X * * * * * * * X X X X X * * * *   ",
"= D r r r > > > > > > > > y y y y y y y y y y y y y y y y * * l.^ ^ ^ ^ ^ ^ ^ ^ ^ ^ ^ ^ ^ ^ ^ ^ ^ ^ ^ ^ ^ ^ ^ ^ ^ ^ ^ ^ ^ ^ ^ ^ ^ ^ ^ ^ ^ ^ ^ ^ ^ s ^ ^ s ^ ^ s ^ b ^ ^ ^ ^ ^ ^ ^ ^ ^ ^ ^ ^ ^ ^ ^ ^ ^ ^ ^ ^ ^ ^ ^ ^ ^ ^ ^ ^ ^ ^ ^ ^ ^ ^ ^ ^ ^ ^ ^ s s ^ ^ ^ s ^ ^ ^ ^ ^ ^ ^ ^ ^ ^ j j j s ^ ^ ^ ^ b s ^ b ^ ^ s ^ ^ ^ ^ ^ ^ ^ ^ ^ ^ ^ ^ ^ s s ^ s s s ^ s ^ ^ ^ s s ^ ^ ^ s ^ ^ ^ ^ ^ ^ ^ ^ ^ ^ ^ ^ s ^ ^ ^ ^ ^ ^ ^ ^ ^ ^ ^ ^ ^ ^ ^ s ^ ^ ^ ^ ^ ^ ^ ^ s ^ ^ ^ ^ -.* * y y y y > > > > y y y y y y y y y y y > > y y y y y y y - ",
"p w.s s s s s s s s s s s s ^ ^ ^ ^ ^ ^ ^ ^ ^ ^ ^ ^ ^ ^ ^ y * * l.^ ^ ^ ^ ^ ^ ^ ^ ^ ^ ^ ^ ^ ^ ^ ^ ^ s ^ ^ ^ ^ ^ ^ ^ ^ ^ s ^ ^ ^ ^ ^ ^ ^ ^ ^ ^ ^ ^ s ^ ^ s C W ^ j C ^ ^ ^ ^ ^ ^ ^ ^ ^ ^ ^ ^ ^ ^ ^ ^ ^ ^ j ^ ^ ^ ^ ^ ^ ^ ^ ^ ^ ^ ^ ^ ^ ^ ^ ^ ^ ^ ^ ^ ^ ^ ^ ^ s ^ ^ ^ ^ ^ ^ ^ s ^ ^ C ^ ^ s s ^ ^ ^ j s j ^ ^ ^ s ^ ^ ^ ^ ^ ^ ^ ^ ^ ^ ^ ^ ^ s s W s s s ^ ^ ^ ^ ^ s s ^ ^ ^ ^ ^ ^ ^ ^ ^ ^ ^ ^ ^ ^ ^ ^ s s ^ ^ ^ ^ ^ ^ ^ ^ ^ ^ ^ ^ ^ ^ ^ ^ ^ ^ ^ ^ s ^ ^ s ^ ^ ^ O.* * y ^ ^ ^ ^ s s s s ^ ^ ^ s ^ ^ ^ ^ ^ ^ ^ ^ ^ ^ ^ ^ ^ ^ ^ ^ p ",
"p w.s s s s s s s s s s s ^ ^ ^ ^ ^ ^ ^ ^ ^ ^ ^ ^ ^ ^ ^ ^ ^ y * * l.^ ^ ^ ^ ^ ^ ^ ^ ^ ^ ^ ^ ^ ^ ^ ^ ^ ^ ^ ^ ^ ^ ^ ^ ^ ^ s ^ ^ ^ ^ ^ ^ ^ ^ ^ ^ s s ^ ^ ^ b j j s j ^ ^ ^ ^ ^ ^ ^ ^ ^ ^ ^ ^ ^ ^ ^ ^ ^ ^ C j ^ ^ ^ ^ ^ ^ ^ ^ ^ ^ ^ ^ ^ ^ ^ ^ ^ ^ ^ ^ ^ ^ ^ ^ ^ ^ ^ ^ ^ ^ ^ ^ ^ s ^ ^ C ^ ^ s s ^ ^ b j j ^ ^ ^ ^ ^ ^ ^ ^ ^ ^ ^ ^ ^ ^ ^ ^ ^ s s s s s s s ^ s ^ ^ ^ ^ s ^ ^ ^ s ^ s ^ ^ ^ ^ ^ ^ ^ ^ ^ ^ s s ^ ^ ^ ^ ^ ^ ^ ^ ^ ^ ^ ^ ^ ^ ^ ^ ^ ^ ^ ^ s ^ ^ ^ ^ s ' * * y ^ ^ ^ ^ ^ ^ s ^ s s ^ ^ ^ ^ ^ ^ ^ ^ ^ ^ ^ s ^ ^ ^ ^ ^ ^ ^ p ",
"p w.s s s s s s s s s s s s ^ ^ ^ ^ ^ ^ ^ ^ ^ ^ ^ ^ ^ ^ ^ ^ ^ y * * l.^ ^ ^ ^ ^ ^ ^ ^ ^ ^ ^ ^ ^ ^ ^ ^ ^ ^ ^ ^ ^ ^ ^ ^ ^ s ^ ^ ^ ^ ^ ^ ^ ^ ^ ^ ^ ^ ^ ^ W j j j s b ^ ^ ^ ^ ^ ^ ^ ^ s ^ ^ ^ ^ ^ ^ ^ ^ ^ W ^ ^ ^ ^ ^ ^ ^ ^ ^ ^ ^ ^ ^ ^ ^ ^ ^ ^ ^ ^ ^ s s ^ ^ ^ ^ ^ ^ s ^ ^ C j C ^ ^ ^ ^ ^ ^ ^ ^ s C j C ^ ^ ^ ^ ^ ^ ^ ^ ^ ^ ^ ^ ^ ^ ^ ^ ^ ^ s s s s s s ^ s ^ s ^ ^ s ^ ^ ^ s ^ s ^ ^ ^ ^ ^ ^ ^ ^ ^ ^ s s ^ ^ ^ ^ ^ ^ ^ ^ ^ ^ ^ ^ ^ ^ ^ s ^ ^ ^ ^ ^ ^ ^ ^ s v * * y ^ ^ ^ ^ ^ ^ s ^ s s s ^ ^ ^ ^ ^ ^ s s ^ ^ ^ s ^ s ^ ^ ^ ^ ^ p ",
"< w.s s s s s s s s s s s s s ^ ^ ^ ^ ^ ^ ^ ^ ^ ^ ^ ^ ^ ^ ^ ^ ^ y * * l.^ ^ ^ ^ ^ ^ ^ ^ ^ ^ ^ ^ ^ ^ ^ ^ ^ ^ ^ ^ ^ ^ ^ ^ s ^ ^ ^ ^ ^ ^ ^ ^ ^ ^ ^ ^ s s s j j b s W ^ ^ ^ ^ ^ ^ ^ ^ ^ C ^ ^ ^ ^ ^ ^ ^ ^ ^ ^ ^ ^ ^ ^ ^ ^ ^ ^ ^ ^ ^ ^ ^ ^ ^ ^ ^ ^ ^ s s s ^ ^ ^ ^ ^ ^ s ^ ^ ^ ^ W C W ^ ^ ^ s ^ ^ s j j ^ ^ ^ ^ ^ ^ ^ ^ ^ ^ ^ ^ s ^ ^ ^ ^ ^ ^ ^ s s ^ ^ s ^ s ^ ^ ^ ^ s ^ ^ ^ s ^ s s ^ ^ ^ ^ ^ ^ ^ ^ ^ ^ s ^ ^ ^ ^ ^ ^ ^ ^ ^ ^ ^ ^ ^ ^ ^ s ^ ^ s ^ ^ ^ ^ s v X * y ^ ^ ^ ^ ^ ^ s s s s s s ^ ^ ^ ^ ^ s s ^ ^ ^ ^ ^ ^ ^ ^ ^ s s ^ 8 ",
"p w.s s s s s s s s s s s s ^ ^ ^ ^ ^ ^ ^ ^ ^ ^ ^ ^ ^ ^ ^ ^ ^ ^ ^ y * * l.^ ^ ^ ^ ^ ^ ^ ^ ^ ^ ^ ^ ^ ^ ^ ^ ^ ^ ^ ^ ^ ^ ^ ^ ^ ^ ^ s s s ^ ^ ^ ^ ^ s s s s j W ^ j ^ ^ ^ ^ ^ ^ ^ ^ ^ ^ ^ ^ ^ ^ ^ ^ ^ ^ ^ ^ ^ ^ ^ ^ ^ ^ ^ ^ ^ ^ ^ ^ ^ ^ ^ ^ ^ ^ ^ ^ s s ^ s ^ ^ ^ ^ ^ s ^ ^ ^ ^ ^ ^ j j b ^ ^ ^ ^ s j j j ^ ^ ^ ^ ^ ^ ^ ^ ^ ^ s s ^ ^ ^ ^ ^ ^ ^ s s ^ ^ s ^ ^ ^ ^ ^ s ^ ^ ^ ^ s ^ s ^ ^ ^ ^ ^ ^ ^ ^ ^ ^ ^ s ^ ^ ^ ^ ^ ^ ^ ^ ^ ^ ^ ^ ^ ^ ^ s W ^ s ^ s ^ ^ ' X X y ^ ^ ^ ^ ^ ^ ^ s s s s s s ^ ^ s s ^ s s ^ ^ ^ ^ ^ ^ ^ ^ s s s ^ 8 ",
"p w.s s s s s s s s s s s s ^ ^ ^ ^ ^ ^ ^ ^ ^ ^ ^ ^ ^ ^ ^ ^ ^ ^ ^ ^ y * * l.^ ^ ^ ^ ^ ^ ^ ^ ^ ^ ^ ^ ^ ^ ^ ^ ^ ^ ^ ^ ^ ^ ^ ^ ^ ^ s ^ ^ ^ ^ ^ ^ s ^ s ^ s ^ s ^ ^ ^ ^ ^ ^ ^ ^ ^ ^ ^ ^ ^ ^ ^ ^ ^ ^ ^ ^ W ^ ^ ^ ^ ^ ^ ^ ^ ^ ^ ^ ^ ^ ^ ^ ^ ^ ^ ^ ^ ^ s ^ ^ ^ ^ ^ ^ ^ s s ^ ^ ^ ^ ^ ^ j j W ^ ^ W s s ^ ^ s ^ ^ ^ ^ ^ ^ ^ ^ ^ j j s ^ ^ ^ ^ ^ ^ ^ s s s s s ^ ^ ^ ^ ^ ^ ^ ^ ^ ^ s ^ s ^ ^ ^ W ^ ^ ^ ^ ^ C ^ ^ ^ ^ ^ ^ ^ ^ ^ ^ ^ ^ ^ ^ ^ ^ ^ s ^ ^ ^ ^ s ^ ' X * y ^ ^ ^ ^ ^ ^ ^ ^ s s s s s s ^ s s s ^ ^ s s ^ ^ ^ ^ ^ ^ ^ s s s s p ",
"p l.s s s s s s s s s s ^ ^ ^ ^ ^ ^ ^ ^ ^ ^ ^ ^ ^ ^ ^ ^ ^ ^ ^ ^ ^ ^ ^ y * * l.^ ^ ^ ^ ^ ^ ^ ^ s ^ ^ s ^ ^ ^ ^ ^ ^ ^ ^ ^ ^ ^ ^ ^ s ^ ^ ^ ^ ^ ^ s s s ^ s ^ s ^ s ^ ^ ^ ^ ^ ^ ^ ^ ^ ^ ^ ^ ^ ^ ^ ^ ^ W W C ^ ^ ^ ^ ^ ^ ^ ^ ^ ^ ^ ^ ^ ^ ^ ^ ^ ^ ^ ^ ^ ^ ^ ^ ^ ^ ^ ^ ^ ^ ^ C s ^ ^ ^ j W ^ s ^ b s ^ ^ ^ s ^ ^ ^ ^ j ^ b ^ ^ j ^ s ^ s s ^ ^ ^ ^ s s s s s s ^ ^ ^ ^ ^ ^ ^ ^ ^ ^ ^ s ^ ^ ^ j j ^ ^ ^ ^ j j j ^ ^ ^ ^ ^ ^ ^ ^ ^ ^ ^ C j ^ ^ ^ ^ ^ ^ ^ ^ ' * * > ^ ^ ^ ^ ^ ^ ^ ^ ^ s s s s s s ^ s s s ^ ^ s s ^ ^ ^ ^ ^ ^ ^ s s s s p ",
"p l.s s s s s s s ^ s s ^ ^ ^ ^ ^ ^ ^ ^ ^ ^ ^ ^ s ^ ^ ^ ^ ^ ^ ^ ^ ^ ^ ^ y * * l.^ ^ ^ ^ ^ ^ ^ s ^ ^ s ^ ^ ^ ^ ^ ^ ^ ^ ^ ^ ^ ^ ^ s ^ ^ ^ ^ j j s s s ^ s ^ s ^ s ^ ^ ^ ^ ^ ^ ^ ^ ^ s ^ ^ ^ ^ ^ ^ ^ ^ ^ ^ ^ ^ ^ ^ ^ ^ ^ ^ ^ ^ ^ ^ ^ ^ ^ ^ ^ ^ ^ ^ ^ ^ ^ ^ ^ ^ ^ ^ ^ ^ ^ ^ ^ ^ ^ ^ ^ ^ ^ s s s s ^ ^ ^ s ^ ^ ^ ^ W j C W ^ j ^ s C s s s ^ s s ^ ^ s s s ^ ^ ^ ^ ^ ^ ^ ^ ^ ^ ^ ^ s ^ ^ ^ j j j ^ ^ ^ ^ s C ^ ^ ^ ^ ^ ^ ^ ^ ^ ^ ^ j j C ^ ^ ^ ^ s ^ ' * * y ^ ^ ^ ^ ^ ^ ^ ^ ^ ^ s s s s s s ^ ^ ^ s s ^ ^ ^ ^ ^ ^ C C W ^ ^ ^ ^ ^ p ",
"p w.s s s s s s ^ ^ s s s s s ^ ^ ^ s s ^ ^ ^ ^ s ^ ^ ^ ^ ^ ^ ^ ^ ^ ^ ^ ^ y * * s.^ ^ ^ ^ s ^ s ^ s s ^ ^ ^ ^ ^ ^ ^ ^ ^ ^ ^ ^ s ^ ^ s j j j ^ s s ^ ^ s ^ ^ ^ s ^ ^ ^ ^ ^ ^ ^ ^ ^ s ^ ^ ^ ^ ^ ^ ^ s ^ ^ ^ b ^ ^ ^ ^ ^ ^ ^ ^ ^ ^ ^ ^ ^ ^ ^ ^ ^ ^ ^ ^ ^ ^ ^ ^ ^ ^ s s ^ ^ ^ ^ ^ ^ ^ ^ ^ s s s s ^ s ^ s ^ ^ ^ ^ ^ ^ C C j j ^ s W ^ s s ^ ^ ^ ^ ^ ^ ^ ^ ^ ^ ^ ^ ^ ^ ^ ^ ^ ^ ^ ^ s ^ ^ ^ C W C ^ ^ ^ ^ C C ^ ^ ^ ^ ^ ^ ^ ^ ^ ^ j j j ^ ^ ^ ^ ^ s ' * * y ^ s ^ ^ ^ ^ ^ ^ ^ ^ ^ s s ^ s s s ^ ^ ^ ^ ^ ^ s ^ ^ ^ ^ ^ b W ^ ^ ^ ^ ^ p ",
"p w.s s s s s s s s s s ^ ^ ^ ^ ^ s s s ^ ^ ^ ^ ^ ^ ^ ^ ^ ^ ^ ^ ^ ^ ^ ^ ^ ^ y * * O.^ ^ ^ s ^ ^ ^ s s s ^ ^ ^ ^ ^ ^ ^ ^ s ^ ^ s ^ s s j b ^ ^ ^ ^ ^ ^ s ^ ^ ^ ^ ^ ^ ^ ^ ^ ^ ^ ^ ^ ^ ^ s ^ ^ ^ ^ ^ s ^ ^ ^ b j ^ ^ ^ ^ ^ ^ ^ ^ ^ ^ ^ ^ ^ ^ ^ ^ ^ ^ ^ ^ C j ^ ^ ^ ^ ^ ^ ^ ^ s s s ^ ^ ^ s ^ s s ^ ^ ^ s ^ ^ ^ ^ ^ ^ ^ C b j ^ s ^ ^ ^ s ^ ^ ^ ^ ^ ^ ^ ^ ^ ^ ^ ^ ^ ^ ^ ^ ^ ^ ^ ^ ^ ^ ^ ^ ^ ^ ^ ^ ^ ^ ^ C W ^ ^ ^ ^ ^ ^ ^ ^ ^ j b s ^ ^ ^ ^ ^ ^ B * X y ^ s s ^ ^ ^ ^ ^ ^ ^ ^ ^ s ^ ^ s s ^ ^ ^ ^ ^ ^ ^ ^ ^ ^ ^ ^ W j j j ^ ^ ^ ^ p ",
"p l.s s s s s s s s ^ ^ ^ ^ ^ ^ ^ s s ^ ^ ^ ^ ^ ^ ^ ^ ^ ^ ^ ^ ^ ^ ^ ^ ^ ^ ^ ^ y * * ' ^ ^ ^ ^ ^ ^ ^ s s ^ ^ ^ ^ ^ ^ ^ ^ ^ ^ ^ s ^ s s j W ^ ^ ^ ^ ^ ^ ^ ^ ^ ^ ^ ^ ^ ^ ^ ^ ^ ^ ^ ^ ^ ^ ^ ^ ^ ^ ^ ^ ^ ^ ^ ^ ^ C ^ ^ ^ ^ ^ ^ ^ ^ ^ ^ ^ ^ ^ ^ ^ ^ ^ ^ ^ ^ ^ ^ ^ ^ ^ s ^ ^ ^ ^ s ^ s ^ ^ ^ ^ ^ ^ s ^ ^ ^ s ^ ^ ^ ^ ^ ^ ^ ^ ^ ^ ^ s ^ ^ ^ s ^ ^ ^ ^ ^ ^ s s ^ ^ ^ ^ ^ ^ ^ ^ ^ ^ ^ ^ ^ ^ ^ ^ ^ ^ ^ ^ ^ ^ s s ^ ^ ^ ^ ^ ^ ^ ^ ^ ^ j ^ ^ ^ ^ ^ ^ ^ ' X * > ^ ^ s ^ ^ ^ ^ ^ ^ ^ ^ ^ ^ s ^ s ^ ^ ^ s ^ ^ ^ ^ ^ s ^ ^ ^ ^ ^ j j ^ ^ s ^ ^ p ",
"8 w.s s s s s s s s s ^ ^ ^ ^ ^ ^ ^ s s ^ ^ ^ ^ ^ ^ ^ ^ ^ ^ ^ ^ ^ ^ ^ ^ ^ ^ ^ ^ y * * ' ^ ^ ^ ^ ^ ^ ^ s ^ ^ ^ ^ ^ ^ ^ ^ ^ ^ ^ ^ ^ s s ^ ^ ^ ^ ^ ^ s ^ ^ ^ ^ ^ ^ ^ ^ ^ ^ C ^ ^ ^ ^ ^ ^ s ^ ^ ^ ^ ^ ^ j W ^ ^ C j ^ ^ ^ ^ ^ ^ j b ^ ^ ^ ^ ^ ^ ^ ^ s s ^ ^ ^ ^ ^ ^ s ^ ^ ^ ^ s ^ ^ ^ ^ ^ s ^ ^ s ^ ^ s s ^ ^ ^ ^ ^ ^ ^ ^ ^ ^ ^ ^ ^ ^ s s ^ ^ ^ ^ ^ ^ s s ^ ^ ^ ^ ^ s s ^ ^ ^ ^ ^ ^ ^ ^ ^ ^ ^ ^ ^ ^ ^ s s ^ ^ ^ ^ ^ ^ ^ ^ ^ ^ ^ ^ ^ ^ ^ ^ ^ { * X y s ^ ^ s ^ ^ ^ ^ ^ ^ ^ ^ ^ ^ s ^ ^ ^ ^ ^ s ^ s ^ ^ ^ s s ^ ^ ^ W j b W ^ ^ ^ ^ p ",
"p w.s s s s s s s s ^ ^ ^ ^ ^ ^ ^ ^ ^ ^ ^ ^ ^ ^ ^ ^ ^ ^ ^ ^ ^ ^ ^ ^ ^ ^ ^ ^ ^ ^ ^ y * * ' ^ ^ ^ ^ ^ ^ ^ ^ ^ ^ ^ ^ ^ ^ ^ s ^ ^ ^ W s s ^ ^ ^ ^ ^ ^ s ^ s ^ ^ ^ ^ ^ ^ ^ C j W ^ W ^ ^ ^ s ^ ^ ^ ^ ^ ^ j ^ ^ ^ j j ^ ^ ^ j C j ^ C ^ ^ ^ ^ ^ ^ ^ ^ ^ ^ ^ ^ ^ ^ ^ ^ ^ ^ ^ ^ ^ s ^ ^ ^ ^ ^ s ^ ^ s ^ ^ s s ^ ^ ^ ^ ^ ^ ^ ^ ^ ^ ^ ^ ^ s s s ^ ^ s ^ s ^ s s ^ ^ ^ ^ ^ s s ^ ^ ^ ^ ^ s ^ ^ ^ ^ ^ ^ ^ ^ ^ s ^ s ^ ^ ^ ^ ^ ^ ^ ^ ^ ^ ^ ^ ^ ^ ^ -.* * > ^ ^ ^ ^ s ^ ^ ^ ^ ^ ^ ^ ^ ^ ^ s ^ ^ ^ ^ ^ s ^ s ^ ^ s s s ^ ^ ^ j j ^ ^ ^ W ^ ^ p ",
"p w.s s s s s s s s s s ^ ^ ^ ^ ^ ^ ^ ^ ^ ^ ^ s s ^ ^ ^ ^ ^ ^ ^ ^ ^ ^ ^ ^ ^ ^ ^ ^ ^ y * * { ^ ^ ^ s ^ ^ ^ ^ ^ ^ ^ ^ ^ s s ^ ^ ^ s s s ^ ^ ^ ^ ^ ^ ^ ^ s ^ ^ ^ ^ ^ ^ ^ b j j b b ^ ^ ^ s ^ ^ ^ ^ ^ ^ ^ ^ ^ ^ W W ^ ^ ^ ^ ^ ^ ^ b W ^ ^ ^ ^ ^ ^ ^ ^ ^ ^ ^ ^ ^ s ^ s ^ ^ ^ ^ s ^ s b b C s ^ s s ^ ^ s s ^ ^ ^ ^ ^ ^ ^ ^ ^ ^ ^ ^ ^ s ^ s ^ ^ s s s ^ s s ^ ^ ^ s ^ s ^ ^ ^ ^ ^ ^ s ^ ^ ^ ^ ^ ^ ^ ^ ^ s s s ^ ^ ^ ^ ^ ^ ^ ^ b W ^ ^ ^ ^ l.* * y s ^ ^ ^ ^ s ^ ^ ^ ^ ^ ^ ^ ^ ^ ^ s ^ ^ ^ s s s ^ s ^ ^ s ^ s ^ ^ j j C ^ ^ ^ ^ ^ s p ",
"p w.s s s s s s s s s s s s s s ^ s ^ ^ ^ ^ ^ s s ^ ^ ^ ^ ^ ^ s ^ ^ ^ ^ ^ ^ ^ ^ ^ ^ ^ y * X { ^ ^ ^ ^ ^ ^ ^ ^ ^ ^ ^ ^ s s ^ ^ ^ s j s ^ ^ ^ ^ C ^ ^ ^ s ^ ^ ^ ^ ^ ^ ^ j j j j C b ^ ^ s ^ ^ j ^ ^ ^ ^ ^ ^ ^ ^ ^ ^ ^ ^ ^ ^ j ^ j W ^ ^ ^ ^ ^ ^ ^ s ^ ^ ^ ^ ^ ^ ^ W b j ^ ^ s ^ s ^ ^ ^ s s s s s s s s ^ ^ ^ ^ ^ ^ ^ ^ ^ ^ ^ ^ ^ s ^ s ^ ^ s s ^ ^ s s ^ ^ ^ ^ s s ^ ^ ^ ^ ^ ^ s s ^ ^ ^ ^ ^ ^ ^ ^ s s s ^ ^ ^ ^ ^ ^ ^ ^ j j ^ ^ C y.X * y ^ ^ ^ s ^ ^ s s ^ ^ ^ ^ ^ ^ ^ ^ ^ s ^ ^ s s ^ s ^ s ^ ^ ^ ^ ^ W W ^ ^ ^ ^ ^ ^ ^ ^ ^ p ",
"e w.s s s s s s s s s s s s s s ^ ^ ^ ^ ^ ^ ^ s s ^ ^ ^ ^ ^ ^ s ^ ^ ^ ^ ^ ^ ^ ^ ^ ^ ^ ^ y X * ' ^ s ^ ^ ^ ^ ^ ^ ^ ^ ^ s s ^ ^ s s j s b j b C b s ^ ^ s ^ ^ ^ ^ ^ ^ ^ j j j b ^ j ^ ^ ^ ^ ^ j ^ ^ ^ ^ ^ ^ ^ ^ ^ ^ ^ ^ b b b j C ^ ^ ^ ^ ^ ^ ^ s s s ^ ^ ^ ^ ^ ^ ^ j j j ^ s ^ s ^ W ^ ^ s s s s s ^ ^ ^ ^ ^ ^ ^ ^ ^ ^ ^ ^ ^ ^ ^ ^ s ^ ^ ^ s s ^ ^ s ^ ^ ^ ^ ^ s s ^ ^ ^ ^ ^ ^ s s ^ ^ ^ C C ^ ^ ^ ^ s s ^ ^ ^ ^ ^ j s ^ j j C C 7.* X : b ^ ^ ^ s ^ ^ s s ^ ^ ^ ^ ^ ^ ^ ^ ^ s ^ s s ^ ^ s ^ s ^ ^ ^ ^ ^ ^ W ^ ^ ^ ^ ^ ^ ^ ^ s p ",
"i w.s s s s s s s ^ ^ s s ^ s s ^ ^ ^ ^ ^ ^ ^ ^ ^ ^ ^ ^ ^ ^ ^ s ^ ^ ^ ^ ^ ^ ^ ^ ^ ^ ^ ^ ^ y * * ' s ^ ^ ^ ^ ^ ^ ^ ^ ^ s s ^ ^ s s j s j j C b ^ s ^ s s W ^ W ^ ^ ^ ^ j j j j b j ^ ^ ^ ^ ^ ^ C ^ ^ ^ ^ ^ ^ ^ ^ W ^ ^ b j j C j ^ ^ ^ ^ ^ C ^ s s s ^ ^ ^ ^ ^ ^ ^ C C j j j ^ s ^ ^ ^ ^ ^ s s ^ ^ s ^ ^ ^ ^ ^ ^ ^ ^ ^ ^ ^ ^ ^ ^ ^ s s ^ ^ s s s s s s ^ ^ ^ ^ s s ^ ^ ^ ^ ^ ^ s s ^ ^ ^ C ^ ^ ^ ^ s s s ^ ^ ^ ^ ^ W b C j j C 7.. O 6 W j j C ^ s ^ ^ ^ s ^ ^ ^ ^ ^ ^ ^ ^ ^ ^ ^ s ^ ^ ^ s ^ ^ s ^ ^ W C ^ j ^ ^ ^ ^ ^ ^ ^ ^ s p ",
"p w.s s s ^ s s ^ ^ s s s ^ s s ^ ^ ^ ^ ^ ^ ^ ^ ^ ^ ^ ^ ^ ^ ^ ^ ^ ^ ^ ^ ^ ^ ^ ^ ^ ^ ^ ^ ^ ^ y X * -.^ ^ ^ ^ ^ ^ ^ ^ ^ ^ s ^ ^ s j j s C C ^ ^ s s s ^ s j j b ^ ^ ^ ^ z j j j j j ^ ^ ^ ^ ^ ^ ^ ^ ^ ^ ^ ^ ^ ^ ^ ^ ^ C j j C ^ ^ ^ ^ ^ ^ ^ W s s s s ^ ^ ^ ^ ^ ^ ^ b j j j j ^ s ^ ^ ^ ^ ^ s s ^ ^ s ^ ^ ^ ^ ^ ^ ^ ^ ^ ^ ^ ^ ^ ^ ^ s s ^ ^ ^ s s ^ s ^ ^ ^ ^ ^ s s ^ ^ ^ ^ ^ ^ s s ^ ^ W C C ^ ^ ^ ^ ^ ^ ^ ^ ^ ^ ^ ^ ^ ^ ^ C R . . : ^ ^ C j W ^ W ^ ^ s s ^ ^ ^ ^ ^ ^ ^ ^ s s ^ ^ ^ ^ ^ ^ ^ j f ^ b j j j j W C ^ ^ ^ ^ ^ ^ ^ p ",
"p w.s s s s s s ^ ^ s ^ s ^ s ^ ^ ^ ^ ^ ^ ^ ^ ^ ^ ^ ^ ^ ^ ^ ^ ^ ^ ^ ^ ^ ^ ^ ^ ^ ^ ^ ^ ^ ^ ^ s > * * { ^ ^ ^ ^ ^ ^ ^ ^ ^ ^ ^ ^ s j W ^ ^ ^ ^ ^ ^ ^ s j j j W W ^ ^ ^ C j j j j j j ^ ^ b ^ ^ ^ ^ ^ ^ ^ ^ ^ ^ ^ ^ ^ ^ ^ ^ ^ ^ ^ ^ ^ ^ ^ ^ ^ ^ ^ s s s ^ ^ ^ ^ ^ ^ s ^ j ^ ^ ^ ^ s ^ ^ ^ ^ ^ ^ ^ s ^ s ^ ^ ^ ^ ^ ^ ^ ^ ^ ^ ^ ^ s s ^ s s ^ ^ ^ s ^ ^ s s ^ ^ ^ ^ s ^ ^ ^ ^ ^ ^ ^ s ^ ^ W j j j ^ ^ ^ ^ ^ ^ ^ ^ ^ ^ ^ W j j j 7.. . : j j ^ ^ ^ ^ ^ ^ ^ ^ s s ^ ^ ^ ^ ^ ^ ^ ^ s s ^ ^ ^ ^ ^ s ^ j C ^ ^ j j j j j b b s ^ ^ ^ ^ s p ",
"p w.s ^ s s s s s ^ s s s ^ ^ ^ s ^ ^ ^ ^ ^ s s ^ ^ ^ ^ ^ ^ s ^ ^ ^ ^ ^ ^ ^ ^ ^ ^ ^ ^ ^ ^ ^ s s y * * 1.^ ^ ^ ^ ^ ^ ^ ^ ^ ^ ^ s ^ ^ ^ ^ ^ ^ ^ ^ b j j j j C C C ^ j j j j j j j j ^ ^ ^ ^ ^ ^ ^ ^ ^ ^ ^ ^ ^ ^ ^ ^ ^ ^ ^ ^ ^ ^ ^ ^ ^ ^ ^ ^ ^ ^ ^ ^ ^ ^ ^ s ^ ^ ^ s ^ ^ s ^ ^ ^ s ^ ^ ^ ^ ^ ^ ^ ^ ^ s ^ ^ ^ ^ ^ ^ ^ ^ ^ s ^ ^ ^ s ^ s s ^ ^ ^ ^ ^ ^ s s s ^ ^ ^ ^ ^ ^ ^ ^ ^ ^ ^ s s ^ b j b C ^ ^ ^ ^ ^ ^ ^ ^ ^ ^ ^ ^ b j 7.. . 6 j j b ^ ^ ^ ^ ^ s ^ ^ s ^ ^ ^ ^ ^ ^ ^ ^ ^ ^ ^ ^ ^ ^ ^ ^ s ^ s ^ ^ ^ ^ W j j b W C s ^ ^ ^ ^ ^ p ",
"p w.s ^ s s s s s s ^ s s ^ ^ ^ s ^ ^ ^ ^ ^ s s s ^ ^ ^ ^ ^ s ^ ^ ^ ^ ^ ^ ^ ^ ^ ^ ^ ^ ^ ^ ^ ^ ^ ^ y * * $.^ ^ ^ ^ ^ ^ ^ ^ ^ ^ s ^ s ^ ^ ^ ^ ^ b j j j j j j W ^ ^ j j j j j j j j j ^ ^ ^ ^ ^ ^ ^ ^ ^ ^ ^ ^ ^ ^ ^ ^ ^ ^ ^ ^ ^ ^ ^ ^ ^ ^ ^ ^ ^ s s ^ ^ ^ s ^ ^ ^ s ^ ^ ^ ^ ^ ^ ^ ^ ^ ^ ^ ^ ^ ^ ^ ^ ^ ^ ^ ^ ^ ^ ^ ^ ^ ^ ^ ^ ^ ^ s ^ s ^ ^ ^ ^ ^ s ^ s ^ s ^ ^ ^ ^ ^ ^ ^ ^ ^ ^ s s s ^ b j j j W ^ ^ ^ ^ ^ ^ ^ ^ ^ ^ ^ j y.. . y ^ ^ ^ ^ ^ ^ ^ ^ ^ ^ ^ ^ s ^ ^ ^ ^ ^ ^ ^ ^ ^ ^ ^ ^ ^ ^ ^ ^ s ^ s ^ ^ ^ ^ ^ C j j ^ s s ^ ^ ^ ^ ^ p ",
"p w.s s s s ^ ^ ^ ^ ^ s s s ^ ^ ^ ^ ^ ^ ^ ^ ^ ^ s ^ ^ ^ ^ ^ ^ ^ ^ ^ ^ ^ ^ ^ ^ ^ ^ ^ ^ ^ ^ ^ ^ W ^ s y * * { ^ ^ ^ ^ ^ s ^ ^ ^ s ^ s ^ ^ ^ ^ ^ ^ ^ ^ s j ^ ^ ^ ^ ^ j j ^ ^ ^ j j j j ^ ^ ^ ^ ^ ^ ^ ^ ^ ^ ^ ^ ^ ^ ^ ^ ^ ^ ^ ^ ^ ^ ^ ^ ^ ^ ^ ^ ^ ^ s ^ ^ ^ s ^ ^ s s ^ ^ ^ ^ s ^ ^ ^ ^ ^ ^ ^ ^ ^ ^ ^ ^ ^ ^ ^ ^ ^ ^ ^ ^ ^ s ^ s ^ ^ ^ ^ ^ ^ ^ ^ s ^ ^ ^ ^ s ^ ^ ^ s s ^ ^ ^ ^ ^ s s ^ ^ ^ ^ j j b ^ ^ ^ ^ ^ ^ s ^ ^ ^ ^ -.* O y ^ ^ ^ ^ ^ ^ ^ ^ ^ ^ ^ ^ ^ ^ ^ ^ ^ ^ ^ ^ ^ ^ ^ s ^ ^ s s ^ ^ s ^ ^ ^ C C ^ ^ ^ C W ^ ^ ^ ^ ^ ^ ^ ^ p ",
"7 7.s s s s ^ s s s s s s s ^ ^ ^ ^ ^ ^ ^ ^ ^ ^ s ^ ^ ^ ^ ^ ^ ^ ^ ^ ^ ^ ^ ^ ^ ^ ^ ^ ^ ^ s ^ ^ ^ ^ s s y * * { ^ ^ ^ ^ s ^ ^ ^ s ^ s ^ ^ ^ ^ ^ ^ ^ ^ ^ ^ ^ ^ ^ C C j j ^ ^ ^ j ^ ^ j ^ ^ ^ ^ ^ ^ ^ ^ ^ ^ ^ ^ ^ ^ ^ ^ ^ ^ ^ ^ ^ ^ ^ ^ ^ ^ ^ ^ ^ ^ ^ ^ ^ ^ s ^ ^ ^ s ^ ^ ^ ^ s ^ ^ ^ ^ s C j s ^ ^ ^ ^ ^ ^ ^ ^ ^ ^ ^ ^ ^ s ^ s ^ ^ ^ ^ ^ ^ ^ ^ s s ^ s s s ^ ^ ^ s s ^ ^ ^ C j ^ ^ ^ ^ ^ ^ W j ^ ^ ^ ^ ^ ^ ^ ^ ^ ^ ^ $.* O 8 ^ ^ b j j ^ s j j ^ ^ ^ ^ ^ s ^ ^ ^ ^ ^ ^ ^ ^ ^ s ^ ^ s s ^ ^ ^ ^ ^ ^ W W ^ ^ ^ ^ ^ ^ ^ ^ ^ ^ ^ ^ ^ e ",
"< w.s s s s s s s s s s s s s s s s ^ ^ ^ ^ ^ ^ ^ ^ ^ ^ ^ ^ ^ ^ ^ ^ ^ ^ ^ ^ ^ ^ ^ ^ ^ ^ ^ ^ s ^ ^ s s ^ y * * O.^ ^ ^ s ^ ^ ^ s ^ s ^ s ^ ^ ^ ^ ^ ^ ^ ^ ^ b j j j j j b b j j ^ ^ ^ ^ ^ ^ ^ ^ ^ ^ ^ ^ ^ ^ ^ ^ ^ ^ ^ ^ ^ ^ ^ ^ ^ ^ ^ ^ ^ ^ ^ ^ s ^ ^ ^ ^ s ^ ^ ^ ^ ^ ^ s ^ s ^ ^ ^ ^ s s ^ s C ^ ^ ^ ^ ^ ^ ^ ^ ^ ^ ^ ^ ^ ^ ^ ^ ^ ^ ^ ^ ^ ^ ^ s s ^ s s ^ ^ ^ ^ s s ^ ^ ^ j ^ s ^ ^ ^ ^ ^ ^ ^ ^ ^ ^ s ^ ^ ^ ^ ^ ^ { * * 6 ^ ^ ^ j j C ^ C j ^ ^ ^ ^ ^ ^ s ^ s ^ W ^ ^ ^ ^ ^ s ^ ^ ^ ^ ^ ^ ^ ^ ^ ^ ^ ^ ^ ^ s ^ ^ ^ ^ ^ ^ ^ ^ ^ ^ p ",
"< w.s s s s s s s s s s ^ s ^ s s ^ ^ ^ ^ ^ ^ s ^ ^ ^ ^ ^ ^ ^ ^ ^ ^ ^ ^ ^ ^ ^ ^ ^ ^ ^ ^ s ^ s ^ ^ ^ ^ ^ ^ y * * -.^ s s ^ b ^ s ^ s ^ s b ^ ^ ^ ^ ^ s ^ ^ ^ b j j j j j j j j ^ ^ ^ ^ ^ ^ ^ ^ ^ ^ ^ ^ ^ ^ ^ ^ ^ ^ ^ ^ ^ ^ ^ ^ ^ ^ ^ ^ ^ ^ ^ ^ ^ ^ s ^ ^ s ^ ^ ^ ^ ^ ^ ^ ^ s ^ ^ ^ j s ^ ^ ^ ^ ^ ^ s ^ ^ ^ ^ ^ ^ ^ ^ ^ ^ ^ ^ s ^ ^ ^ ^ ^ ^ ^ s s ^ s s ^ ^ ^ s ^ s ^ ^ ^ j W ^ ^ ^ ^ ^ ^ W ^ ^ ^ ^ s ^ ^ ^ ^ ^ { * * y ^ ^ ^ ^ ^ W ^ ^ C ^ ^ ^ ^ s ^ ^ s ^ s ^ j ^ ^ ^ ^ ^ s ^ ^ ^ ^ ^ ^ ^ ^ ^ ^ ^ ^ ^ s s ^ ^ s ^ ^ ^ ^ ^ ^ ^ < ",
"p w.s ^ s s s s s s s s ^ s s s s s ^ ^ ^ ^ ^ s s ^ ^ ^ ^ ^ ^ ^ ^ ^ ^ ^ ^ ^ ^ ^ ^ ^ ^ ^ s ^ s ^ ^ ^ ^ ^ ^ ^ y * * -.s s ^ ^ ^ s ^ s ^ ^ ^ ^ ^ ^ ^ ^ ^ ^ ^ j j j j W W j j j j C ^ ^ ^ ^ ^ ^ ^ ^ ^ ^ ^ ^ ^ ^ ^ ^ ^ W W ^ ^ ^ ^ ^ ^ ^ ^ ^ ^ ^ ^ ^ ^ s ^ ^ s ^ ^ ^ ^ ^ ^ ^ ^ s ^ ^ ^ ^ s ^ ^ s ^ s ^ s ^ ^ ^ ^ ^ ^ ^ ^ ^ ^ ^ ^ s s ^ ^ ^ ^ ^ ^ s ^ ^ s s ^ ^ ^ s ^ ^ ^ ^ ^ ^ ^ s ^ ^ ^ ^ W C ^ ^ ^ ^ s ^ ^ ^ ^ O.* * y ^ ^ W ^ ^ C j j ^ ^ ^ ^ ^ ^ s ^ ^ s ^ s ^ b ^ ^ ^ ^ ^ ^ ^ ^ ^ ^ ^ ^ ^ ^ ^ ^ ^ W C s s ^ ^ ^ ^ ^ ^ ^ ^ ^ ^ p ",
"p w.s s ^ s s s ^ s s s ^ s ^ s s s ^ ^ ^ ^ ^ s ^ ^ ^ ^ ^ ^ ^ ^ ^ ^ ^ ^ ^ ^ ^ ^ ^ ^ ^ ^ j C z C ^ ^ ^ ^ ^ ^ ^ y * * P ^ ^ ^ ^ s ^ s ^ ^ ^ ^ ^ ^ ^ ^ W j j j j j j ^ C j j j C ^ ^ ^ ^ j j ^ ^ ^ ^ ^ ^ ^ ^ ^ ^ ^ ^ ^ C ^ ^ ^ ^ ^ ^ ^ ^ ^ ^ ^ ^ ^ ^ ^ ^ ^ s ^ ^ ^ ^ ^ ^ ^ ^ s ^ ^ ^ ^ ^ ^ s s j ^ ^ s ^ ^ ^ ^ ^ ^ ^ ^ ^ ^ ^ ^ s s ^ ^ ^ ^ ^ s s ^ ^ s s j C W ^ s s ^ ^ ^ ^ ^ s ^ ^ ^ ^ W W ^ ^ ^ ^ s s ^ ^ O.* * y ^ ^ W ^ ^ ^ ^ ^ b C ^ ^ ^ ^ ^ ^ ^ ^ s ^ s ^ ^ ^ ^ ^ ^ ^ ^ ^ ^ ^ ^ ^ ^ ^ ^ ^ ^ ^ j b ^ ^ ^ ^ s ^ ^ ^ ^ ^ ^ ^ p ",
"p l.s s ^ s s ^ s s s s s s ^ ^ s s s ^ ^ ^ s s s ^ ^ ^ ^ ^ ^ ^ ^ ^ ^ ^ ^ ^ ^ ^ ^ ^ ^ ^ j j s ^ s ^ ^ ^ ^ ^ ^ ^ y * * O.^ ^ ^ s ^ s ^ ^ ^ ^ C j b W j j j j j j C W j j j W ^ ^ ^ ^ ^ ^ ^ C ^ ^ ^ ^ ^ ^ ^ ^ ^ ^ ^ ^ C ^ ^ ^ ^ ^ ^ ^ ^ ^ ^ ^ ^ ^ ^ ^ ^ s s W C ^ ^ ^ ^ ^ ^ s ^ ^ ^ ^ ^ ^ s ^ j j ^ s ^ ^ ^ ^ ^ ^ ^ ^ ^ ^ ^ ^ ^ ^ ^ ^ ^ ^ ^ s s ^ ^ s s b ^ ^ ^ s s ^ ^ ^ ^ ^ ^ ^ ^ s ^ j C ^ ^ ^ ^ s s ^ O.* * y ^ ^ ^ ^ ^ ^ ^ ^ ^ ^ ^ ^ ^ ^ ^ ^ ^ ^ ^ ^ C ^ ^ ^ ^ ^ ^ ^ ^ ^ ^ ^ ^ ^ ^ ^ ^ ^ ^ ^ ^ s s s ^ ^ ^ ^ ^ ^ ^ ^ s s ^ p ",
"p w.^ ^ ^ s s s s s s s s s s ^ ^ s s s s ^ s s s ^ ^ ^ ^ ^ ^ ^ ^ ^ ^ ^ ^ ^ ^ ^ ^ ^ ^ ^ C C s ^ s ^ s ^ ^ ^ ^ ^ ^ y * * l.^ ^ ^ ^ s ^ ^ ^ ^ ^ ^ b b j j j b j j j j j j j ^ ^ ^ ^ ^ ^ ^ ^ ^ ^ ^ ^ ^ ^ ^ ^ ^ ^ ^ ^ ^ C ^ ^ ^ ^ ^ ^ ^ ^ ^ ^ ^ ^ ^ ^ ^ ^ s ^ C C s ^ ^ ^ ^ ^ s ^ ^ ^ ^ ^ ^ ^ ^ j j ^ s ^ ^ ^ ^ ^ ^ ^ ^ ^ ^ ^ ^ ^ ^ ^ ^ ^ ^ ^ s s ^ ^ s s ^ ^ ^ ^ s s ^ ^ ^ ^ ^ ^ ^ ^ s ^ ^ ^ ^ ^ ^ ^ ^ ^ U * * y ^ ^ ^ ^ ^ ^ ^ ^ ^ ^ s ^ ^ ^ ^ ^ ^ C j j j j ^ ^ ^ ^ ^ ^ ^ ^ ^ ^ ^ ^ ^ ^ ^ ^ ^ ^ ^ ^ ^ ^ ^ ^ ^ ^ ^ ^ ^ ^ ^ s s ^ p ",
"p w.s ^ s s s s s s s s s s s ^ ^ ^ ^ ^ s ^ ^ ^ ^ ^ ^ ^ ^ ^ ^ ^ ^ ^ ^ ^ ^ ^ ^ ^ ^ ^ ^ ^ ^ ^ s ^ ^ ^ s ^ ^ ^ ^ ^ ^ ^ y * * -.^ s ^ s ^ ^ ^ ^ ^ ^ ^ ^ s ^ ^ W j j j j j j j ^ ^ ^ ^ ^ ^ ^ ^ ^ ^ ^ ^ ^ ^ ^ ^ ^ ^ ^ ^ ^ ^ ^ ^ ^ ^ ^ ^ ^ ^ ^ ^ ^ ^ ^ ^ ^ ^ s ^ ^ ^ s ^ W ^ ^ ^ ^ ^ ^ ^ ^ ^ ^ s ^ ^ ^ ^ ^ ^ ^ ^ ^ ^ ^ ^ ^ ^ ^ ^ ^ ^ ^ ^ s ^ ^ ^ s s s s s ^ ^ ^ ^ ^ s s ^ ^ ^ C ^ ^ ^ ^ ^ ^ s ^ ^ ^ ^ ^ ^ >.X * y ^ ^ ^ ^ ^ ^ ^ ^ ^ ^ ^ s ^ ^ ^ ^ ^ ^ j j j W j ^ ^ ^ ^ ^ ^ ^ ^ ^ ^ ^ ^ ^ ^ ^ ^ ^ ^ ^ ^ ^ ^ ^ ^ ^ ^ ^ ^ ^ ^ s ^ ^ ^ p ",
"p w.s s s s s ^ s s s s s s s ^ ^ ^ ^ ^ ^ ^ ^ s ^ ^ ^ ^ ^ ^ s ^ ^ ^ ^ ^ ^ ^ ^ ^ ^ ^ ^ ^ s ^ s ^ s ^ s ^ ^ ^ ^ ^ ^ ^ ^ y * X s.s ^ s ^ ^ ^ ^ ^ ^ ^ ^ s ^ ^ ^ j j j j j j j j ^ ^ ^ ^ ^ ^ ^ ^ ^ ^ b b ^ ^ ^ ^ ^ ^ ^ ^ ^ ^ ^ ^ ^ ^ ^ ^ ^ ^ ^ ^ ^ ^ ^ ^ ^ s s ^ ^ ^ ^ ^ ^ ^ ^ ^ ^ ^ ^ ^ s s s ^ s ^ ^ ^ ^ ^ ^ ^ ^ ^ ^ ^ ^ ^ ^ ^ ^ ^ ^ s ^ ^ ^ ^ ^ s s s ^ ^ ^ ^ ^ s s ^ ^ ^ C ^ W j ^ ^ ^ s ^ ^ ^ ^ ^ -.* X y ^ ^ ^ ^ ^ s ^ ^ ^ ^ ^ ^ s ^ ^ ^ ^ ^ ^ b j j C ^ ^ ^ ^ s ^ ^ ^ ^ ^ ^ ^ ^ ^ ^ ^ ^ ^ ^ ^ ^ ^ ^ ^ ^ ^ ^ ^ ^ ^ s s ^ ^ s p ",
"p w.s s s s s s s s s s s s s s s s ^ ^ ^ ^ ^ ^ ^ ^ ^ ^ ^ ^ s ^ ^ ^ ^ ^ ^ ^ j ^ ^ ^ ^ ^ s b s b s ^ s ^ ^ ^ ^ ^ ^ ^ ^ ^ y X * s.^ ^ ^ ^ ^ ^ ^ ^ ^ ^ s ^ ^ ^ j j j j j j j b ^ ^ ^ ^ ^ ^ ^ ^ ^ ^ b C ^ ^ ^ ^ ^ ^ ^ ^ ^ ^ ^ ^ ^ ^ ^ ^ ^ ^ ^ ^ ^ s ^ ^ s ^ ^ ^ ^ ^ ^ ^ ^ s ^ ^ ^ ^ ^ ^ s s s ^ s ^ ^ j W ^ ^ ^ ^ ^ ^ ^ ^ s ^ ^ ^ s ^ s ^ ^ ^ s ^ s s s ^ ^ ^ ^ ^ s ^ ^ ^ ^ C ^ s j ^ ^ ^ s ^ ^ ^ ^ $.* X > ^ ^ ^ ^ ^ ^ ^ ^ ^ ^ ^ ^ ^ s ^ ^ ^ ^ ^ ^ ^ ^ j s ^ ^ ^ ^ s ^ ^ ^ ^ ^ ^ ^ ^ ^ ^ ^ ^ ^ ^ ^ ^ ^ ^ ^ ^ ^ ^ ^ ^ ^ s ^ s ^ s p ",
"p w.s s s s s s ^ ^ ^ s s s s s s s ^ ^ ^ s ^ ^ ^ ^ ^ ^ ^ ^ ^ ^ ^ ^ ^ ^ ^ j j ^ ^ j W ^ s ^ s ^ ^ ^ ^ ^ ^ ^ ^ ^ ^ ^ ^ ^ ^ > * * l.s ^ ^ ^ ^ ^ ^ ^ s ^ ^ ^ ^ ^ b j j s j j b ^ ^ ^ ^ ^ ^ ^ ^ ^ ^ ^ ^ ^ ^ ^ ^ ^ ^ ^ ^ ^ ^ ^ ^ ^ ^ ^ ^ ^ ^ ^ ^ s ^ ^ ^ s s ^ ^ ^ ^ ^ ^ ^ ^ ^ ^ ^ ^ ^ ^ C s s W s s s b W ^ ^ ^ ^ ^ ^ ^ s s ^ ^ ^ s s s ^ ^ ^ s ^ s s s ^ ^ ^ ^ ^ s ^ ^ ^ ^ ^ ^ s ^ ^ ^ ^ ^ ^ ^ ^ ' * * > s ^ ^ ^ ^ ^ ^ ^ ^ ^ ^ ^ ^ s ^ ^ ^ ^ ^ ^ ^ ^ b j ^ ^ ^ ^ ^ s ^ ^ W ^ ^ ^ ^ ^ C ^ ^ ^ ^ s ^ ^ ^ ^ ^ ^ ^ ^ ^ ^ s s ^ ^ ^ s p ",
"p w.s s s s s s s ^ s s s s s s s s ^ ^ ^ s ^ ^ ^ ^ ^ ^ ^ ^ ^ ^ ^ ^ ^ ^ ^ j j ^ j j j s s ^ s ^ ^ C ^ s ^ s ^ ^ ^ ^ ^ ^ ^ ^ y * * w.^ ^ ^ ^ ^ ^ ^ ^ ^ ^ j W ^ ^ ^ ^ s ^ j b ^ ^ ^ ^ ^ ^ ^ ^ ^ ^ ^ ^ ^ ^ ^ ^ ^ ^ ^ ^ ^ ^ ^ ^ ^ ^ ^ ^ ^ ^ ^ ^ s ^ ^ ^ ^ s ^ ^ ^ ^ ^ ^ ^ ^ ^ ^ ^ ^ ^ W j j s C s s s ^ ^ ^ ^ ^ ^ ^ ^ ^ ^ s ^ ^ ^ s s s ^ ^ ^ s ^ s s s ^ ^ ^ ^ ^ s s ^ ^ W ^ C s ^ ^ ^ ^ ^ ^ ^ ' * * y s ^ ^ ^ ^ s ^ ^ ^ ^ ^ ^ ^ ^ ^ ^ ^ ^ ^ ^ ^ b j W C ^ ^ ^ ^ ^ s b b ^ ^ ^ ^ ^ ^ ^ ^ ^ ^ ^ ^ ^ ^ ^ ^ ^ ^ ^ ^ ^ ^ ^ s ^ s s ^ p ",
"< w.s s s s s s s s s s s ^ ^ s s ^ ^ ^ ^ s s ^ ^ ^ ^ ^ ^ ^ ^ ^ ^ ^ ^ ^ ^ ^ C ^ j j j s s ^ s ^ ^ W ^ s ^ s ^ ^ ^ ^ ^ ^ ^ ^ ^ > X X l.^ ^ ^ ^ ^ ^ ^ ^ ^ j j ^ ^ ^ ^ ^ ^ ^ ^ ^ ^ ^ ^ ^ ^ ^ ^ ^ ^ ^ ^ ^ ^ ^ ^ ^ ^ ^ ^ ^ ^ ^ ^ ^ ^ ^ ^ ^ ^ ^ ^ s s s ^ ^ s ^ ^ ^ ^ ^ ^ ^ ^ ^ s ^ ^ ^ ^ s ^ s ^ s s s ^ ^ ^ ^ ^ ^ ^ ^ ^ ^ ^ ^ ^ ^ s s ^ ^ ^ ^ s ^ s s s ^ ^ ^ ^ ^ ^ s ^ ^ ^ ^ s s ^ ^ ^ ^ ^ ^ v * * > s s ^ ^ ^ s s ^ ^ ^ ^ ^ ^ ^ ^ ^ ^ ^ ^ ^ ^ ^ j j C C ^ ^ ^ ^ ^ ^ C j j ^ ^ ^ ^ ^ ^ ^ s ^ s ^ ^ ^ ^ ^ ^ ^ ^ ^ ^ ^ ^ ^ ^ ^ s ^ p ",
"< w.s ^ ^ s s s s ^ ^ s s s s s s ^ ^ ^ ^ ^ s ^ s ^ ^ ^ ^ ^ ^ ^ ^ ^ ^ ^ ^ ^ ^ ^ j j j b C b s C ^ ^ ^ s W s ^ ^ ^ ^ ^ ^ ^ ^ ^ ^ > X * 1.j ^ ^ ^ ^ ^ ^ ^ ^ j ^ ^ ^ ^ s ^ ^ ^ ^ ^ ^ ^ ^ ^ ^ ^ ^ ^ ^ ^ ^ ^ ^ ^ ^ ^ ^ ^ ^ ^ ^ ^ ^ ^ ^ ^ ^ ^ ^ ^ s ^ s ^ ^ s ^ ^ ^ s ^ ^ ^ ^ ^ s ^ ^ ^ ^ s ^ s ^ ^ ^ s ^ ^ ^ ^ ^ ^ ^ ^ ^ ^ ^ ^ ^ ^ ^ s ^ ^ ^ ^ ^ ^ ^ ^ s ^ ^ ^ ^ ^ ^ s ^ ^ ^ ^ ^ ^ ^ ^ ^ ^ ^ O.* * y s s ^ ^ ^ ^ ^ s ^ ^ ^ ^ ^ ^ ^ ^ ^ ^ C ^ ^ ^ ^ j j ^ ^ s ^ ^ ^ ^ ^ C j j ^ ^ ^ ^ ^ ^ ^ ^ ^ ^ ^ ^ ^ ^ ^ s s s s ^ ^ ^ ^ ^ ^ s ^ < ",
"< w.s ^ s s s s s s s s ^ s s ^ ^ ^ ^ s s s ^ ^ ^ ^ ^ ^ ^ ^ ^ ^ ^ ^ ^ ^ ^ ^ ^ b j ^ b j j b ^ C ^ C C j j b C ^ ^ ^ ^ ^ ^ ^ ^ ^ s 6 . . Y j ^ ^ ^ ^ ^ ^ ^ ^ ^ ^ ^ ^ ^ b b C ^ ^ ^ ^ ^ ^ ^ ^ ^ ^ ^ ^ ^ ^ ^ ^ ^ ^ ^ ^ ^ ^ ^ ^ ^ ^ ^ ^ ^ ^ ^ ^ ^ ^ s ^ ^ ^ ^ ^ ^ s ^ ^ ^ ^ ^ s ^ ^ ^ ^ ^ ^ s ^ ^ ^ s ^ ^ ^ ^ ^ ^ ^ ^ ^ ^ ^ ^ ^ ^ ^ s ^ ^ ^ ^ ^ ^ ^ ^ s ^ ^ ^ ^ ^ ^ s ^ ^ ^ ^ ^ ^ ^ ^ ^ ^ { * X y ^ ^ s ^ ^ ^ ^ s s ^ ^ ^ ^ ^ ^ ^ ^ ^ ^ ^ ^ ^ ^ ^ W C ^ ^ ^ ^ ^ j j j j W C ^ ^ ^ ^ ^ ^ ^ ^ ^ ^ ^ ^ ^ ^ s s s s s s s ^ ^ ^ ^ s ^ < ",
"p w.s s s s s s s s s s ^ s s s s s s s ^ ^ ^ ^ ^ ^ ^ ^ ^ s ^ s ^ ^ ^ ^ ^ ^ ^ W b ^ ^ s ^ j s j C j j j j j j ^ ^ ^ ^ ^ ^ ^ W s s j : . . 7.j ^ ^ ^ ^ ^ ^ ^ ^ ^ ^ ^ z j j ^ ^ ^ ^ ^ j j j j ^ ^ ^ ^ ^ ^ ^ ^ ^ ^ ^ ^ ^ ^ ^ ^ ^ ^ ^ ^ ^ ^ ^ ^ ^ ^ s ^ ^ ^ ^ ^ ^ s ^ ^ ^ ^ ^ ^ ^ ^ ^ ^ ^ ^ s ^ ^ s s ^ ^ ^ ^ ^ ^ ^ ^ ^ ^ ^ ^ ^ ^ s s ^ ^ ^ ^ ^ ^ ^ s s ^ ^ ^ ^ ^ ^ ^ ^ ^ ^ ^ ^ ^ ^ ^ ^ l.* * y ^ ^ s s ^ ^ ^ ^ ^ s ^ s ^ ^ ^ ^ ^ ^ ^ ^ ^ ^ ^ ^ ^ ^ ^ ^ ^ ^ C j j C j b ^ ^ ^ ^ ^ ^ ^ ^ ^ ^ ^ ^ ^ ^ ^ ^ s s s s ^ ^ s ^ ^ ^ ^ ^ ^ < ",
"< w.s s s s s s s s s ^ s s s s s s s s s ^ ^ ^ ^ ^ s ^ ^ s ^ s ^ ^ ^ ^ ^ ^ ^ ^ ^ ^ ^ b b ^ j j s ^ j j s j b ^ ^ s s ^ ^ ^ s s s j j : . . 7.j ^ ^ ^ ^ ^ ^ ^ ^ ^ ^ ^ ^ ^ ^ ^ ^ ^ ^ j j j j ^ ^ ^ ^ ^ ^ ^ ^ ^ ^ ^ ^ ^ ^ ^ ^ ^ ^ ^ ^ ^ ^ ^ ^ ^ ^ ^ ^ ^ ^ ^ ^ ^ s ^ ^ ^ ^ ^ ^ ^ ^ ^ ^ ^ ^ s ^ s s s ^ ^ ^ ^ ^ ^ ^ ^ ^ ^ ^ ^ ^ ^ s s ^ ^ ^ ^ ^ ^ ^ s s ^ ^ ^ ^ ^ s s ^ ^ j b ^ ^ ^ ^ w.* * y ^ ^ b ^ s s ^ ^ ^ ^ s ^ ^ ^ ^ ^ ^ ^ ^ ^ ^ ^ ^ ^ ^ ^ ^ ^ ^ ^ W j j j C C s ^ ^ ^ ^ ^ ^ ^ ^ ^ s s s ^ ^ ^ s s s s ^ ^ s s ^ ^ s s s s < ",
"< w.s ^ ^ s s s s s s s s s s s s s s s ^ ^ ^ ^ ^ ^ ^ ^ ^ ^ ^ ^ ^ ^ ^ ^ ^ ^ ^ ^ ^ ^ ^ W j j W ^ s W j j s j W b j s s b b ^ C s j j j j : . . l.^ ^ ^ ^ ^ ^ ^ ^ ^ ^ ^ ^ ^ ^ ^ ^ ^ ^ ^ ^ C C ^ ^ ^ ^ ^ C W ^ ^ ^ ^ ^ ^ ^ ^ ^ ^ ^ ^ ^ ^ ^ ^ ^ ^ ^ ^ ^ ^ ^ ^ ^ ^ s ^ ^ ^ ^ ^ ^ ^ ^ ^ ^ ^ s s ^ s s s ^ ^ ^ ^ ^ ^ ^ ^ ^ ^ ^ ^ ^ ^ s s ^ ^ ^ ^ s ^ ^ s s ^ ^ ^ ^ ^ s s ^ W j b ^ ^ ^ l.X * y ^ ^ ^ ^ ^ ^ s ^ ^ ^ ^ ^ ^ ^ ^ ^ ^ ^ ^ ^ ^ ^ ^ ^ ^ C ^ ^ ^ z j j j ^ ^ ^ ^ s ^ ^ s ^ ^ ^ ^ ^ ^ s s s ^ ^ s s s ^ ^ ^ s s s s ^ s s s s 8 ",
"p w.s s s ^ s s s s s s s s s s s s s s ^ ^ s ^ ^ ^ ^ ^ ^ ^ ^ ^ ^ ^ ^ ^ ^ ^ ^ ^ ^ ^ b z j j ^ ^ s ^ b ^ s b C C b s s j b j j j j j j j j : * * l.^ ^ ^ ^ ^ C j ^ ^ ^ ^ ^ ^ ^ ^ ^ ^ ^ ^ ^ ^ ^ z j ^ ^ ^ W ^ ^ ^ ^ ^ ^ ^ ^ ^ ^ ^ ^ ^ ^ ^ ^ ^ ^ ^ ^ ^ ^ ^ ^ ^ ^ s ^ ^ ^ ^ ^ ^ ^ ^ ^ ^ s ^ s ^ s s s ^ ^ ^ ^ ^ ^ ^ ^ ^ ^ ^ ^ ^ ^ ^ ^ ^ ^ ^ ^ s ^ ^ s ^ ^ ^ ^ ^ ^ s ^ ^ ^ W ^ ^ ^ l.X X y ^ ^ ^ ^ ^ ^ ^ s s ^ ^ ^ ^ ^ ^ ^ ^ ^ ^ ^ ^ ^ ^ ^ ^ ^ ^ ^ ^ ^ b W b ^ ^ ^ ^ ^ s ^ ^ s ^ ^ ^ ^ ^ ^ s s ^ ^ ^ ^ s s s ^ ^ s ^ ^ s ^ s s s s < ",
"< w.s s s s s s s s s ^ ^ s s s s s s s ^ ^ s ^ ^ ^ ^ ^ ^ ^ ^ ^ ^ ^ ^ ^ ^ j j j j b b j j ^ s ^ s s s ^ s j s j C j j ^ C j j j j j ^ ^ b ^ y * * l.^ ^ ^ ^ ^ j b ^ ^ ^ ^ ^ ^ ^ ^ ^ ^ ^ ^ ^ ^ ^ ^ ^ ^ C j j ^ ^ W ^ ^ ^ ^ ^ ^ ^ ^ ^ ^ ^ ^ ^ ^ ^ ^ ^ ^ ^ ^ ^ ^ ^ ^ ^ ^ ^ ^ ^ ^ ^ ^ ^ ^ ^ ^ ^ s ^ s ^ ^ ^ ^ ^ ^ ^ ^ ^ ^ ^ ^ ^ ^ s ^ j C C ^ s ^ ^ ^ ^ ^ ^ ^ ^ ^ s ^ ^ ^ ^ ^ C d.* X > ^ ^ C j ^ ^ s s s s ^ ^ ^ s ^ s ^ ^ ^ ^ ^ ^ ^ ^ ^ ^ ^ ^ ^ C ^ ^ j s ^ ^ ^ s ^ ^ ^ ^ s ^ ^ ^ ^ s s ^ ^ ^ ^ ^ ^ ^ s s s ^ ^ ^ ^ s ^ ^ s s ^ p ",
"< w.s s s s s s s s s s ^ ^ s s s s s ^ ^ ^ s ^ ^ ^ C b ^ ^ ^ ^ ^ ^ ^ ^ ^ j j j j j j j j ^ s ^ s s s ^ s W s j j j j ^ ^ C j j j W ^ ^ j ^ ^ y * * l.^ ^ ^ ^ ^ ^ ^ ^ ^ W ^ ^ ^ ^ ^ ^ ^ ^ ^ ^ ^ ^ ^ ^ ^ j C j C C ^ ^ ^ ^ ^ ^ ^ ^ ^ ^ ^ ^ ^ ^ ^ ^ ^ ^ ^ ^ ^ ^ ^ ^ ^ ^ ^ ^ ^ ^ ^ ^ ^ ^ ^ ^ ^ ^ ^ ^ ^ ^ ^ ^ ^ ^ ^ ^ ^ ^ ^ ^ ^ ^ ^ ^ ^ ^ ^ s s ^ ^ s ^ ^ ^ ^ ^ ^ s ^ ^ ^ ^ b 7.. * > s ^ ^ s W j s s s s s ^ ^ ^ ^ ^ s ^ ^ ^ ^ ^ ^ ^ ^ ^ ^ ^ ^ b j ^ ^ j s j j ^ s ^ ^ ^ ^ s ^ ^ ^ ^ s s s ^ ^ ^ ^ ^ ^ s ^ ^ ^ ^ ^ ^ s s ^ s s ^ p ",
"< w.s s s s s s s s s s ^ ^ ^ ^ s ^ ^ ^ ^ ^ s ^ ^ ^ ^ ^ ^ ^ ^ ^ ^ ^ ^ ^ ^ C b j j j j b ^ ^ ^ ^ s ^ s j s ^ ^ j j j s b j b j b ^ ^ ^ ^ W C ^ ^ y X * l.^ ^ ^ ^ ^ ^ ^ W j W ^ ^ ^ ^ ^ ^ ^ ^ ^ ^ ^ ^ ^ ^ ^ ^ C j ^ ^ ^ ^ ^ ^ ^ ^ ^ ^ ^ ^ ^ ^ ^ ^ ^ ^ ^ ^ ^ ^ ^ s W W ^ ^ ^ ^ ^ ^ ^ ^ ^ ^ ^ ^ ^ ^ s ^ ^ ^ ^ ^ ^ ^ ^ ^ ^ ^ ^ ^ ^ ^ ^ ^ ^ ^ s s ^ ^ s ^ ^ ^ ^ ^ ^ ^ ^ ^ ^ ^ d.X O : s s j b s z j s s s s ^ ^ ^ ^ ^ ^ ^ ^ ^ ^ ^ ^ ^ ^ ^ ^ ^ ^ ^ ^ C ^ ^ j s j j ^ s ^ ^ ^ ^ s ^ ^ ^ ^ ^ ^ ^ ^ ^ ^ ^ ^ ^ ^ ^ ^ ^ ^ ^ s s ^ ^ s s ^ p ",
"< w.s s s s s s s s s s s s ^ ^ ^ ^ ^ ^ ^ ^ ^ ^ ^ ^ ^ s s s ^ ^ ^ ^ ^ ^ ^ ^ s C b j j ^ ^ ^ s ^ ^ ^ j j s ^ j j j j j j j b b s ^ s ^ ^ C j j j b > * * l.^ ^ ^ ^ C ^ ^ b ^ ^ ^ ^ ^ ^ ^ ^ ^ ^ ^ ^ ^ ^ ^ ^ ^ ^ b C ^ ^ ^ ^ ^ ^ ^ ^ ^ ^ ^ ^ ^ ^ ^ ^ ^ ^ s ^ ^ ^ s W ^ ^ ^ ^ ^ ^ ^ ^ ^ ^ ^ s ^ ^ ^ ^ ^ ^ ^ ^ ^ ^ ^ ^ ^ ^ ^ ^ ^ ^ ^ s ^ ^ ^ s ^ ^ ^ s ^ ^ ^ ^ ^ ^ ^ ^ ^ ^ l.* X y b j j j j s b j ^ s ^ s ^ ^ ^ ^ ^ ^ ^ ^ ^ ^ ^ ^ ^ ^ ^ ^ ^ j b ^ ^ ^ ^ ^ s b ^ ^ s ^ ^ ^ ^ s ^ ^ b C ^ ^ ^ ^ ^ ^ ^ ^ ^ s ^ s ^ ^ ^ ^ s ^ ^ ^ s ^ p ",
"< w.s s s s s s s s s s s s s s ^ ^ ^ ^ ^ ^ ^ s ^ ^ s s ^ s ^ ^ ^ ^ ^ ^ ^ ^ s ^ ^ b j s C ^ s ^ ^ ^ b j s ^ j j j j j j j ^ ^ W j s C C j j j j j s : * * l.^ ^ j j ^ W j C W ^ ^ ^ ^ ^ ^ ^ ^ ^ C b j ^ ^ ^ ^ ^ ^ ^ ^ ^ ^ ^ ^ ^ ^ ^ ^ ^ ^ ^ ^ ^ ^ ^ s ^ ^ ^ ^ s ^ ^ ^ ^ ^ ^ ^ ^ ^ ^ ^ ^ ^ ^ ^ ^ ^ ^ ^ ^ ^ W ^ ^ ^ ^ s ^ ^ ^ ^ ^ s ^ ^ ^ s ^ ^ ^ s ^ ^ ^ ^ s ^ ^ ^ ^ l.* * y ^ ^ s W j ^ ^ ^ W ^ s s s ^ ^ ^ ^ ^ ^ ^ ^ ^ ^ ^ ^ ^ ^ ^ ^ ^ j j ^ ^ ^ ^ ^ s ^ ^ ^ s ^ ^ ^ ^ s ^ ^ ^ ^ ^ ^ s ^ ^ ^ ^ ^ s ^ ^ ^ ^ ^ ^ ^ ^ ^ ^ ^ ^ ^ < ",
"< w.s s s s s s s s s s s s s s ^ ^ ^ ^ ^ ^ ^ s ^ ^ s s ^ ^ ^ ^ ^ ^ ^ ^ ^ ^ ^ ^ ^ ^ ^ s b W s ^ ^ ^ ^ b s j j j j j j j j ^ C j j s ^ ^ b j ^ j j s j 6 * * l.^ b b ^ j j b C b C ^ ^ ^ ^ ^ ^ ^ j j j j C ^ ^ ^ b ^ ^ ^ ^ ^ ^ ^ ^ ^ ^ ^ ^ ^ ^ ^ ^ ^ s ^ ^ ^ ^ s ^ ^ ^ ^ ^ ^ ^ ^ ^ ^ ^ ^ ^ ^ ^ ^ s ^ ^ ^ ^ ^ ^ ^ ^ ^ s ^ ^ ^ ^ ^ s ^ ^ ^ s ^ ^ ^ s ^ s s ^ s ^ ^ ^ l.X * y s ^ ^ s ^ ^ ^ ^ ^ ^ s ^ s s ^ ^ ^ ^ ^ ^ ^ ^ ^ ^ ^ ^ ^ ^ ^ ^ ^ j j ^ ^ ^ ^ ^ ^ ^ ^ ^ ^ ^ ^ ^ ^ s ^ ^ ^ ^ ^ s s ^ s s ^ ^ s s ^ ^ ^ ^ ^ ^ ^ ^ ^ s s ^ < ",
"< w.s s s s s s s s s s ^ ^ ^ ^ ^ ^ ^ ^ ^ ^ ^ ^ ^ ^ ^ ^ ^ s ^ ^ ^ ^ ^ ^ ^ ^ ^ ^ ^ ^ ^ s b ^ ^ ^ ^ ^ ^ ^ s j j j j j j j j ^ j s s s ^ ^ ^ j ^ j j s j j 8 * O 7.l.....H G { { :.l.-.>.-.-.{ O.-.G Y R 4.G ..1.l.y.l.l.l.l.l.s.-.O.s.l.l.l.l.O.$.s.l.w.l.l.l.l.w.l.l.l.l.l.l.l.l.l.l.l.l.w.l.l.l.l.l.1.-.s.-.O.{ O.-.o.>.l.l.l.l.w.l.l.l.w.l.w.l.w.l.w.w.l.l.l.l.l.* * y ^ s ^ ^ s ^ ^ ^ ^ ^ ^ s ^ s s ^ ^ ^ ^ ^ ^ ^ ^ ^ ^ ^ ^ ^ ^ ^ ^ ^ b C ^ ^ ^ ^ ^ ^ ^ ^ ^ s ^ ^ ^ ^ s ^ ^ s ^ ^ s s ^ ^ ^ ^ ^ s s ^ ^ ^ ^ ^ ^ ^ ^ ^ s s s < ",
"< w.s s s s s s s s s s s ^ s s ^ ^ ^ ^ ^ ^ j j j j ^ ^ ^ s ^ ^ ^ ^ ^ ^ ^ ^ ^ ^ ^ ^ ^ s ^ ^ ^ ^ ^ ^ W j j b ^ j s j s j b ^ j s s j ^ ^ ^ j j j j s j j ^ y * * O * * * * * * * * * * * * * * * O . . . . . * O O * * * * * * * * * * * * * * * * * X * * * * X * * * * * * O * * * * X X * * * * * * * * * * * * * X * * * * * X * * * X * X * X * X X * * * * * * y ^ ^ s ^ ^ ^ ^ ^ ^ ^ ^ ^ s ^ s ^ ^ ^ ^ ^ ^ ^ ^ ^ ^ ^ ^ ^ ^ s s ^ ^ ^ ^ ^ ^ ^ ^ ^ ^ ^ ^ s s ^ ^ ^ ^ s ^ ^ s ^ ^ ^ ^ ^ s ^ ^ ^ ^ s ^ ^ ^ ^ ^ ^ ^ s s s s s < ",
"< w.s s s s s s s ^ ^ ^ ^ ^ ^ s s ^ ^ ^ ^ b j j j j ^ ^ s s ^ ^ ^ ^ ^ ^ ^ ^ ^ ^ ^ ^ ^ s ^ ^ ^ ^ s ^ ^ C j j ^ j j j s ^ ^ ^ j s s ^ ^ C j j j j b s j j b ^ > y y y y y y y y y y y y y y y y y y : : y : : 8 6 y y y y y y y y y y y y y y y y y y > y y y y y y y > y y y y y y y y > > y y y y y y y y y y y y > > y y y y y > y y y > : > y > y > > y y y y y r ^ ^ ^ s ^ ^ ^ ^ ^ ^ ^ ^ ^ s ^ ^ ^ ^ ^ ^ ^ ^ ^ ^ ^ ^ ^ ^ ^ ^ s ^ ^ ^ ^ ^ ^ ^ ^ ^ ^ ^ ^ ^ ^ s ^ ^ ^ ^ s ^ ^ s ^ ^ ^ ^ ^ s ^ ^ ^ ^ s ^ ^ ^ ^ ^ ^ s s s s s s < ",
"< w.s s s s s s s s ^ ^ ^ ^ ^ ^ s ^ ^ ^ s ^ s s j b ^ ^ ^ s ^ ^ ^ ^ ^ ^ ^ ^ ^ ^ ^ ^ ^ s ^ ^ ^ ^ ^ ^ ^ ^ j j j j ^ ^ s ^ ^ ^ j s s ^ ^ b j j j b j s j j j ^ ^ ^ ^ ^ ^ ^ ^ ^ ^ ^ ^ ^ ^ ^ ^ ^ ^ ^ ^ b j ^ j j j b ^ ^ ^ ^ ^ ^ ^ ^ ^ ^ ^ ^ ^ ^ ^ s ^ ^ ^ ^ ^ ^ ^ ^ ^ ^ b j ^ ^ ^ ^ ^ ^ ^ ^ ^ ^ ^ ^ ^ ^ ^ ^ ^ ^ ^ ^ ^ s ^ ^ ^ b b ^ s ^ ^ ^ s C ^ ^ s ^ s ^ ^ ^ ^ ^ ^ ^ ^ ^ ^ ^ ^ ^ ^ ^ ^ ^ ^ ^ ^ s ^ ^ ^ ^ ^ ^ ^ ^ ^ ^ ^ ^ ^ ^ ^ s ^ ^ ^ ^ ^ ^ ^ ^ ^ ^ ^ ^ ^ ^ s s ^ ^ ^ ^ s ^ ^ ^ s s ^ ^ ^ s ^ ^ ^ ^ s ^ ^ ^ ^ ^ s s s s s s s < ",
"< w.s s s s s s s s ^ ^ ^ ^ ^ ^ ^ ^ ^ ^ s ^ s ^ ^ ^ ^ ^ ^ ^ ^ ^ ^ ^ ^ ^ ^ ^ ^ ^ ^ ^ ^ s ^ ^ ^ ^ ^ ^ ^ ^ ^ j j j s ^ s ^ ^ ^ ^ s s ^ C ^ C b j C j s j j j j ^ ^ ^ ^ ^ ^ ^ ^ ^ ^ ^ ^ ^ ^ ^ ^ ^ ^ ^ j j j C j j j W ^ ^ ^ ^ ^ ^ ^ ^ ^ ^ ^ ^ ^ ^ ^ ^ ^ ^ ^ ^ ^ ^ ^ ^ ^ C j ^ ^ ^ s ^ C ^ ^ ^ ^ ^ ^ ^ ^ ^ ^ ^ ^ ^ ^ ^ s ^ j j j W ^ s ^ ^ ^ s ^ ^ ^ s ^ ^ s ^ ^ ^ ^ ^ ^ ^ s ^ ^ ^ ^ ^ ^ ^ ^ ^ ^ ^ ^ ^ ^ ^ ^ ^ ^ ^ ^ ^ ^ ^ ^ ^ ^ ^ s ^ ^ ^ ^ ^ ^ ^ ^ ^ ^ ^ ^ ^ ^ ^ s ^ ^ ^ ^ s ^ ^ s s s s ^ ^ s ^ ^ ^ ^ s ^ ^ s s s s s s s s s s < ",
"< w.s s s s s s s s s ^ ^ ^ ^ ^ ^ ^ ^ ^ s ^ ^ ^ ^ ^ ^ ^ ^ ^ ^ ^ ^ ^ ^ ^ ^ s s ^ ^ ^ ^ s ^ ^ ^ ^ ^ ^ ^ ^ ^ j j C ^ ^ s ^ ^ ^ ^ s s C s C b j ^ b j j j j j j j ^ ^ ^ ^ ^ ^ ^ W ^ ^ ^ ^ ^ ^ ^ ^ ^ ^ j j C W j j C b C ^ ^ ^ ^ ^ ^ ^ ^ ^ ^ ^ ^ ^ ^ ^ ^ s ^ ^ ^ ^ ^ ^ ^ ^ ^ ^ ^ ^ ^ W W ^ ^ ^ ^ ^ ^ ^ ^ ^ ^ ^ ^ ^ ^ ^ s C j C ^ ^ ^ ^ ^ ^ ^ s ^ ^ s ^ ^ ^ s ^ ^ ^ ^ ^ s ^ s ^ ^ ^ ^ ^ ^ ^ ^ ^ ^ ^ ^ ^ ^ ^ ^ ^ ^ ^ ^ ^ ^ ^ ^ ^ ^ ^ ^ ^ ^ ^ ^ ^ ^ ^ ^ ^ ^ ^ ^ ^ ^ s s ^ ^ ^ ^ ^ ^ ^ s s s s ^ ^ ^ ^ ^ ^ ^ ^ ^ s s s s s s s s s s s < ",
"< w.s s s s s s s s s s s ^ s ^ ^ ^ ^ ^ s ^ ^ ^ ^ ^ ^ ^ s ^ ^ ^ ^ ^ j j ^ ^ ^ ^ ^ s ^ ^ ^ ^ ^ ^ ^ ^ ^ ^ ^ ^ ^ ^ ^ ^ ^ ^ ^ ^ ^ s s ^ s j j j C j j j j j j z j j b ^ ^ ^ ^ ^ ^ j j ^ ^ ^ ^ ^ ^ W j j j ^ ^ ^ b ^ ^ ^ ^ ^ ^ ^ ^ ^ ^ ^ ^ ^ ^ ^ ^ ^ ^ ^ ^ ^ ^ ^ ^ ^ ^ ^ ^ ^ ^ ^ ^ b ^ ^ ^ ^ ^ ^ ^ ^ ^ ^ ^ ^ ^ ^ ^ ^ ^ s C j ^ ^ ^ ^ ^ ^ ^ ^ s ^ ^ s ^ ^ ^ ^ ^ ^ s ^ ^ ^ ^ ^ ^ s ^ ^ ^ ^ ^ ^ ^ ^ ^ s ^ ^ s ^ ^ ^ ^ ^ ^ ^ ^ ^ ^ ^ ^ s ^ ^ ^ ^ ^ ^ ^ ^ ^ ^ ^ ^ ^ ^ s ^ ^ ^ ^ ^ ^ ^ ^ s s ^ s ^ ^ ^ ^ ^ ^ ^ ^ s s s s s s s s s s s s < ",
"< w.s s s j j s s s s s s ^ ^ ^ ^ ^ s s s ^ s ^ ^ ^ ^ ^ ^ ^ ^ ^ ^ j j j C j ^ ^ ^ ^ ^ ^ ^ ^ ^ ^ ^ ^ ^ ^ ^ ^ ^ ^ ^ ^ ^ ^ ^ ^ ^ s s ^ s j j j ^ W W j j j j z j j j ^ ^ ^ ^ ^ ^ j j ^ ^ ^ ^ ^ b j j j W ^ ^ ^ W ^ ^ ^ ^ ^ ^ ^ ^ ^ ^ ^ ^ ^ ^ ^ ^ ^ ^ ^ ^ ^ ^ ^ ^ ^ ^ ^ ^ ^ ^ ^ ^ C ^ ^ ^ ^ ^ ^ ^ ^ ^ ^ ^ ^ ^ ^ ^ ^ ^ s ^ ^ ^ ^ ^ ^ j j ^ ^ s ^ ^ s s ^ ^ ^ ^ ^ ^ ^ ^ ^ ^ ^ ^ ^ ^ ^ s ^ ^ ^ ^ ^ ^ s s ^ s ^ ^ ^ s ^ ^ ^ ^ ^ ^ ^ ^ s ^ ^ ^ ^ ^ ^ ^ ^ ^ ^ ^ ^ ^ ^ s ^ ^ ^ ^ ^ s ^ ^ s s ^ s ^ ^ ^ ^ ^ ^ ^ ^ s s s s s s s s s s s s < ",
"< w.s j j j j s s s s s s ^ ^ ^ ^ ^ s s s ^ s ^ ^ ^ ^ ^ ^ ^ ^ ^ j j j j j j ^ ^ ^ ^ ^ ^ ^ ^ ^ ^ ^ ^ ^ ^ ^ ^ ^ ^ ^ ^ ^ ^ j b ^ s s ^ W j b ^ ^ ^ ^ s b j j j j j j C ^ ^ ^ ^ ^ ^ ^ ^ ^ ^ ^ ^ j j j j j ^ C b W ^ ^ ^ ^ ^ ^ ^ ^ ^ ^ ^ ^ ^ ^ ^ ^ ^ ^ ^ ^ ^ ^ ^ ^ ^ ^ ^ ^ W j j j C W ^ ^ ^ ^ ^ ^ ^ ^ ^ ^ ^ ^ ^ ^ ^ ^ s ^ ^ s ^ ^ ^ j j ^ ^ s ^ ^ s s s ^ ^ ^ ^ s ^ ^ s ^ ^ ^ ^ ^ ^ s ^ ^ ^ ^ ^ s s s ^ s ^ ^ ^ ^ ^ ^ ^ ^ ^ ^ ^ ^ s s ^ ^ ^ ^ ^ ^ ^ s ^ ^ ^ ^ ^ s ^ ^ ^ ^ ^ s ^ ^ s s ^ s ^ ^ ^ ^ ^ ^ ^ ^ s s s s s s s s s s s s < ",
"< w.j s j j j s s s s s s ^ ^ ^ ^ ^ ^ ^ ^ ^ ^ s ^ ^ ^ ^ ^ ^ b j j j j j j j ^ ^ ^ ^ ^ ^ ^ ^ ^ ^ s s ^ s ^ ^ C s ^ ^ ^ ^ ^ ^ ^ s s ^ ^ ^ ^ ^ ^ ^ ^ s ^ j j j s j C ^ b ^ ^ ^ ^ ^ ^ ^ ^ ^ ^ ^ ^ j W j j j j j j b ^ ^ ^ ^ ^ ^ ^ ^ ^ ^ ^ ^ ^ ^ ^ ^ ^ ^ ^ ^ ^ ^ ^ ^ ^ ^ ^ ^ ^ j j j C j j W ^ ^ ^ ^ ^ ^ ^ ^ ^ ^ b ^ ^ s s ^ s ^ s s ^ ^ ^ ^ s ^ ^ s s s ^ ^ ^ ^ C ^ ^ ^ ^ ^ ^ s ^ s s ^ ^ ^ ^ ^ s s s ^ ^ ^ ^ ^ ^ ^ ^ ^ ^ ^ ^ ^ ^ ^ s ^ ^ ^ ^ ^ ^ ^ s ^ ^ ^ ^ ^ s ^ ^ ^ ^ ^ s ^ ^ s ^ ^ s ^ ^ ^ ^ ^ ^ ^ s s s s s s s s s s s s s < ",
"< w.j s j j s s s s s s s ^ ^ ^ ^ ^ ^ ^ ^ ^ ^ s ^ ^ ^ ^ ^ ^ j b b j j j C ^ ^ ^ s ^ ^ ^ ^ ^ ^ ^ s s ^ s ^ ^ ^ ^ ^ ^ ^ ^ ^ C s s s W ^ ^ ^ ^ ^ ^ ^ s ^ j j j s j ^ ^ W j ^ ^ ^ ^ ^ ^ ^ ^ ^ ^ ^ ^ ^ C ^ j j j j b ^ ^ ^ ^ ^ ^ ^ ^ ^ ^ ^ ^ ^ ^ ^ ^ ^ ^ ^ ^ ^ ^ ^ ^ ^ ^ ^ ^ ^ j b b j j j ^ ^ ^ ^ C ^ ^ ^ ^ ^ ^ ^ ^ ^ s ^ ^ ^ ^ s s C ^ C ^ s ^ ^ s ^ s ^ ^ ^ ^ ^ ^ ^ ^ ^ ^ ^ s ^ s s ^ ^ ^ ^ ^ ^ s ^ ^ s ^ s ^ ^ ^ ^ ^ ^ ^ ^ ^ ^ ^ ^ ^ ^ ^ ^ ^ ^ ^ ^ ^ ^ ^ ^ ^ s ^ ^ ^ ^ ^ s ^ ^ s ^ ^ s ^ ^ ^ ^ ^ ^ ^ s s s ^ s ^ s s s s s s s < ",
"< w.s s j s s s s a s s s ^ ^ ^ ^ ^ ^ s s ^ s s ^ ^ ^ ^ ^ j j W j j j j j ^ ^ ^ s ^ ^ ^ ^ ^ ^ ^ s s ^ s ^ ^ ^ ^ ^ ^ ^ ^ ^ C ^ ^ s ^ ^ ^ ^ ^ ^ ^ ^ s ^ ^ j s s ^ ^ ^ C j j j ^ ^ ^ ^ ^ ^ ^ ^ ^ ^ ^ j C j j j j ^ ^ ^ ^ ^ ^ ^ ^ ^ ^ ^ ^ ^ ^ ^ ^ ^ ^ ^ ^ ^ ^ ^ ^ ^ ^ ^ ^ ^ b j b C j j ^ ^ ^ ^ ^ b ^ ^ ^ ^ ^ ^ ^ ^ ^ ^ ^ ^ s ^ ^ ^ ^ ^ ^ s s ^ ^ s ^ ^ ^ s ^ s ^ ^ ^ ^ ^ ^ ^ s ^ ^ ^ ^ ^ ^ ^ ^ ^ ^ s ^ s ^ s ^ ^ ^ ^ ^ ^ ^ ^ ^ ^ ^ ^ ^ ^ ^ ^ ^ ^ ^ ^ ^ ^ ^ ^ ^ ^ ^ ^ ^ ^ ^ s ^ ^ s ^ ^ s ^ ^ s ^ ^ ^ s s s s ^ s ^ ^ s s s s s s < ",
"< w.s s s s s s j j j s ^ s s s ^ ^ ^ ^ s ^ s s ^ ^ ^ ^ ^ ^ j W j j j j ^ ^ ^ ^ ^ ^ ^ s ^ ^ ^ ^ ^ ^ ^ ^ ^ ^ ^ ^ ^ ^ ^ ^ ^ ^ ^ ^ s b b ^ ^ ^ ^ ^ ^ s ^ ^ ^ s s ^ ^ ^ j j j j j ^ ^ ^ ^ ^ ^ ^ ^ ^ ^ ^ ^ b ^ ^ ^ ^ ^ ^ ^ ^ ^ ^ ^ ^ ^ ^ ^ ^ ^ ^ ^ ^ ^ ^ ^ ^ ^ ^ ^ ^ ^ ^ ^ ^ C j j C j j b ^ ^ ^ ^ ^ ^ ^ ^ ^ ^ ^ ^ ^ ^ s s ^ ^ ^ ^ s ^ ^ ^ s s ^ ^ s ^ ^ s s ^ s ^ ^ ^ ^ ^ ^ ^ s ^ ^ ^ ^ ^ ^ ^ ^ ^ ^ s ^ s ^ s ^ s ^ ^ ^ ^ ^ ^ ^ ^ ^ ^ ^ ^ ^ ^ ^ ^ ^ ^ ^ ^ ^ ^ ^ ^ ^ ^ ^ ^ ^ s ^ ^ s ^ s s ^ ^ s ^ ^ s s s s s ^ s ^ ^ s s s s s s < ",
"8 w.s s s s s s s j W ^ ^ s s s s ^ ^ ^ s ^ ^ ^ ^ ^ ^ ^ ^ ^ j b j j ^ ^ ^ ^ ^ ^ ^ ^ ^ s ^ ^ ^ C s ^ ^ ^ ^ ^ ^ ^ ^ ^ ^ ^ ^ ^ ^ ^ s j j C C C ^ ^ ^ s ^ ^ ^ s s ^ ^ ^ W j j j j ^ ^ ^ ^ ^ ^ ^ ^ ^ ^ ^ ^ ^ ^ ^ ^ ^ ^ ^ ^ ^ ^ ^ ^ ^ ^ ^ ^ ^ ^ ^ ^ ^ ^ ^ ^ ^ ^ ^ ^ ^ ^ ^ ^ C j W b j j j W ^ ^ ^ ^ ^ ^ ^ ^ ^ ^ ^ ^ ^ ^ ^ s s ^ ^ ^ ^ ^ ^ ^ s s ^ ^ s ^ ^ ^ ^ ^ s ^ s ^ ^ ^ ^ ^ s ^ ^ ^ ^ ^ ^ ^ ^ s s ^ s s ^ ^ ^ s s s j j j ^ ^ ^ ^ ^ ^ ^ ^ ^ ^ ^ ^ ^ ^ ^ ^ ^ ^ ^ ^ ^ ^ ^ ^ s ^ ^ ^ s s s ^ ^ s ^ s s s ^ ^ ^ ^ s ^ ^ s s s s s s < ",
"< w.s s s s s s s j s ^ ^ ^ s s s ^ ^ ^ s ^ ^ ^ ^ ^ ^ ^ ^ ^ C C j ^ ^ ^ ^ ^ ^ ^ ^ ^ ^ s ^ ^ j s s W ^ ^ ^ ^ ^ ^ ^ ^ ^ C ^ ^ s ^ s j j ^ b b W ^ ^ ^ ^ ^ ^ ^ j j ^ ^ ^ ^ j j ^ ^ ^ ^ ^ ^ ^ ^ ^ ^ ^ ^ ^ W ^ ^ ^ ^ ^ ^ ^ ^ ^ ^ ^ ^ ^ ^ ^ ^ ^ ^ ^ ^ ^ ^ ^ ^ ^ ^ ^ ^ ^ ^ ^ b C ^ j j j j C ^ ^ ^ ^ ^ ^ ^ ^ ^ ^ ^ b b ^ s s s C j s ^ ^ ^ ^ ^ s ^ ^ s ^ ^ s ^ ^ s ^ s ^ s ^ ^ ^ s ^ s ^ ^ ^ ^ ^ ^ s s ^ s s ^ ^ ^ s s s ^ ^ ^ ^ ^ ^ ^ s ^ ^ ^ ^ ^ ^ ^ ^ ^ ^ ^ ^ ^ s ^ ^ ^ ^ ^ ^ ^ ^ ^ s s s s ^ ^ ^ s s ^ s ^ ^ s ^ ^ s s s s s s s < ",
"< w.s s s s s s s s s ^ ^ ^ ^ ^ s ^ ^ ^ s ^ ^ ^ ^ ^ ^ ^ ^ ^ ^ C C ^ ^ ^ ^ ^ ^ ^ ^ ^ ^ ^ ^ ^ j s s j b ^ ^ ^ ^ ^ ^ ^ ^ ^ ^ ^ ^ s s ^ ^ ^ C ^ ^ ^ j j ^ ^ ^ j j j b ^ ^ ^ ^ ^ ^ ^ ^ ^ ^ ^ ^ ^ ^ ^ ^ ^ ^ ^ ^ ^ ^ ^ b W j C ^ ^ ^ ^ ^ ^ ^ ^ ^ ^ ^ ^ ^ ^ ^ ^ ^ ^ ^ ^ ^ ^ ^ C b ^ j j j j b ^ ^ ^ ^ ^ ^ ^ ^ ^ ^ ^ j W ^ s s ^ ^ ^ s ^ ^ ^ ^ ^ ^ ^ ^ ^ ^ ^ ^ ^ ^ ^ ^ s s s ^ ^ ^ ^ ^ s ^ ^ ^ ^ ^ ^ s s ^ ^ s ^ ^ s s s s ^ ^ ^ ^ ^ ^ s s ^ ^ ^ ^ ^ ^ ^ ^ ^ ^ s ^ ^ s ^ ^ ^ ^ ^ ^ ^ ^ ^ s s s s ^ ^ ^ ^ ^ ^ ^ ^ ^ ^ ^ s s s s s s s s < ",
"< w.s s s s s s s s s ^ s s ^ ^ ^ ^ ^ ^ s ^ ^ ^ ^ ^ ^ s ^ ^ ^ ^ ^ ^ ^ ^ ^ ^ ^ ^ ^ ^ ^ ^ ^ ^ j j j j b ^ ^ ^ ^ ^ ^ ^ ^ ^ ^ ^ s s s ^ ^ ^ ^ ^ C b j j ^ ^ ^ j j j ^ ^ ^ ^ ^ ^ ^ ^ ^ ^ ^ ^ ^ ^ ^ ^ ^ ^ ^ ^ ^ C C ^ ^ C j b ^ ^ W ^ ^ ^ ^ ^ ^ ^ ^ ^ ^ ^ ^ ^ ^ ^ ^ ^ ^ ^ ^ j C ^ ^ j ^ ^ j ^ ^ ^ ^ ^ ^ ^ ^ ^ ^ ^ W ^ ^ s ^ ^ C ^ s ^ ^ ^ ^ s ^ ^ ^ ^ ^ ^ ^ ^ ^ s ^ ^ s s ^ ^ ^ ^ ^ s ^ ^ ^ ^ ^ ^ s ^ ^ ^ s ^ ^ s s ^ ^ ^ ^ ^ ^ ^ ^ s s ^ ^ ^ ^ ^ ^ ^ ^ ^ ^ s ^ ^ s ^ ^ ^ ^ ^ ^ ^ ^ ^ ^ s s s ^ ^ ^ ^ ^ ^ ^ ^ ^ ^ ^ s s s s s s s s < ",
"< w.s s s s s s s s s ^ s s ^ ^ ^ ^ ^ ^ s ^ ^ ^ ^ ^ b s ^ ^ ^ ^ ^ ^ ^ ^ ^ ^ ^ ^ ^ ^ ^ ^ ^ ^ C s j C ^ s ^ ^ ^ ^ ^ ^ ^ ^ ^ ^ ^ s s C ^ ^ ^ ^ ^ j j j b ^ ^ ^ j W ^ ^ ^ ^ ^ ^ ^ ^ ^ ^ ^ ^ ^ ^ ^ ^ ^ ^ ^ ^ ^ j ^ ^ ^ j j C s ^ ^ ^ ^ ^ ^ ^ ^ ^ ^ ^ ^ ^ ^ ^ ^ ^ ^ ^ ^ ^ ^ b W ^ ^ ^ ^ ^ j C ^ ^ ^ ^ ^ ^ ^ ^ ^ ^ ^ b C s ^ ^ ^ ^ s ^ ^ ^ ^ s s ^ ^ s ^ s ^ ^ ^ s ^ ^ s s ^ ^ ^ ^ ^ s ^ ^ ^ ^ ^ ^ s ^ ^ ^ ^ ^ ^ s ^ s ^ ^ ^ ^ ^ ^ ^ ^ ^ ^ ^ ^ ^ ^ ^ ^ ^ ^ ^ s ^ s s ^ ^ ^ ^ ^ ^ ^ ^ ^ ^ ^ s ^ ^ ^ ^ ^ ^ ^ ^ ^ ^ s s s s s s s s s s < ",
"< w.s s s s s s s s s s ^ s ^ ^ ^ s ^ ^ s ^ ^ ^ ^ ^ ^ ^ ^ ^ ^ ^ ^ ^ ^ ^ ^ ^ ^ ^ ^ ^ ^ ^ ^ ^ j s j ^ ^ s ^ ^ ^ ^ ^ ^ ^ ^ ^ ^ ^ ^ W C ^ ^ ^ ^ ^ ^ b j j ^ ^ ^ ^ ^ ^ C b ^ ^ ^ ^ ^ ^ ^ ^ ^ ^ ^ ^ ^ ^ ^ ^ ^ ^ ^ ^ ^ ^ j j ^ s ^ ^ ^ ^ ^ ^ ^ ^ ^ ^ ^ ^ ^ ^ ^ ^ ^ ^ ^ ^ ^ ^ ^ W W ^ ^ ^ ^ ^ ^ ^ ^ ^ ^ ^ ^ ^ ^ ^ ^ ^ W ^ ^ ^ ^ ^ ^ ^ ^ ^ ^ W s s ^ ^ s ^ ^ ^ ^ ^ s ^ ^ s s ^ ^ ^ ^ ^ s ^ ^ ^ ^ ^ ^ s ^ ^ ^ ^ ^ ^ s ^ s ^ ^ ^ ^ C ^ ^ ^ ^ ^ ^ ^ ^ ^ ^ ^ ^ ^ ^ ^ ^ ^ ^ ^ ^ ^ ^ ^ ^ ^ ^ ^ ^ ^ s ^ ^ ^ ^ ^ ^ ^ ^ ^ s s s s s s s s s s s < ",
"8 w.s ^ s s s s s s s s ^ b ^ ^ ^ ^ ^ ^ s s ^ ^ ^ s ^ s s ^ ^ ^ ^ ^ ^ ^ ^ s ^ ^ ^ ^ ^ ^ ^ W ^ s ^ ^ ^ s ^ ^ ^ ^ ^ ^ ^ ^ ^ W ^ ^ ^ ^ ^ C ^ ^ ^ ^ ^ j j j ^ ^ ^ ^ ^ ^ ^ ^ ^ ^ ^ ^ ^ ^ ^ ^ ^ ^ ^ ^ ^ C j j ^ ^ ^ ^ C j j j s ^ ^ ^ ^ ^ ^ ^ ^ ^ ^ ^ ^ ^ ^ ^ ^ ^ ^ ^ ^ ^ ^ C j j s ^ s s ^ ^ ^ ^ ^ ^ s s s ^ ^ ^ ^ ^ ^ s ^ ^ ^ ^ ^ ^ ^ ^ ^ s s ^ s s ^ ^ C ^ ^ s ^ ^ ^ ^ ^ ^ ^ ^ ^ ^ ^ ^ ^ ^ ^ ^ ^ ^ ^ ^ s ^ ^ s ^ s ^ ^ ^ ^ ^ ^ ^ ^ ^ ^ ^ ^ ^ ^ ^ ^ ^ ^ ^ ^ ^ s s ^ ^ ^ ^ ^ ^ ^ s s ^ s s ^ s ^ ^ ^ ^ s ^ ^ s s s s s s s s s s s < ",
"8 l.s ^ s s s s s s s s s ^ ^ ^ ^ ^ ^ ^ ^ ^ ^ ^ ^ ^ ^ s s ^ ^ ^ ^ ^ ^ ^ ^ ^ ^ ^ ^ ^ ^ ^ ^ j ^ ^ ^ ^ ^ s ^ ^ ^ ^ ^ ^ ^ ^ W j ^ s ^ b ^ ^ ^ ^ ^ ^ ^ b j j j j j ^ ^ ^ ^ ^ ^ ^ ^ ^ ^ ^ ^ ^ ^ ^ ^ ^ ^ ^ b j ^ ^ ^ ^ ^ ^ ^ ^ ^ ^ ^ ^ ^ ^ ^ ^ ^ ^ ^ ^ ^ ^ ^ ^ ^ ^ ^ ^ ^ ^ ^ s j j j s ^ ^ ^ ^ ^ ^ ^ ^ ^ ^ ^ ^ ^ ^ ^ ^ ^ s ^ ^ ^ ^ ^ ^ ^ ^ ^ ^ s j s s ^ C b ^ ^ s ^ ^ s ^ ^ ^ ^ ^ ^ ^ ^ ^ ^ ^ ^ s s ^ s ^ s ^ ^ s ^ s ^ s ^ ^ ^ ^ ^ ^ ^ ^ ^ ^ ^ ^ ^ ^ ^ ^ s ^ ^ s ^ ^ ^ ^ ^ ^ s ^ s s ^ s s ^ s ^ ^ ^ ^ s ^ ^ ^ ^ s s s s s s s s s < ",
"8 l.s s s s s s s s s s s s s s s ^ ^ ^ ^ ^ ^ ^ ^ ^ ^ s ^ ^ ^ ^ ^ ^ ^ ^ ^ ^ ^ ^ ^ ^ ^ ^ ^ ^ ^ ^ ^ s s s ^ ^ j j b ^ ^ ^ j j s C ^ ^ ^ ^ ^ ^ ^ ^ ^ j j j j j ^ ^ ^ ^ ^ ^ ^ ^ ^ ^ ^ ^ ^ ^ ^ ^ ^ ^ ^ ^ ^ ^ ^ ^ ^ ^ ^ ^ ^ ^ ^ ^ ^ ^ ^ ^ ^ ^ ^ ^ ^ ^ ^ ^ ^ ^ ^ ^ ^ ^ ^ ^ ^ s s s s ^ s ^ ^ ^ ^ ^ ^ ^ ^ ^ ^ ^ ^ ^ ^ ^ ^ ^ ^ ^ ^ ^ ^ ^ ^ ^ ^ ^ s ^ s s ^ b j ^ ^ ^ ^ ^ s ^ ^ ^ ^ ^ ^ ^ ^ ^ ^ ^ ^ s s ^ s s s ^ s s ^ ^ ^ s ^ ^ ^ ^ ^ s ^ ^ ^ ^ ^ ^ ^ ^ ^ ^ ^ ^ ^ s ^ ^ ^ ^ ^ ^ ^ ^ s ^ ^ s s ^ s ^ ^ ^ ^ ^ ^ ^ ^ ^ s s s s s s s s s < ",
"p w.s s s s s s s s s s s s s s s s ^ ^ ^ ^ ^ ^ ^ ^ ^ ^ ^ ^ ^ ^ ^ ^ ^ ^ ^ ^ ^ ^ ^ ^ b ^ ^ ^ j ^ ^ ^ ^ ^ ^ ^ j j j ^ ^ ^ ^ b j j C b W ^ ^ ^ ^ ^ ^ ^ ^ j b ^ ^ ^ z ^ C ^ ^ ^ s ^ ^ ^ ^ ^ ^ ^ ^ ^ ^ ^ ^ s ^ ^ ^ ^ ^ ^ ^ ^ ^ ^ ^ ^ ^ ^ ^ ^ ^ ^ ^ ^ ^ s ^ ^ ^ ^ ^ s s s s s s s s ^ ^ ^ ^ ^ ^ ^ ^ ^ ^ ^ ^ ^ ^ ^ ^ ^ C C ^ ^ ^ ^ ^ ^ ^ ^ ^ ^ s ^ s s ^ j j W ^ ^ ^ ^ s ^ ^ ^ s ^ ^ s ^ ^ ^ ^ ^ s s ^ s s s ^ s s s s ^ s ^ ^ ^ ^ ^ s ^ ^ ^ ^ ^ ^ ^ ^ ^ ^ ^ ^ s s ^ ^ ^ ^ ^ ^ ^ ^ s ^ ^ s ^ ^ ^ ^ ^ ^ ^ ^ ^ ^ s ^ s s s s s s s s s < ",
"8 w.s s s s s s s s s ^ s s s s s s s ^ ^ ^ ^ ^ ^ ^ ^ s s ^ ^ ^ ^ ^ ^ ^ ^ ^ ^ ^ ^ ^ C b C b j ^ ^ j b ^ ^ ^ j j j j ^ ^ ^ j j b W ^ ^ ^ ^ ^ ^ ^ ^ ^ C C ^ ^ ^ ^ j j b ^ ^ ^ ^ ^ ^ ^ ^ ^ ^ ^ ^ ^ ^ ^ ^ ^ ^ ^ b ^ ^ ^ s ^ ^ ^ ^ ^ ^ ^ ^ ^ ^ ^ ^ ^ ^ ^ ^ ^ ^ ^ ^ ^ s s s ^ ^ ^ ^ ^ s ^ ^ ^ ^ ^ ^ ^ ^ ^ ^ ^ ^ ^ b j j ^ ^ ^ ^ ^ ^ ^ ^ ^ ^ ^ s ^ ^ ^ ^ j j ^ ^ ^ ^ ^ s ^ ^ ^ s ^ ^ s ^ ^ ^ ^ ^ s s s s s s ^ s s s s ^ ^ ^ ^ ^ ^ ^ s ^ ^ ^ ^ ^ ^ ^ ^ ^ ^ ^ ^ ^ s ^ ^ ^ ^ ^ ^ ^ ^ ^ ^ ^ s ^ ^ ^ ^ ^ ^ ^ ^ ^ ^ s s ^ s s s s s s f s p ",
"p l.s s s s s s s s s s s s s ^ ^ s ^ ^ ^ ^ ^ ^ ^ ^ ^ s s ^ ^ ^ ^ ^ ^ b j j ^ ^ ^ ^ ^ ^ ^ W W ^ ^ j b b s ^ j j j j ^ ^ ^ s j j C C ^ ^ ^ ^ ^ ^ ^ ^ ^ ^ ^ s ^ j j j C ^ ^ ^ ^ ^ ^ ^ ^ ^ ^ s ^ ^ ^ ^ ^ ^ ^ ^ j ^ ^ ^ s ^ ^ ^ ^ s ^ ^ ^ ^ ^ ^ ^ ^ ^ ^ ^ ^ ^ ^ ^ j b s s s s s ^ ^ ^ ^ ^ ^ ^ s ^ ^ ^ ^ ^ ^ ^ j j j j ^ ^ ^ ^ ^ ^ ^ ^ ^ ^ s ^ ^ ^ ^ ^ ^ ^ ^ ^ ^ ^ ^ ^ ^ ^ ^ ^ ^ ^ ^ ^ ^ ^ ^ ^ s s s s s s ^ ^ s s s ^ ^ ^ ^ ^ ^ ^ s ^ ^ ^ ^ ^ ^ ^ ^ ^ ^ s ^ s s ^ ^ ^ ^ ^ ^ ^ ^ ^ ^ ^ ^ ^ ^ ^ ^ ^ ^ ^ ^ ^ ^ s s ^ s s s s s s j ^ p ",
"p w.s s s s s s s s s ^ ^ ^ ^ s s s ^ ^ s ^ ^ ^ ^ ^ ^ j s ^ ^ ^ ^ W ^ ^ ^ j ^ ^ ^ ^ ^ ^ ^ ^ C ^ j j s j s j j j j j j ^ ^ s j j j C C ^ ^ ^ ^ ^ ^ ^ ^ ^ ^ s ^ C C ^ ^ ^ ^ ^ ^ ^ j ^ ^ ^ ^ ^ ^ ^ ^ ^ ^ ^ ^ ^ ^ ^ ^ ^ s ^ ^ ^ ^ ^ ^ ^ ^ ^ ^ s ^ ^ ^ ^ ^ ^ ^ ^ ^ b b s s s s ^ ^ s ^ ^ ^ ^ ^ ^ ^ ^ ^ ^ ^ ^ ^ ^ b C j j b ^ ^ ^ s ^ ^ ^ ^ s ^ ^ ^ ^ ^ ^ ^ ^ ^ ^ ^ ^ ^ ^ ^ ^ j W ^ s ^ ^ ^ ^ ^ s s s ^ s ^ ^ ^ ^ ^ s ^ ^ ^ ^ ^ ^ ^ s ^ ^ ^ ^ ^ ^ ^ ^ ^ ^ s ^ ^ s ^ ^ ^ ^ ^ ^ ^ ^ ^ s ^ ^ ^ ^ ^ ^ ^ ^ ^ ^ ^ ^ ^ s ^ s s s s s j s s p ",
"< w.s s s s s s s s s ^ ^ ^ ^ ^ s s s s s ^ ^ ^ ^ ^ ^ s s ^ ^ ^ ^ ^ ^ ^ ^ ^ ^ ^ ^ ^ ^ ^ ^ ^ C ^ s j s j j j j j j j j ^ W j z j j j ^ ^ C ^ ^ ^ ^ ^ ^ ^ ^ s ^ ^ ^ ^ ^ ^ ^ ^ ^ C j ^ ^ ^ ^ s ^ ^ ^ ^ ^ ^ ^ ^ ^ ^ ^ s s ^ ^ ^ ^ ^ ^ ^ ^ ^ ^ s ^ ^ ^ ^ s s s s s s s s s s ^ ^ ^ ^ ^ ^ ^ ^ ^ ^ ^ ^ ^ ^ ^ ^ ^ ^ ^ ^ C W ^ ^ ^ ^ s ^ ^ ^ ^ s ^ ^ ^ ^ ^ ^ ^ ^ ^ ^ ^ ^ ^ ^ ^ j j j ^ s ^ ^ ^ ^ ^ j s s ^ s ^ ^ ^ ^ ^ s ^ ^ ^ ^ ^ ^ ^ s ^ ^ ^ ^ ^ ^ ^ ^ ^ ^ s ^ ^ s ^ ^ ^ ^ ^ ^ ^ ^ ^ s ^ ^ ^ ^ ^ ^ ^ ^ ^ ^ ^ ^ ^ s s s s s s s s s s < ",
"< w.^ s s s s s s s s ^ s s ^ ^ s s s ^ s ^ ^ ^ ^ ^ ^ s s ^ ^ ^ ^ ^ ^ ^ ^ ^ ^ s ^ ^ C ^ ^ ^ ^ s s C s j ^ j j j j j j ^ z z z j ^ C ^ C C ^ ^ ^ ^ ^ ^ ^ s s ^ ^ ^ ^ ^ ^ ^ ^ ^ ^ s ^ ^ ^ ^ s ^ ^ ^ ^ ^ ^ ^ ^ ^ ^ ^ s s ^ ^ ^ ^ ^ ^ ^ ^ ^ s ^ ^ ^ ^ ^ s s s s ^ ^ s s s s ^ ^ ^ ^ ^ ^ s s ^ ^ ^ ^ ^ ^ ^ ^ s ^ ^ ^ ^ ^ ^ s ^ ^ ^ ^ ^ ^ s s ^ ^ ^ ^ ^ ^ ^ ^ ^ ^ ^ ^ ^ ^ ^ j j j ^ ^ ^ ^ C ^ ^ W ^ s s s ^ ^ ^ ^ ^ s ^ ^ ^ ^ ^ ^ ^ s ^ ^ ^ ^ ^ ^ ^ ^ ^ ^ s ^ ^ s ^ ^ ^ ^ ^ ^ ^ ^ s s s ^ ^ ^ ^ ^ ^ ^ ^ ^ ^ ^ ^ ^ s s s s s s s s s < ",
"< w.s s s s s s s s s s s s s s s ^ ^ ^ s ^ ^ ^ ^ ^ ^ s s ^ ^ ^ ^ ^ ^ ^ ^ ^ ^ s ^ ^ ^ ^ ^ ^ ^ s s j j j b j j j j j j ^ j b j j ^ ^ ^ b b W ^ ^ ^ ^ ^ ^ ^ s ^ ^ ^ ^ ^ ^ ^ ^ ^ s ^ ^ ^ ^ s s ^ ^ ^ ^ ^ ^ ^ ^ ^ ^ ^ s ^ ^ ^ ^ ^ ^ ^ ^ ^ s ^ ^ ^ ^ ^ s s s s s ^ ^ ^ ^ s ^ ^ ^ ^ ^ ^ ^ s s ^ ^ ^ ^ ^ ^ ^ s s ^ ^ ^ ^ ^ ^ s ^ ^ ^ ^ ^ ^ ^ s ^ ^ s b ^ ^ ^ ^ ^ ^ ^ ^ s ^ ^ ^ j j ^ ^ b b C ^ ^ s s s s s ^ ^ s ^ s s ^ ^ ^ ^ ^ ^ ^ s ^ ^ ^ ^ ^ ^ ^ ^ ^ ^ s ^ ^ s ^ ^ ^ ^ ^ ^ ^ ^ s s s s ^ ^ ^ ^ ^ ^ ^ ^ ^ ^ ^ ^ s s s s s s s s s < ",
"8 w.s s s s s s s s s ^ s s s s ^ s ^ ^ ^ ^ ^ ^ ^ ^ ^ s s ^ ^ ^ ^ ^ ^ ^ ^ ^ ^ ^ ^ ^ ^ W j j j ^ W ^ s j j j s j j j j j j j j j z ^ ^ j j j C ^ ^ ^ ^ ^ ^ ^ ^ ^ ^ ^ ^ ^ ^ ^ ^ s ^ ^ ^ ^ s ^ ^ ^ ^ ^ ^ ^ ^ ^ ^ ^ s s ^ ^ ^ ^ ^ ^ ^ ^ ^ ^ ^ ^ ^ ^ s s s s ^ ^ ^ ^ ^ ^ ^ ^ ^ ^ ^ ^ ^ j j s C ^ ^ ^ ^ ^ ^ ^ ^ ^ ^ ^ ^ ^ ^ ^ ^ ^ ^ ^ ^ ^ ^ ^ ^ ^ s ^ ^ ^ ^ ^ ^ ^ ^ ^ s ^ ^ ^ ^ s ^ ^ ^ W W ^ ^ ^ ^ ^ ^ s ^ ^ ^ ^ s s ^ ^ ^ ^ ^ ^ ^ s ^ ^ ^ ^ ^ ^ ^ ^ ^ ^ s ^ ^ s ^ ^ ^ ^ ^ ^ ^ ^ s s ^ s ^ ^ ^ ^ ^ ^ ^ ^ ^ ^ ^ ^ s s s s ^ s s s s < ",
"8 w.s s s s s s s s ^ ^ ^ s s ^ ^ ^ ^ ^ ^ ^ ^ s ^ ^ ^ s ^ ^ ^ ^ ^ ^ ^ ^ ^ ^ ^ ^ ^ ^ ^ ^ j j ^ ^ ^ ^ ^ ^ W s s j j j j j j s j j j ^ ^ b j j j C ^ ^ ^ ^ ^ ^ ^ ^ ^ ^ ^ ^ ^ ^ ^ ^ ^ ^ ^ ^ s ^ ^ ^ ^ ^ s ^ ^ ^ ^ ^ s ^ ^ ^ ^ ^ ^ ^ ^ C ^ ^ ^ ^ ^ ^ ^ ^ ^ ^ ^ ^ ^ s s ^ ^ ^ ^ ^ ^ ^ ^ j j s j j ^ ^ ^ ^ ^ ^ ^ ^ ^ ^ ^ ^ ^ ^ ^ ^ ^ ^ ^ ^ ^ ^ ^ ^ ^ ^ ^ s ^ ^ ^ ^ ^ ^ ^ ^ ^ ^ ^ ^ ^ ^ ^ ^ ^ W C ^ ^ ^ ^ s ^ ^ s s s s ^ ^ ^ ^ ^ ^ ^ ^ ^ ^ ^ ^ ^ ^ ^ ^ ^ ^ s ^ ^ ^ ^ ^ ^ ^ ^ ^ ^ s s ^ s s ^ ^ ^ ^ ^ ^ ^ ^ ^ s ^ ^ ^ ^ ^ s ^ s s s s < ",
"8 w.s s s s s s s ^ ^ ^ ^ s ^ ^ ^ ^ s s C s ^ s s s ^ ^ ^ ^ ^ ^ ^ ^ ^ ^ ^ ^ ^ ^ ^ ^ ^ ^ ^ ^ ^ ^ ^ ^ ^ ^ ^ s j j j j j j j s j j j ^ ^ ^ j j j b ^ ^ ^ ^ ^ ^ ^ ^ ^ ^ ^ ^ ^ ^ ^ s ^ ^ ^ ^ ^ ^ ^ ^ ^ ^ s ^ ^ ^ ^ ^ ^ ^ ^ ^ ^ ^ ^ ^ ^ C ^ ^ ^ ^ ^ ^ ^ ^ ^ ^ ^ ^ ^ s s s s s ^ ^ ^ ^ ^ j j s j j ^ ^ ^ ^ ^ ^ ^ ^ ^ ^ ^ ^ ^ ^ ^ ^ ^ ^ ^ ^ ^ ^ ^ ^ ^ ^ ^ ^ ^ ^ s ^ ^ ^ ^ ^ ^ ^ ^ s ^ ^ s ^ C j j W ^ s s s ^ ^ s s s ^ ^ ^ ^ ^ ^ ^ ^ s ^ s ^ ^ ^ ^ ^ ^ ^ ^ s ^ ^ s ^ ^ ^ ^ ^ ^ ^ s s ^ s s ^ ^ ^ ^ ^ ^ ^ ^ ^ s ^ ^ ^ ^ s s s ^ s s s < ",
"8 w.s s f f s s s ^ s ^ s s ^ ^ ^ ^ s s s ^ ^ ^ s s ^ ^ ^ ^ ^ ^ ^ ^ ^ ^ ^ ^ ^ ^ ^ ^ ^ ^ ^ ^ ^ ^ s ^ ^ ^ ^ ^ ^ j j j j j j j j j j ^ ^ ^ C j j ^ ^ ^ ^ ^ ^ ^ ^ ^ ^ ^ ^ ^ ^ s ^ ^ ^ ^ s ^ j ^ ^ ^ ^ ^ s ^ C ^ ^ ^ ^ ^ s ^ ^ ^ ^ ^ ^ ^ ^ s s ^ ^ ^ ^ ^ ^ ^ ^ ^ ^ s ^ s s s ^ ^ ^ ^ ^ ^ ^ s ^ ^ ^ ^ ^ ^ ^ s ^ ^ ^ ^ ^ ^ ^ ^ ^ ^ ^ ^ ^ ^ ^ ^ ^ ^ ^ ^ ^ s ^ ^ s ^ ^ ^ ^ ^ ^ ^ ^ ^ ^ ^ ^ b j b W s C s s s ^ ^ s s s ^ ^ ^ ^ ^ ^ ^ ^ ^ ^ s ^ ^ ^ ^ ^ ^ ^ ^ s ^ ^ s ^ ^ ^ ^ ^ ^ ^ s s ^ s s ^ ^ ^ ^ ^ ^ ^ ^ ^ ^ s ^ ^ s s s ^ s s s s < ",
"8 w.s s s s s s s s s s ^ ^ ^ ^ ^ ^ s s ^ ^ ^ ^ s s ^ ^ ^ ^ ^ ^ ^ ^ ^ ^ ^ ^ ^ ^ ^ ^ ^ ^ ^ ^ ^ ^ s ^ W ^ ^ ^ s j j j j j j j b j j ^ ^ ^ s ^ ^ ^ ^ ^ ^ ^ s ^ ^ ^ ^ ^ ^ ^ ^ s ^ ^ ^ ^ s ^ ^ ^ ^ ^ ^ ^ ^ ^ j ^ ^ j j s s ^ ^ ^ ^ ^ ^ ^ ^ ^ s s ^ ^ s s ^ ^ ^ ^ ^ s s ^ ^ s ^ ^ ^ ^ ^ ^ ^ s ^ ^ ^ j j j C ^ ^ ^ ^ ^ ^ ^ ^ ^ b ^ ^ ^ ^ ^ ^ ^ ^ ^ ^ ^ ^ s ^ ^ ^ ^ ^ ^ ^ ^ ^ ^ ^ ^ ^ C j j j ^ ^ C b s s s ^ s s s s s ^ ^ ^ ^ ^ ^ ^ ^ ^ ^ ^ s ^ ^ ^ ^ ^ s s ^ ^ s ^ ^ ^ ^ ^ ^ ^ s s ^ s s ^ ^ ^ ^ ^ ^ ^ ^ ^ ^ ^ ^ ^ s s s s s s s s 8 ",
"8 w.s s s s s s s s s s s ^ ^ ^ ^ ^ ^ ^ ^ ^ ^ ^ ^ ^ ^ ^ ^ ^ ^ ^ ^ ^ ^ ^ ^ ^ ^ ^ ^ ^ ^ ^ ^ ^ ^ ^ ^ ^ s ^ ^ s s b j j j j C j ^ j j ^ ^ ^ s ^ ^ ^ ^ ^ ^ ^ ^ ^ ^ ^ ^ s ^ ^ ^ s ^ ^ ^ ^ s ^ ^ ^ ^ ^ W ^ ^ ^ ^ ^ ^ j b s s ^ ^ ^ ^ s s s ^ ^ ^ ^ ^ ^ s s s ^ ^ ^ ^ ^ ^ ^ ^ ^ ^ ^ ^ ^ ^ ^ ^ ^ ^ ^ ^ ^ j s j b ^ ^ ^ ^ ^ ^ ^ ^ C b j b j b ^ ^ ^ ^ ^ ^ ^ ^ ^ ^ ^ ^ ^ ^ ^ ^ ^ ^ ^ ^ ^ s j j W ^ ^ W ^ s s s ^ s s ^ s ^ ^ ^ ^ ^ ^ ^ ^ ^ ^ ^ ^ ^ ^ ^ ^ ^ ^ s s ^ ^ s ^ ^ ^ ^ ^ ^ ^ s s ^ ^ ^ ^ ^ ^ ^ ^ ^ ^ ^ ^ ^ ^ ^ ^ s s s s s s s s 7 ",
"8 w.s s s s s s s ^ ^ s s ^ ^ ^ s ^ ^ ^ ^ ^ ^ ^ ^ ^ ^ ^ ^ ^ ^ ^ ^ ^ ^ ^ ^ ^ ^ ^ ^ ^ ^ ^ ^ ^ s ^ ^ ^ s ^ ^ s s C b j j C j C ^ C ^ ^ ^ ^ s s ^ ^ ^ ^ ^ ^ ^ ^ ^ ^ ^ s ^ ^ ^ s ^ ^ ^ ^ s ^ s ^ ^ ^ ^ s ^ s ^ ^ ^ ^ W s s j ^ s s s s ^ ^ ^ ^ ^ ^ ^ s s ^ ^ ^ ^ ^ ^ ^ ^ ^ ^ ^ ^ ^ ^ ^ ^ ^ ^ ^ ^ ^ ^ j s j j j W ^ ^ ^ ^ ^ ^ ^ ^ C ^ C j j ^ ^ ^ ^ ^ ^ ^ ^ ^ ^ ^ ^ ^ ^ ^ ^ ^ ^ ^ ^ W s b W W ^ ^ ^ s s s ^ ^ ^ ^ s ^ ^ ^ ^ ^ ^ ^ ^ ^ ^ s ^ s ^ ^ ^ ^ ^ ^ s ^ ^ s ^ ^ ^ ^ ^ ^ ^ s s ^ ^ ^ ^ ^ ^ ^ ^ ^ ^ ^ s ^ ^ ^ ^ s s s s s s s s 7 ",
"8 w.s s s s s s s s ^ ^ ^ ^ ^ ^ ^ ^ ^ ^ ^ ^ C ^ ^ ^ ^ ^ ^ ^ ^ ^ ^ ^ ^ ^ ^ ^ ^ ^ ^ W ^ ^ ^ ^ ^ ^ s s ^ ^ ^ ^ ^ ^ s ^ C ^ ^ W ^ ^ ^ ^ ^ ^ W s ^ ^ ^ ^ ^ ^ ^ ^ ^ ^ ^ s ^ ^ ^ s ^ ^ ^ ^ s j s ^ ^ ^ ^ ^ ^ ^ ^ b ^ ^ ^ s j j ^ s s s s ^ ^ ^ ^ ^ ^ ^ ^ ^ ^ ^ ^ ^ ^ ^ ^ ^ ^ ^ ^ ^ ^ C ^ ^ ^ s ^ ^ ^ ^ ^ s j j j j ^ C ^ ^ ^ ^ ^ ^ ^ ^ ^ b s ^ ^ ^ ^ ^ ^ ^ ^ ^ ^ ^ ^ ^ ^ ^ ^ ^ ^ ^ ^ ^ s j s j b C ^ ^ ^ s ^ s ^ ^ ^ ^ ^ ^ ^ ^ ^ ^ ^ s ^ ^ ^ ^ ^ ^ ^ ^ ^ s s ^ ^ s ^ ^ ^ ^ ^ ^ ^ s s ^ ^ ^ ^ ^ ^ ^ ^ ^ ^ ^ s ^ ^ ^ ^ s s s s s s s s 6 ",
"8 w.s s s s s s s s s ^ s s s ^ ^ ^ ^ ^ ^ ^ ^ ^ ^ ^ ^ ^ j C C ^ ^ ^ ^ ^ ^ ^ ^ ^ ^ ^ ^ ^ ^ ^ ^ ^ s s ^ ^ ^ ^ ^ ^ s ^ ^ ^ ^ ^ ^ ^ ^ ^ ^ ^ W s ^ ^ ^ ^ ^ ^ ^ ^ ^ ^ s s ^ ^ ^ s ^ ^ ^ ^ s j j W ^ ^ ^ ^ s ^ ^ ^ ^ ^ ^ s j j ^ s s s ^ ^ ^ ^ ^ ^ ^ ^ ^ ^ ^ ^ ^ ^ ^ ^ ^ ^ ^ ^ ^ C ^ ^ C ^ ^ s ^ ^ ^ ^ j s j j j j j j j ^ ^ ^ ^ ^ ^ ^ ^ ^ s ^ ^ ^ ^ ^ ^ ^ ^ ^ ^ ^ ^ ^ ^ ^ ^ ^ ^ C W C j j s j b C ^ ^ ^ ^ ^ ^ ^ ^ ^ ^ ^ ^ s ^ ^ ^ ^ ^ ^ ^ ^ ^ ^ ^ ^ ^ ^ ^ ^ ^ ^ s ^ ^ ^ ^ ^ ^ ^ s s ^ ^ ^ ^ ^ ^ ^ ^ s ^ ^ s ^ ^ ^ ^ s ^ s s s s s j < ",
"8 w.s s s s s s s s s s s s s j j ^ W s s ^ ^ ^ ^ ^ ^ ^ j ^ ^ ^ ^ ^ ^ ^ ^ ^ ^ ^ ^ ^ ^ ^ ^ ^ ^ C ^ ^ ^ W s C ^ ^ s ^ ^ ^ j j W ^ ^ ^ ^ ^ ^ ^ ^ ^ ^ ^ ^ ^ ^ ^ ^ ^ ^ s ^ ^ ^ s ^ ^ ^ ^ s j j ^ ^ ^ ^ ^ ^ ^ ^ ^ ^ ^ ^ ^ b C ^ s ^ ^ ^ ^ ^ ^ ^ ^ ^ ^ ^ ^ s ^ ^ ^ ^ ^ ^ s ^ ^ ^ W j b ^ ^ ^ s ^ ^ ^ ^ j j j j j j j j j ^ ^ ^ ^ ^ ^ ^ ^ ^ s ^ ^ ^ ^ ^ ^ ^ ^ ^ s ^ ^ s ^ b ^ s j j ^ ^ s j j j b ^ ^ ^ ^ s ^ ^ ^ ^ ^ ^ ^ ^ s ^ ^ ^ ^ ^ ^ ^ ^ ^ ^ ^ ^ ^ ^ s ^ ^ ^ ^ ^ ^ ^ ^ ^ ^ ^ s s ^ ^ ^ ^ ^ ^ ^ ^ ^ ^ ^ ^ ^ ^ ^ ^ s ^ s s s s s s < ",
"< w.s s s s s s s s s s ^ s s j j ^ ^ s s j j ^ ^ ^ ^ ^ ^ ^ ^ ^ ^ ^ ^ ^ ^ ^ ^ ^ ^ ^ ^ ^ ^ j W ^ W C C ^ s ^ s ^ ^ ^ ^ ^ ^ W C W b ^ ^ ^ ^ ^ ^ ^ ^ ^ ^ ^ ^ ^ ^ ^ ^ s ^ ^ ^ s ^ ^ ^ ^ s j s ^ ^ ^ ^ ^ ^ ^ ^ ^ ^ ^ s ^ b ^ ^ s ^ s ^ ^ ^ ^ ^ ^ ^ ^ ^ ^ s ^ ^ ^ ^ ^ ^ ^ ^ ^ ^ ^ C W W ^ ^ s ^ ^ ^ ^ j j j j j j j j ^ ^ s ^ ^ ^ ^ ^ ^ ^ ^ ^ ^ ^ ^ ^ ^ ^ ^ ^ s ^ ^ s ^ j ^ s j ^ ^ ^ s j j j j ^ ^ ^ s s ^ ^ ^ ^ ^ ^ ^ ^ s ^ ^ ^ ^ s ^ ^ ^ ^ ^ ^ ^ ^ ^ s ^ ^ ^ s ^ ^ ^ ^ ^ ^ ^ s s ^ ^ s ^ s s s ^ s ^ ^ ^ ^ ^ ^ ^ s ^ s s s s s s < ",
"< w.s s s s s s s s ^ ^ ^ ^ ^ j W ^ ^ s j ^ s ^ ^ ^ ^ ^ ^ ^ ^ ^ ^ ^ ^ ^ ^ ^ ^ ^ ^ ^ ^ ^ ^ j j b ^ ^ ^ b s ^ s ^ ^ ^ ^ ^ ^ ^ s ^ ^ ^ ^ ^ ^ ^ ^ ^ ^ ^ ^ ^ ^ ^ ^ ^ s ^ ^ ^ s s ^ ^ ^ ^ s j s ^ ^ ^ ^ s ^ ^ ^ ^ ^ ^ ^ j j ^ ^ s ^ s ^ ^ ^ ^ ^ ^ ^ ^ ^ s s s ^ ^ ^ ^ ^ ^ ^ ^ ^ ^ ^ ^ ^ ^ ^ s ^ ^ ^ ^ b s j j j j j j s ^ ^ ^ ^ ^ ^ ^ ^ ^ ^ ^ ^ ^ b ^ ^ ^ ^ ^ ^ ^ ^ s j C W ^ ^ ^ ^ C s j j ^ W s ^ ^ ^ s ^ ^ s ^ ^ ^ ^ ^ ^ ^ ^ ^ ^ s ^ s ^ ^ ^ ^ ^ ^ ^ s ^ ^ ^ s ^ ^ ^ ^ ^ ^ ^ s s ^ s s ^ s s s s ^ ^ ^ ^ ^ ^ ^ ^ ^ ^ s s s s s s < ",
"< w.s s s s s s s s ^ ^ W W C ^ ^ ^ ^ s j s ^ s ^ ^ ^ ^ ^ ^ ^ ^ ^ ^ ^ ^ ^ ^ ^ ^ ^ ^ ^ ^ ^ W j C j ^ ^ b s ^ s s ^ ^ ^ ^ ^ ^ s ^ ^ ^ ^ ^ ^ ^ ^ s ^ ^ ^ ^ ^ ^ ^ ^ ^ ^ ^ ^ ^ ^ ^ ^ ^ s s C s ^ ^ ^ ^ s s ^ s ^ ^ ^ ^ s s ^ ^ s ^ s ^ ^ ^ ^ ^ ^ ^ s s s ^ ^ ^ ^ ^ ^ ^ s ^ ^ ^ ^ ^ ^ ^ ^ C s C ^ ^ C j j j j j j j j s b C ^ C ^ ^ s ^ ^ ^ ^ ^ j j ^ ^ ^ ^ ^ ^ ^ s s j j ^ ^ ^ ^ ^ b j j s ^ s s ^ ^ ^ s ^ ^ s ^ ^ ^ ^ ^ ^ s ^ ^ ^ ^ ^ s ^ ^ ^ ^ ^ ^ ^ s ^ ^ ^ s ^ ^ ^ ^ ^ ^ ^ s s ^ ^ s ^ ^ ^ s s ^ ^ ^ ^ ^ ^ s ^ ^ ^ s s s s s s 8 ",
"< w.s s s s s s s s ^ ^ ^ C b ^ ^ ^ ^ j j ^ ^ s ^ s ^ ^ ^ ^ ^ ^ ^ ^ ^ ^ ^ ^ s ^ ^ ^ ^ ^ ^ s ^ ^ s s s j s ^ s s ^ ^ j ^ ^ ^ s j j s ^ ^ ^ ^ ^ ^ ^ ^ ^ ^ ^ ^ ^ ^ ^ ^ ^ ^ s s s ^ ^ s s ^ s ^ ^ ^ ^ s ^ ^ ^ ^ ^ ^ ^ s s ^ ^ s ^ s ^ ^ ^ ^ ^ ^ ^ ^ ^ ^ ^ ^ ^ ^ ^ ^ ^ s ^ ^ ^ ^ ^ ^ ^ ^ W s j ^ ^ j j j j b b s j j j j j j j j C C ^ ^ ^ ^ ^ s j ^ ^ ^ ^ ^ ^ ^ ^ s ^ W b s W C ^ ^ ^ ^ ^ ^ s ^ ^ ^ ^ ^ ^ ^ ^ s ^ ^ ^ s ^ s ^ ^ ^ ^ ^ s ^ ^ ^ ^ ^ ^ ^ ^ ^ ^ ^ s ^ ^ ^ ^ ^ ^ ^ s s ^ ^ s ^ ^ ^ ^ ^ j j ^ ^ s s s s ^ ^ s s s s s s 8 ",
"< w.s s s s s s s s ^ ^ ^ C j j W j b b b ^ ^ s ^ ^ ^ ^ ^ ^ ^ ^ ^ ^ ^ ^ ^ ^ s ^ ^ ^ ^ ^ ^ s s ^ s s s ^ s ^ s s s ^ ^ ^ ^ ^ s j j ^ ^ ^ ^ ^ ^ ^ ^ ^ ^ ^ ^ ^ ^ ^ ^ ^ ^ ^ ^ ^ s ^ s s s s s j ^ ^ ^ s ^ ^ ^ ^ ^ s ^ s ^ ^ s s ^ ^ ^ ^ ^ s ^ ^ ^ s ^ ^ ^ ^ ^ ^ ^ ^ ^ s ^ ^ ^ ^ ^ ^ ^ ^ ^ s ^ ^ j j j j j j j j j j j j j j j s ^ ^ ^ ^ ^ ^ ^ s ^ ^ ^ ^ ^ ^ ^ ^ ^ j j j j s j C ^ ^ ^ ^ ^ ^ s ^ ^ ^ ^ ^ ^ ^ ^ ^ ^ ^ ^ s ^ ^ ^ ^ ^ ^ ^ s ^ ^ ^ ^ ^ ^ ^ ^ ^ ^ ^ ^ ^ ^ ^ ^ ^ ^ ^ s s ^ ^ ^ ^ ^ ^ ^ ^ ^ ^ ^ ^ s s s s ^ ^ s s s s s s < ",
"< w.s s s s s s s s s ^ j j j ^ s j j ^ ^ ^ ^ ^ ^ ^ ^ ^ ^ ^ s ^ s ^ ^ ^ ^ ^ s ^ ^ ^ ^ ^ ^ s s ^ s ^ s ^ s ^ s ^ ^ ^ ^ ^ ^ ^ ^ ^ ^ ^ ^ ^ ^ ^ ^ ^ ^ ^ s ^ ^ s ^ ^ ^ ^ ^ ^ s ^ s ^ s s ^ s s j j z j j j ^ ^ ^ ^ s ^ s ^ ^ s s s ^ ^ ^ ^ ^ ^ ^ ^ ^ ^ ^ ^ ^ ^ ^ ^ ^ ^ s ^ ^ ^ ^ ^ ^ ^ ^ ^ s ^ ^ j b j j z z j j j j j j j j C ^ ^ ^ ^ ^ ^ ^ ^ s ^ ^ ^ s s s ^ ^ ^ ^ j j j j j j C j s ^ ^ ^ s ^ ^ ^ ^ s ^ ^ ^ ^ s ^ ^ ^ ^ s ^ ^ ^ ^ s s ^ ^ s ^ ^ ^ ^ ^ ^ ^ ^ s ^ ^ ^ ^ ^ ^ ^ ^ ^ ^ ^ ^ ^ s ^ ^ ^ ^ ^ ^ s s s s ^ s s s s s s s s < ",
"< w.s s s s s s s s s f j j C ^ ^ C s ^ s ^ ^ s s ^ ^ ^ s ^ ^ s ^ ^ ^ ^ ^ ^ s ^ ^ ^ ^ ^ ^ s s ^ s ^ s ^ ^ ^ ^ ^ ^ ^ ^ ^ ^ ^ ^ ^ ^ ^ ^ ^ ^ ^ s ^ ^ ^ ^ ^ ^ ^ ^ ^ s ^ ^ ^ ^ ^ ^ s s s ^ s s j j j j j j j ^ ^ ^ s ^ ^ s ^ ^ s ^ ^ ^ ^ ^ ^ ^ ^ ^ ^ ^ ^ ^ ^ ^ ^ j W s s ^ ^ ^ ^ ^ ^ ^ ^ ^ s ^ ^ C j j j j b s j j W j j j C ^ ^ s ^ ^ ^ ^ ^ ^ ^ s ^ ^ ^ ^ s ^ ^ ^ ^ j j j j j j b W j j W ^ s s ^ ^ ^ ^ ^ ^ ^ ^ s ^ ^ s ^ s ^ ^ ^ ^ s s ^ ^ ^ ^ ^ ^ ^ ^ ^ ^ ^ s ^ ^ ^ ^ ^ ^ ^ ^ ^ s ^ ^ ^ s ^ s ^ ^ ^ ^ ^ s ^ ^ ^ s s s s s s s s < ",
"< w.s s s s s s s s j j s ^ ^ ^ ^ ^ ^ ^ ^ ^ ^ s ^ ^ ^ s s s s s ^ ^ ^ ^ ^ s s ^ ^ ^ ^ ^ ^ ^ s s s ^ s j s ^ ^ ^ ^ ^ ^ ^ ^ s ^ ^ ^ W j ^ ^ ^ s ^ ^ s ^ ^ ^ ^ ^ ^ ^ ^ ^ ^ ^ ^ ^ s ^ s ^ s ^ j j j j j s j j j ^ s ^ s s ^ ^ ^ ^ ^ s s ^ ^ ^ ^ ^ ^ ^ ^ ^ ^ ^ ^ j j s s ^ ^ ^ ^ ^ ^ ^ ^ ^ ^ ^ ^ ^ C b j j j j b C b C ^ s C ^ ^ s ^ ^ ^ ^ ^ ^ ^ ^ ^ ^ ^ ^ ^ ^ ^ ^ ^ W W ^ ^ C j j ^ ^ j ^ ^ s s ^ ^ ^ ^ ^ ^ ^ ^ s ^ ^ s ^ s ^ ^ ^ ^ s s ^ ^ ^ ^ ^ ^ ^ s ^ ^ ^ s ^ ^ ^ ^ ^ ^ ^ s ^ ^ ^ ^ s ^ s s s ^ ^ ^ ^ ^ ^ s s s s s s s s s s 8 ",
"8 w.s s s s s j s s j j s s ^ ^ ^ ^ ^ ^ ^ s s s ^ ^ ^ s ^ s s ^ ^ ^ ^ ^ ^ ^ s ^ ^ ^ ^ ^ ^ s s s s ^ s ^ ^ s ^ ^ ^ ^ ^ ^ ^ ^ s ^ ^ j C ^ ^ ^ s ^ s s ^ ^ ^ ^ ^ ^ ^ ^ ^ ^ ^ s ^ ^ ^ s s s ^ j j j j s s j j j ^ s ^ s s ^ ^ s ^ ^ ^ ^ ^ ^ W ^ ^ ^ ^ ^ ^ ^ ^ ^ j j s s ^ ^ ^ ^ ^ ^ ^ ^ ^ ^ ^ ^ ^ b j j b j j W s j j j s ^ ^ W s ^ ^ ^ ^ ^ ^ ^ ^ C ^ ^ ^ ^ ^ ^ ^ ^ ^ ^ ^ ^ ^ ^ j ^ ^ ^ s ^ ^ s ^ ^ ^ s ^ ^ ^ s s s ^ s ^ ^ ^ ^ s ^ s ^ ^ ^ s ^ ^ ^ ^ s ^ ^ ^ ^ ^ ^ ^ ^ ^ ^ ^ ^ ^ ^ ^ ^ s s s s s ^ ^ ^ s ^ s s s s s s s s s s s 8 ",
"8 w.s s s s s s s s s f s s s s ^ ^ ^ ^ ^ s s s ^ ^ ^ ^ j ^ s ^ ^ s ^ ^ ^ ^ s ^ ^ ^ ^ ^ ^ s ^ s s s s ^ ^ s s s ^ ^ ^ ^ ^ ^ s ^ ^ W ^ j z ^ s ^ s s ^ ^ ^ ^ ^ ^ ^ ^ ^ ^ ^ ^ ^ ^ ^ ^ s s ^ b j j C j s ^ ^ C ^ s ^ s s ^ ^ s ^ ^ ^ ^ ^ ^ ^ ^ ^ ^ ^ ^ ^ ^ ^ ^ ^ j s ^ ^ ^ ^ ^ ^ ^ ^ ^ ^ s ^ ^ ^ ^ s j C j s j s j j j s C W s ^ ^ ^ ^ ^ ^ ^ ^ ^ b ^ ^ ^ ^ ^ ^ ^ ^ ^ ^ ^ ^ ^ ^ ^ s s ^ s ^ s s ^ s ^ s ^ ^ ^ ^ s s ^ s ^ ^ ^ ^ s ^ ^ ^ ^ ^ s ^ ^ ^ ^ s ^ ^ ^ ^ ^ ^ ^ ^ ^ ^ ^ ^ ^ ^ ^ ^ ^ s s s ^ ^ ^ s s s s ^ s s s s s s s s s 8 ",
"8 w.s s s s s s s s s s s s s s ^ ^ ^ ^ s s ^ s ^ ^ ^ ^ j W W s s s ^ ^ ^ ^ s ^ ^ ^ ^ ^ ^ s ^ ^ ^ s ^ ^ s s s ^ ^ s ^ ^ ^ s s ^ ^ ^ ^ ^ j ^ s ^ s s ^ ^ ^ s ^ ^ ^ C ^ ^ ^ s ^ ^ ^ ^ s s ^ j j ^ ^ ^ s ^ ^ ^ ^ s ^ s s ^ ^ s ^ s ^ ^ s ^ ^ ^ ^ ^ ^ ^ ^ ^ ^ ^ ^ j j C ^ ^ ^ ^ ^ ^ ^ ^ ^ s ^ ^ ^ ^ s s ^ j s W s j j j s j j b ^ ^ ^ ^ ^ ^ ^ ^ ^ W ^ ^ ^ ^ ^ ^ ^ ^ ^ ^ ^ ^ ^ ^ ^ s s ^ s ^ s s ^ s s s s ^ ^ ^ ^ s ^ ^ ^ ^ ^ ^ ^ ^ s ^ ^ ^ s ^ ^ s s s ^ ^ ^ ^ ^ ^ ^ ^ ^ ^ ^ s ^ ^ ^ ^ ^ s s s ^ ^ ^ s s s s ^ s s s s s s s s s < ",
"8 w.s s s s j s s s s s s s s s s ^ ^ ^ s s s s ^ ^ ^ b j C s s ^ s s s ^ ^ s s s ^ ^ ^ ^ s ^ ^ ^ s ^ ^ s ^ s ^ ^ s ^ ^ ^ s ^ ^ ^ ^ ^ s s ^ s s s s ^ ^ ^ s ^ ^ s ^ ^ ^ ^ s ^ ^ ^ ^ s ^ ^ ^ ^ ^ ^ s ^ ^ ^ ^ W s ^ s s ^ s s ^ ^ s ^ s ^ ^ ^ ^ ^ ^ s s ^ ^ ^ ^ j s j ^ ^ ^ W ^ ^ s ^ ^ s ^ ^ ^ ^ s s ^ ^ ^ b j j j j s j ^ ^ ^ ^ ^ ^ ^ ^ ^ ^ ^ ^ ^ s ^ ^ ^ ^ ^ ^ ^ ^ ^ ^ ^ ^ ^ ^ ^ s s ^ s s ^ s s s ^ ^ ^ ^ ^ ^ ^ s ^ ^ ^ ^ ^ ^ s ^ ^ ^ ^ ^ ^ s s s ^ ^ ^ ^ ^ ^ ^ ^ ^ ^ ^ ^ s s s ^ s s s s ^ ^ s j s s s ^ s s s s s s s s s 8 ",
"8 w.s s s s f s s s j s s s s s ^ ^ ^ ^ s s s ^ ^ ^ ^ ^ C j s s ^ ^ s s s ^ s s s ^ ^ ^ ^ ^ ^ ^ s s ^ s s ^ s ^ ^ s ^ ^ ^ ^ ^ ^ ^ ^ ^ s ^ ^ s ^ ^ s ^ s ^ s ^ ^ s b b ^ ^ s ^ ^ ^ ^ s ^ ^ ^ ^ ^ ^ s s ^ ^ ^ ^ s ^ s s ^ s s ^ ^ ^ ^ ^ s ^ ^ ^ ^ ^ s ^ ^ ^ ^ ^ j s j j ^ ^ j C ^ ^ ^ ^ s ^ ^ ^ ^ ^ ^ ^ ^ ^ W j s j j s ^ ^ ^ ^ b j W ^ ^ ^ W ^ ^ ^ ^ ^ ^ ^ ^ ^ ^ ^ ^ ^ ^ ^ ^ ^ s ^ ^ s ^ s ^ ^ s s ^ ^ ^ ^ ^ ^ ^ ^ ^ ^ ^ ^ ^ ^ ^ s ^ ^ ^ ^ ^ ^ s s ^ ^ ^ ^ ^ ^ ^ ^ ^ s ^ ^ ^ s ^ s s s ^ s s ^ ^ s s s s s ^ s s s s s s s s s 8 ",
"8 w.s s s s j j s s j s s j s ^ ^ ^ ^ s s ^ s ^ ^ s ^ ^ ^ j W ^ ^ ^ ^ s ^ ^ s s ^ ^ ^ ^ ^ ^ s ^ s ^ ^ s ^ ^ ^ ^ ^ ^ ^ ^ ^ ^ ^ ^ ^ ^ ^ s ^ ^ s ^ ^ s ^ s s ^ ^ ^ s W ^ ^ s s s ^ ^ ^ s ^ ^ ^ ^ ^ ^ s s ^ ^ ^ ^ s ^ s s s s s ^ s ^ ^ ^ ^ ^ ^ ^ ^ ^ ^ ^ ^ ^ ^ ^ ^ s j j ^ ^ j j j j W ^ ^ ^ ^ ^ ^ s ^ s ^ ^ ^ j j j j s b W C ^ ^ ^ s ^ s b j ^ ^ ^ ^ ^ ^ ^ ^ s ^ ^ ^ ^ ^ ^ ^ ^ s ^ ^ s ^ ^ ^ ^ ^ s ^ ^ ^ ^ ^ s ^ ^ ^ ^ ^ ^ s ^ ^ s ^ ^ ^ ^ ^ ^ ^ ^ ^ ^ ^ ^ ^ ^ ^ ^ ^ s ^ ^ s s s s s s ^ ^ ^ ^ ^ ^ s s s s s s s s s s s s s s 8 ",
"8 w.s s s s j j s s s s s s ^ ^ ^ s ^ ^ ^ ^ s ^ ^ ^ ^ ^ ^ j s ^ ^ ^ ^ ^ ^ ^ s ^ ^ ^ ^ ^ ^ ^ ^ ^ s ^ ^ s ^ ^ ^ s ^ ^ ^ ^ ^ s s s ^ ^ ^ ^ C j s ^ ^ s ^ s s ^ ^ s ^ ^ ^ ^ s ^ ^ ^ s ^ s ^ ^ ^ ^ ^ ^ s s ^ ^ ^ ^ s ^ s s s s s s ^ s ^ ^ ^ ^ ^ ^ ^ ^ ^ ^ ^ ^ ^ ^ ^ s ^ j j ^ ^ C j b j ^ s ^ ^ ^ ^ s ^ s ^ s ^ ^ ^ ^ ^ b C ^ ^ ^ C j ^ ^ s b j ^ ^ ^ ^ ^ ^ ^ ^ s s ^ ^ s ^ ^ ^ ^ s ^ ^ s ^ ^ ^ ^ s s ^ ^ ^ ^ ^ s ^ ^ ^ ^ ^ ^ s ^ ^ ^ ^ ^ ^ ^ ^ ^ ^ s ^ ^ ^ ^ ^ ^ ^ ^ ^ s ^ ^ s s s s ^ s s s s s s s s ^ s s s s s s s s s s s s < ",
"8 w.s s s s s j s s s s s s ^ ^ ^ s s s s ^ s ^ ^ s ^ ^ ^ s s ^ ^ ^ ^ ^ ^ ^ s ^ ^ ^ ^ ^ ^ ^ s ^ s ^ ^ s ^ ^ ^ s ^ ^ ^ ^ ^ ^ s ^ ^ ^ ^ s C j s s ^ s s ^ s ^ ^ s s ^ ^ ^ s ^ ^ ^ s ^ ^ s ^ ^ ^ ^ ^ s s ^ ^ ^ ^ s ^ s ^ ^ s ^ ^ ^ ^ ^ ^ ^ ^ ^ ^ s ^ ^ ^ ^ ^ ^ ^ ^ ^ C C j s ^ ^ ^ ^ j j s ^ ^ ^ ^ s ^ s ^ s ^ ^ ^ s s s ^ ^ ^ ^ j j ^ ^ s ^ j s ^ ^ ^ ^ ^ ^ ^ ^ s ^ ^ s ^ ^ ^ ^ ^ ^ ^ ^ ^ s s ^ s s ^ ^ ^ ^ ^ ^ ^ s s ^ ^ ^ s ^ s ^ ^ ^ ^ ^ ^ s s s ^ ^ ^ ^ ^ ^ ^ ^ ^ ^ ^ s ^ s s s ^ ^ s s s s s s s ^ s s s s s s s s s s s s < ",
"8 w.s s s s s j s s s s s s s s s s s s s s s ^ ^ s s s s s s s ^ ^ ^ ^ ^ ^ s ^ ^ ^ ^ ^ s s ^ ^ s ^ ^ ^ ^ ^ s ^ s ^ ^ ^ ^ ^ ^ ^ ^ ^ ^ ^ ^ ^ s s ^ s s ^ s ^ ^ s ^ ^ ^ ^ s ^ ^ ^ s ^ ^ ^ ^ ^ ^ ^ ^ s ^ ^ ^ ^ ^ s ^ s ^ ^ s ^ ^ ^ ^ ^ ^ ^ ^ ^ ^ ^ s ^ ^ ^ ^ ^ ^ s ^ ^ ^ j s ^ ^ ^ s s j s j ^ ^ ^ s ^ ^ ^ s ^ ^ ^ ^ s s ^ ^ ^ ^ j j W s s j ^ ^ ^ ^ s ^ ^ ^ ^ ^ s ^ ^ s s s ^ ^ ^ ^ ^ s ^ s s ^ s s ^ ^ ^ ^ s ^ ^ s s ^ ^ ^ s ^ s ^ ^ ^ ^ ^ ^ s s s ^ ^ ^ ^ ^ ^ ^ ^ ^ ^ ^ ^ s s s s ^ ^ s s s s s ^ ^ s ^ s s s s s s s s s s s < ",
"< w.s s s s s s s s s s s s s s s s s s s s s s s s ^ ^ s s s s ^ ^ s s ^ s s s ^ ^ ^ ^ ^ s s ^ s ^ ^ ^ ^ ^ s ^ ^ ^ ^ ^ ^ s ^ s ^ ^ ^ ^ ^ ^ ^ s s s ^ ^ s ^ ^ ^ ^ ^ ^ s s s ^ ^ s ^ ^ s ^ ^ ^ ^ ^ s ^ ^ ^ ^ s s s s s ^ s ^ ^ ^ s s s ^ ^ ^ ^ ^ ^ ^ ^ ^ ^ ^ ^ s s ^ s s s ^ ^ ^ s ^ C s j ^ ^ ^ ^ ^ s ^ s ^ ^ ^ ^ ^ ^ ^ ^ ^ C s s j W s b ^ ^ ^ s s ^ s ^ ^ ^ ^ ^ ^ s s ^ ^ ^ ^ ^ ^ s ^ ^ s ^ ^ s ^ s ^ ^ s ^ ^ ^ s ^ ^ ^ ^ ^ s ^ ^ ^ ^ ^ ^ s s s ^ ^ ^ ^ ^ ^ ^ ^ ^ ^ ^ ^ s s s s s s s j s s s s ^ s s s s s s s s s s s s s 8 ",
"< w.s s s s s s s s s s s s s s s s s s s s s s s ^ ^ s s s s s ^ s s s s s s s ^ ^ ^ ^ ^ s ^ ^ s s ^ ^ ^ ^ ^ s ^ ^ ^ ^ ^ s s ^ s ^ ^ ^ ^ ^ ^ ^ ^ s ^ ^ ^ ^ ^ s s ^ ^ s s s ^ ^ s ^ ^ s ^ ^ ^ ^ s s ^ ^ ^ ^ s s ^ ^ s ^ s ^ ^ s s s s s ^ ^ s ^ ^ ^ ^ ^ ^ ^ s s s ^ ^ ^ ^ ^ ^ ^ ^ ^ ^ s j s ^ ^ ^ ^ ^ ^ s ^ ^ ^ ^ C ^ ^ ^ ^ ^ s s s j s j f s s s s s s ^ ^ ^ ^ ^ s s s ^ ^ ^ ^ ^ ^ ^ ^ s ^ ^ ^ ^ ^ s ^ ^ s s ^ s s ^ ^ ^ s ^ s s ^ ^ ^ ^ ^ s ^ s ^ ^ ^ ^ ^ ^ ^ ^ ^ s ^ ^ s s s s ^ s s s s s s s ^ s s s s s s s s s s s s s 8 ",
"< w.s s s s s s s s s s s s s s s s s s s s s s s ^ ^ ^ s s s ^ ^ ^ ^ ^ s ^ s ^ ^ ^ ^ ^ ^ s ^ ^ s ^ ^ ^ ^ ^ ^ s ^ ^ ^ ^ ^ ^ s s s ^ ^ ^ ^ ^ ^ ^ ^ s ^ ^ ^ ^ ^ ^ ^ ^ ^ ^ ^ s C ^ s ^ ^ s ^ ^ ^ ^ s C ^ ^ j ^ s s ^ ^ s ^ s ^ ^ ^ ^ s s s ^ s s s ^ ^ s ^ ^ ^ s s s s s ^ ^ ^ ^ ^ s s s s j s ^ ^ ^ ^ ^ s s ^ ^ ^ ^ ^ s ^ ^ ^ ^ s s j j j j s ^ ^ s s s s s ^ ^ s ^ s s s s ^ ^ s ^ ^ ^ ^ s ^ s ^ s ^ ^ ^ ^ s s ^ ^ ^ ^ ^ ^ s ^ ^ s ^ ^ ^ ^ ^ s ^ s ^ ^ ^ ^ ^ ^ ^ ^ ^ s ^ ^ s s s s ^ s s s s s s ^ ^ s s s s s s s s s s s s s 8 ",
"8 w.s s s s s s s s s s s s s s s s s s s s s s s ^ ^ ^ ^ ^ s ^ ^ ^ ^ ^ ^ ^ ^ ^ ^ ^ ^ ^ ^ ^ ^ ^ s ^ ^ ^ ^ ^ s s ^ ^ ^ ^ ^ ^ ^ ^ ^ ^ ^ ^ ^ ^ ^ ^ s s ^ s ^ ^ ^ s ^ ^ s s C b W ^ ^ ^ ^ ^ ^ ^ ^ ^ s ^ ^ ^ ^ ^ s s ^ ^ s ^ s ^ ^ ^ ^ ^ s s ^ ^ s s s s s ^ ^ s s s s s s ^ ^ ^ ^ ^ s s s s s s ^ ^ ^ ^ s s s ^ ^ ^ ^ ^ s ^ ^ ^ ^ C j j j s s s ^ ^ s s s s s s s s s s ^ s s ^ ^ s ^ ^ ^ ^ s ^ s ^ s ^ s ^ ^ s s ^ ^ ^ ^ s s s ^ ^ s s ^ ^ ^ ^ s ^ s ^ ^ ^ ^ ^ ^ ^ ^ ^ ^ ^ ^ s s s ^ ^ s s s s s s ^ ^ s s s s s s s s s s s s s 8 ",
"< w.s s s s s s s s s s s s s s s s W s s s s s s ^ ^ ^ ^ ^ ^ ^ ^ ^ ^ ^ ^ s s ^ ^ ^ ^ ^ s ^ ^ ^ s ^ ^ ^ ^ ^ ^ ^ ^ ^ ^ ^ ^ ^ ^ ^ ^ ^ s s s ^ s ^ s s s s ^ s ^ s ^ ^ s s C s ^ s ^ ^ ^ s ^ ^ ^ s s ^ ^ ^ ^ ^ ^ ^ ^ s ^ ^ ^ ^ ^ ^ ^ ^ ^ s ^ ^ ^ s s s s ^ ^ s s s s ^ ^ ^ ^ ^ ^ ^ ^ s s s s s ^ ^ s ^ s s s ^ ^ ^ ^ ^ s ^ ^ ^ j j f j b ^ s s s ^ s s s s s s s s s ^ ^ s s ^ ^ s s s ^ ^ s ^ ^ ^ ^ ^ s ^ ^ s s ^ s ^ ^ s s s ^ s s ^ ^ ^ ^ ^ s ^ s ^ ^ ^ ^ ^ b ^ ^ ^ ^ ^ ^ s s s ^ s s s s s s s s s s s s s s s s s s s s s s < ",
"< w.s s s s s s s s s s s s s s s s ^ ^ s s s s s s s s s ^ ^ ^ ^ ^ ^ ^ ^ ^ ^ ^ ^ s ^ ^ s ^ ^ ^ s ^ ^ ^ ^ ^ ^ ^ ^ s ^ ^ ^ ^ ^ ^ ^ s s s s ^ s ^ s s s ^ ^ s ^ s s ^ ^ s j s ^ ^ ^ ^ ^ s ^ ^ ^ ^ s ^ ^ ^ ^ ^ s ^ ^ ^ ^ ^ ^ s s ^ s ^ ^ ^ s ^ ^ s s s s ^ ^ s s s s ^ ^ ^ s ^ ^ ^ s s s s s s ^ ^ s ^ s s s ^ ^ ^ ^ ^ s ^ ^ ^ j j j j j C s s s s s s s s s s s s s ^ ^ ^ ^ ^ ^ s s s s ^ ^ ^ ^ ^ ^ ^ ^ ^ ^ s ^ s ^ ^ ^ ^ ^ s ^ s s ^ ^ ^ ^ ^ s ^ ^ ^ ^ ^ W W ^ s ^ ^ ^ ^ ^ ^ s s s s s s s s s s s s s s s s s s s s s s s s s < ",
"< w.s s s s s s s s s s s s s s s s ^ ^ ^ ^ ^ ^ s s s s s s s ^ ^ ^ s ^ ^ ^ s ^ ^ s s s s ^ s ^ s ^ ^ ^ ^ ^ ^ s ^ ^ ^ ^ ^ s s s ^ ^ ^ ^ s s s ^ s s s ^ ^ s ^ s ^ ^ s s j W ^ ^ ^ ^ ^ s ^ ^ ^ ^ s b ^ ^ ^ ^ s ^ s s ^ ^ ^ s s s s ^ ^ ^ s s s ^ ^ ^ s ^ s ^ ^ s s ^ ^ ^ ^ ^ ^ ^ s s s s s s ^ ^ s ^ s ^ ^ ^ ^ ^ ^ ^ s ^ ^ ^ ^ b C j ^ ^ ^ s ^ s s s s s s s s ^ s s s ^ ^ ^ s s s ^ s s s ^ ^ ^ s ^ s ^ ^ ^ ^ ^ ^ ^ ^ ^ ^ s ^ s ^ ^ ^ ^ ^ ^ s ^ s s ^ ^ ^ ^ ^ s ^ ^ s s ^ s s s s s s s s s s s s s s s s s s s s s s s s s s < ",
"< w.s s s s s s s s s s s s s s s s s s s s s s s s s s s s s s s s s s s s s s s s s s s s s ^ s s s s s s s s ^ ^ s s ^ s s s s ^ ^ ^ ^ s s s ^ ^ ^ s ^ ^ ^ ^ ^ ^ s s ^ ^ ^ ^ ^ ^ ^ s ^ ^ ^ ^ s j ^ ^ ^ ^ s ^ s s ^ ^ s s s s s s ^ s s s s ^ ^ ^ s s ^ ^ ^ s ^ ^ s s ^ s s s s s s s s s ^ s s ^ s s ^ ^ ^ ^ ^ ^ ^ ^ s s s s s j ^ ^ ^ s s s s s j j s s ^ ^ ^ s s ^ ^ ^ s ^ ^ ^ ^ s s ^ ^ ^ ^ ^ s ^ ^ ^ ^ ^ ^ ^ ^ ^ ^ s ^ s ^ ^ ^ ^ ^ ^ s ^ ^ ^ ^ ^ ^ ^ ^ s s s s s s s s s s s j j s s s s s s s s s s s s s s s s s s s 8 ",
"8 w.s s s s s s s s s s s s s s s s s j j j s s s s s s s s s s s s s s s s s s s s s s s s s s s s s s ^ ^ ^ s ^ ^ s s s s s s s s s s ^ ^ ^ ^ s ^ ^ s ^ ^ ^ ^ ^ ^ s s ^ ^ ^ s ^ b s ^ ^ ^ ^ ^ s s s ^ s ^ s ^ s s s ^ s ^ ^ s s s s s ^ ^ ^ s s s s s s s s s ^ ^ s ^ ^ s s s s s s s s s ^ s s ^ s s ^ ^ s s ^ ^ s ^ ^ ^ s s s s s s W s s s s s j j j s ^ ^ ^ s s s s ^ ^ s ^ s s s s ^ ^ ^ ^ s s s s ^ ^ ^ ^ ^ ^ ^ ^ s ^ s ^ ^ ^ s ^ ^ s ^ s ^ ^ ^ ^ ^ ^ ^ s s s s s s s s s s j j s s s s s s s s s s s s s s s s s s s 8 ",
"8 w.s s s s s s s s s s s s s s s s s f j j s s s s s s s s s s s s s s s s s s s s s s s s s s s s ^ s ^ ^ ^ s ^ s s s s s s s s s C W ^ s s s s s s s s s s s ^ ^ ^ s ^ s ^ ^ ^ s ^ ^ ^ C ^ ^ s s s s s ^ ^ b s s s s s s ^ s s s s s ^ ^ ^ ^ s s s s s s s j ^ ^ ^ ^ s s s s s s s s s s ^ s ^ ^ ^ s ^ s s s s s C ^ s s ^ s s s s s j s s ^ s ^ ^ j j s s ^ ^ ^ s s s s ^ ^ ^ s s s ^ s s ^ s s s s ^ ^ ^ s ^ ^ ^ ^ s s ^ s ^ s s s s ^ s ^ s ^ ^ ^ ^ s s s s s s s s s s s s s j s s j s s s s s s s s s s s s s s s s s 8 ",
"8 w.s s s s s j s s s s s s s s s j s s j f s s s s s s s s s s s s s s ^ s s s s s s s s s s s s s s s s s ^ s s s s ^ b s s s s s W W s s ^ s s s s s s s s s s s s s s s s s s s s s s C s s s s s s s s s f j j ^ s s s s j s s s ^ ^ ^ ^ ^ ^ s s s s s s s s ^ ^ ^ s s s s s s s s s s ^ s ^ ^ ^ s s s s ^ s f C ^ s s j s s s f j j j j s s s ^ ^ ^ s s ^ ^ s s s s s ^ s s s s s s s s s s ^ s s ^ ^ ^ s s ^ ^ s s s ^ s s s s s ^ ^ s ^ s s s ^ s s s s s s s s s s s s s s s s s j s s s s s s s s s s s s s s s s s 8 ",
"8 w.s s s s s s s s s j s s s s s s s s s a s s s s s s s s s s s s s s s s s s s s s s s s s s s s s s s ^ s s s s ^ ^ ^ s s s s s s s s s ^ s s s s s s s s s s s s s s s s s s s s s s ^ s s s s s s s s s s s f j s s s s s s s ^ ^ ^ ^ ^ ^ ^ s s s s s s s s s ^ s s s s s s s s ^ s s ^ s ^ s s s s s s s f j j ^ s f j j f s j j j j j s s s j j ^ ^ s s ^ ^ s s s s s s s s s s s s s s s ^ ^ ^ s ^ ^ s s s s s s s ^ s s s ^ ^ ^ ^ s ^ s s s s s s s s s s s s s s s s s s s s f s s s s s s s s s s s s s s s s s s 8 ",
"8 w.s s s s j s s s s s s s j s s s s s f f s s s s s s s s s s s s s s s s s f s s s s s s s s s s s s s s s s s s s s s s s s s s s s s s s s s s s s s s s s s s s s s s ^ ^ s s s s s s s s s s s s s s s s s j j j s s s s s s s ^ ^ ^ ^ ^ s s s s j j s s ^ s ^ s s s s s s s s s s s ^ s s s ^ s s s s s a f s s s s j j j s a j j j j ^ ^ C b W ^ s s s ^ s s s s s s s s s ^ s s s s s s s ^ ^ s s s s s s s s s s s s s s s s s s s s s s s s s s s s s s s s s s s s s s s s ^ s s s s s s s s s s s s s s s s s s 8 ",
"8 w.s s s s j s j s s s s s j f s s s s j j j s s s s s s s s s s s s s s s s s s s s s s s s s s s s s s s s s s s s s s s s s s s s s s s s s s s s s s s s s s s s s s ^ ^ ^ s s s s s s s s s s s s s s s s s j s s s s s s s s s s ^ ^ ^ s s s s f j j s s ^ ^ ^ s s s s s s s s s s ^ ^ s s ^ ^ ^ s j j ^ s s s s s s s f j s ^ j j s s s s ^ s s j j s s s ^ s s s s s s s s ^ ^ s s s s s s s s s s s s s ^ s s s j j s s s s s s s s s s s s s s s s s s s s s s s s s s s s s s ^ s s s s s s s s s s s s s s s s s 8 ",
"< w.s s s s s s j f j s s s j j j s s s s j j s s s s s s s s s s s s s s s s s s s s s s s s s s s s s s s s s s s s s s s s s s s s s s s s s s s s s s s s s s s s s s ^ ^ s s j s s s s s s s s s s s s s j s s s s s s s s s s s s s ^ s s s s s s b j s s ^ C C s s s s s ^ s s s s ^ s s s ^ s s s s j s s s s ^ s s s s s s s s j ^ s s C ^ s s s s s s s s s s s s s s s s ^ s s s s s s s s s s s s s s s s s s j j s s s s s s s s s ^ ^ s s s s s s s s s s s s s s s s s s s s s s s s s s s s s s s s s s s s s 8 ",
"< w.s j j s j s s s j f s j s s s s s s s j s s s s s s s s s s s s s s s s s s s s s s s s s ^ s s s s s s s s s s s s s s s s s s s s s s s s s s s s s s s s s s s s s s s s s j s s s s s s s s s s s s s j s s s s s j f s s s s s s s s s s s ^ ^ ^ j s s W ^ s j s s ^ C j j s s s ^ s s s s s s s s s s s s s ^ ^ s s s s s s s s ^ ^ s f ^ ^ j s s ^ ^ s s s j s s s s s s ^ ^ s s s s s s s s s s s s s s s s s s a s s s s s s s s s s s s s s s s s s s s s s s ^ s s s s s f s s s s s s s s s s s s s s s s s s 8 ",
"8 w.s s j j j s j s s s s j s s s s s s s s s s s s s s s s s s s s s s s s s s s s s s j j f s s s s s s s s s s s s s s s f s s s s s s s s s s s s s s s j s s s s s s s s s s s j s s s s s j s s s s ^ s j s s s s s s s s s s s s s s s s s s s s ^ ^ s s s ^ C s s j s ^ ^ j s s s s s s s s s s j j j f s s s ^ ^ s ^ ^ s ^ ^ s s s s ^ s s ^ ^ s ^ ^ ^ s s j j ^ ^ ^ s s s ^ s s s s s s s s s s s s s s j j j s s s s j j s s s s s s s s s s j s s s s s s s s s s ^ ^ ^ b s j j s s s s s s s s s s s s s s s s s < ",
"< w.s s j j j j s s s s s s s s s s s s s s s s s s s s s s s s s s s s s s s s s s s s j j j s s j s s s s s s s s s s s s s s s s s s s s s s s s s s s j s s s s s s s s s s s s s s s s s s j s s s s s s j s s s s s s s s s s s s s s s s s s s s ^ s s s s ^ ^ s f j s ^ s s s s s s s s s ^ s s j j j s s s s s ^ s s ^ s s ^ ^ s s ^ ^ s s ^ ^ s ^ ^ ^ s s s s ^ ^ s s s s ^ s s s s s s s s s s s s s s s j j s s s s j s s s s s s s s s s s s j s s s s s s s s j s ^ j s s f j s s s s s s s s s s s s s s s s s < ",
"8 w.s s s j j s f s s s s s s s s s s s s s s s s s s s s s s s s s s s s s s s s s s j j j j j s s s s s s s s s s s s s s s s s s s s s s s s s s s s s s s s s s s s s s s s s s s s s ^ s s s f s s s s j j s s s s s s j s s s s s s s s s s s s s s s s s s ^ j j s j ^ ^ s s s s s s s s s s s s j j j s s s s s ^ s s s s s ^ ^ s ^ ^ ^ ^ s ^ ^ s s s ^ ^ s j s ^ s s s s s s s s s s s s s s s s s s s s s s j j s s s s s s s s s s s s s s s s s j s s s s s s s j s ^ f s s s s s s f j s s s s s s s s s s s s s < ",
"< w.s s f j j s f s s s s s s j s s s s f s s s s s s s s s s s s s s s s s s s s s s j s j j s s s s s s s s s s s s s s s s s s s s s s s s s s s s s s s s s s s s s s s s s s s s s s s s s s s f s j s j j s s s s s s j s s s s s s s s s s s s s s s s s s s j j s b j s s s s s s s s s s s s s s j j s s s s s ^ s s s s s s s s s s ^ ^ ^ ^ ^ s s s s s s ^ s s ^ ^ s s s s s ^ s s s s s s s s s s s s s s s s s s s s s s s s s s s s s s s s s s j s s s s s s s s s s s s s s s s s s s s s s s s s s s s s s s 8 ",
"8 7.s s s s s s s s s s s s s s s s s ^ s s s s s s s s s s s s s s s s s s s s f s s j s s s s s ^ s s s s s s s s s s s s s s s s s s s s s s s s s s s s s s s s ^ s s s s s s s s s s s s s s s j j j s j a s s s s ^ s j s s s s s s s s s s s s s s s s s s s f z s j j s s s s s s s s s s s s s s s j s s s s s s s s s s s s s s s s s s ^ ^ ^ s s s s s s s ^ s s ^ s s s s s ^ s s s s s s s s s s s s s s s s s s s s s s s s s s s s s s s s s s s s s s s s s ^ s s s s s s s s s s s s s j s a s s s s s s s s 8 ",
"8 w.s s s s s s s s s s s s s s s s s s s s j s s s s s s s s s s s s s s s s s s s s s s s s s s s s s s s s s s s s s s s s s s s s s s s s s s s s s s s s s s s ^ s s s s s s s s s s s s s s s s s j s s s s s s s s s s s s s s s s s s s s s s s s s s s s s ^ ^ s s ^ s s s s s s s s s s s s s s s s s s s s s s s s s s s s s s s s s f j j ^ s f s s s s s s s s s ^ s s s s s s s s s s s s s s s s s s s s s s s s s s s s s s s s s s s s s s s s s s s s s s ^ s s s s s s s s s s s s s j s s s s s s s s s s 8 ",
"8 w.s s s s s s s s s s s s j j s s s ^ ^ s s s s s s s s s s s s s s s s s s s s s s s s s s s s s s s s s s s s s s s s s s s s s s s s s s s s s s s s s s s s s s s s s s a s s s s s s s s s s s s s s s s s s s s s s s s s s s s s s s s s s s s s s s s s s s ^ s s ^ s s s s s s s s s s s s s s ^ s s s s s s s s s s s s s s s s s j j j j j j s s s ^ s ^ ^ s s ^ ^ s s s s s s s s s s s s s s s s s s s s s s s s s s s s s s s s s s s s s s s s s s s s s s s s s s s s s s s s s s s j j s s s s s s s s s s < ",
"< 8 8 < 7 7 < 8 < < < < < < 7 7 < < 8 < < 8 < < < < < < < 8 < < < < < < < < < < < < 8 < 8 < < < 8 < 8 8 < < 7 < < < < < < < < < < < 8 < 8 < < < < 8 < < 8 8 < < p 8 < < 8 < < < < < < 8 < < < 8 8 7 < < < 8 < 8 8 8 < 8 6 < < < < < < < < < < < < < 8 < < < 8 8 < < < p 8 p p < < < 8 < < < < < < < < < < < < < < < < p < < < < < < p p p p < < 6 7 7 u < p 8 < p 8 8 < < < < < 8 8 < < < 8 < 8 < < < < < < 8 < < < < < 8 < < < < < < 8 7 < < < < < < < < < < < < < < < < < < < 8 < < < < < < < < < 8 7 < 8 < < 6 8 8 8 < 8 8 < "
};
