/* XPM */
static char * Wall_West_xpm[] = {
"256 256 163 2",
"  	c #473D37",
". 	c #695F59",
"+ 	c #79685D",
"@ 	c #527289",
"# 	c #537389",
"$ 	c #544841",
"% 	c #665246",
"& 	c #395E78",
"* 	c #6D5C50",
"= 	c #3A5F78",
"- 	c #3F6883",
"; 	c #817D7B",
"> 	c #3F6781",
", 	c #3E6376",
"' 	c #3A5F77",
") 	c #3C6177",
"! 	c #3B6077",
"~ 	c #3D6276",
"{ 	c #3F6882",
"] 	c #3F667D",
"^ 	c #3E657B",
"/ 	c #3F6780",
"( 	c #3E6479",
"_ 	c #3D6277",
": 	c #3F677F",
"< 	c #3E657C",
"[ 	c #928E8D",
"} 	c #6A594D",
"| 	c #151210",
"1 	c #0B1218",
"2 	c #0B1318",
"3 	c #0C141A",
"4 	c #0C1317",
"5 	c #0C1419",
"6 	c #191918",
"7 	c #7D7977",
"8 	c #1C1815",
"9 	c #221D1A",
"0 	c #28221E",
"a 	c #383736",
"b 	c #192935",
"c 	c #192A35",
"d 	c #1B2B34",
"e 	c #1B2D3A",
"f 	c #1B2C34",
"g 	c #302823",
"h 	c #1B2C36",
"i 	c #1B2D38",
"j 	c #807267",
"k 	c #695F57",
"l 	c #2D2622",
"m 	c #382F29",
"n 	c #535150",
"o 	c #253D4E",
"p 	c #253E4E",
"q 	c #294353",
"r 	c #294251",
"s 	c #294355",
"t 	c #294354",
"u 	c #463B34",
"v 	c #28404C",
"w 	c #28414F",
"x 	c #273F4C",
"y 	c #273F4D",
"z 	c #294252",
"A 	c #284150",
"B 	c #42403F",
"C 	c #53738A",
"D 	c #54748A",
"E 	c #597C94",
"F 	c #597B92",
"G 	c #597A8E",
"H 	c #587A8C",
"I 	c #587A8D",
"J 	c #587888",
"K 	c #58798B",
"L 	c #597C93",
"M 	c #597B91",
"N 	c #3E6478",
"O 	c #3F667E",
"P 	c #3E657A",
"Q 	c #3F667F",
"R 	c #3E647A",
"S 	c #433831",
"T 	c #263D48",
"U 	c #3E6377",
"V 	c #7F7065",
"W 	c #466881",
"X 	c #16242C",
"Y 	c #16232C",
"Z 	c #3F6782",
"` 	c #4A433E",
" .	c #76675B",
"..	c #161210",
"+.	c #3E3631",
"@.	c #233A49",
"#.	c #3F637C",
"$.	c #332F2D",
"%.	c #493F38",
"&.	c #302E2E",
"*.	c #4C4038",
"=.	c #78695E",
"-.	c #5C534C",
";.	c #375062",
">.	c #2A4557",
",.	c #3A5162",
"'.	c #354C5B",
").	c #486272",
"!.	c #5E5B5A",
"~.	c #4F453E",
"{.	c #5E524A",
"].	c #243A49",
"^.	c #253D4D",
"/.	c #324755",
"(.	c #314755",
"_.	c #375568",
":.	c #53504F",
"<.	c #4F433A",
"[.	c #3D332D",
"}.	c #15232C",
"|.	c #294457",
"1.	c #182730",
"2.	c #3E6477",
"3.	c #56453B",
"4.	c #7F7066",
"5.	c #304F65",
"6.	c #35586E",
"7.	c #1A2A35",
"8.	c #517189",
"9.	c #1C2E3A",
"0.	c #476981",
"a.	c #283842",
"b.	c #293842",
"c.	c #85817F",
"d.	c #284254",
"e.	c #496B83",
"f.	c #405461",
"g.	c #4A6C83",
"h.	c #415461",
"i.	c #385162",
"j.	c #395366",
"k.	c #243C4D",
"l.	c #3A5466",
"m.	c #40647C",
"n.	c #203543",
"o.	c #213543",
"p.	c #375B74",
"q.	c #0C1418",
"r.	c #0E181F",
"s.	c #121D26",
"t.	c #17242B",
"u.	c #192A34",
"v.	c #1A2A34",
"w.	c #15222C",
"x.	c #476071",
"y.	c #182732",
"z.	c #1D303E",
"A.	c #263E4D",
"B.	c #253E4D",
"C.	c #28414E",
"D.	c #1D313E",
"E.	c #557589",
"F.	c #567689",
"                                                                                                                                                                                                                                                                                                                                                                                                                                                                                                                                ",
"  . . . . . . . . . . . . . . . . . . . . . . . . . . . . . . . . . . . . . . . . + + + + + + + + + . + + + + + + + + + + + + + + + . + + + + + + + + + + + + . + + + + + @ # @ # . . . . . . . . . . . . . . . . + + . . . . . . . . . . . . . . . . . . . . . . + + + + + + + + + + + + + + + + + + + + + + + + + + + + + + + . . . . . . . . . . . . . . . . . . . . . . . . . . . . . . . . . . . . . . . . . . . . . . . . . . . . . . . . . . . . . . . . . . . . . . . . . . . . . . . . . . . . . . . . . . . . . . .   ",
"  . $ $ $ $ $ $ $ $ $ $ $ $ $ $ $ $ $ $ $ $ $ $ $ $ $ $ $ $ $ $ $ $ $ $ % % % % % % % % % % % % % $ $ % % % % % % % % % % % % % % $ $ % % % % % & * * % & = - - $ ; & & = & & & = & % % % % % % % % % % % % % % % $ $ % % % % % % % % % % % % % % % % % % % % % % % % % % % % % % % % % % % % % % % % % % % % % % % % % % % % % % % % % % % $ $ $ & - - - - > , = $ $ $ $ $ $ $ $ $ $ $ $ $ $ $ $ $ $ $ $ $ $ $ $ % % % % % % = * ' ) * ; % % % % % % % % % % % % $ $ $ $ $ % % % % % % % % % $ $ % % % $ $ $ % % $ $ $ $ $ $   ",
"  . $ $ $ $ $ $ % % % % % % % % % % % % % % % % % % % % $ $ % % % % % % % % % % % % % % % % % % $ $ % % % % % % % % % % % % % * * * $ % % % * * & & & & & = - - & * & = = & = & = & % % % & % % % % % $ ; % % % % $ & $ % % $ % & & % % % % $ = & = % % % % % % , , % % % % % % % % % % % % % % % % % % % % % % % % % % , , , & & - - % % % - = & & & & & & ! ~ , = , & = = & % % % % % % % % % % % - - - - = % % % - - - - & = & = > ; * - * * * % % % % % % % % % $ % % % % % % % % % % % % % $ $ % % % % % % % % % $ $ $ $   ",
"  . $ $ $ $ $ $ % % $ $ $ $ % % % % $ $ % % % % % % % % $ $ $ $ % % % % % % % $ * * * * * * % % $ % % % % % % % % * * * ; * * * * * & & = & * * & & & & & & - & & * * & = & & & & & & & & & & % & % % $ % % % % % % % % % % $ & & $ % % % % % % & % % $ % % % % , , , , % % % % % % % % % % % $ % % % % $ % % % % % - - ! , = & & - & - & = & = & & & & & & & & = & & & & = & & % % % % % = - & & - - - - - - = - - - - - - & = & { - - * * * ; * * % $ $ $ $ $ % % % % % % * & % % % & % % $ % % % % % % % % % % % % $ $ $ $   ",
"  . $ $ $ $ $ % % % $ $ $ $ $ $ % $ $ % % % % % % % % & & & & & & * * - % - - - > * * * = - - % % % % % % % - ] - & & & ; ; * * * * & & = & * ; * & & - - = - - & * * & = & & & & & & & & & & - - * % $ * % % % & % % % % % $ $ & & $ % % & & % & & % % % % % $ , % % ^ % = - , & & = = & & - - - - = - - - - % % % - & & & - = - = & & & = & = & & & & & & & & = & & & = = ~ = = ; & & - = - & & - - - - = - = - - - = - - & & - * ; - * { * * ; * % $ ; * ; % $ % % % % * & & & & % % % % % % % % % % % % % & * * * % % % $   ",
"  . $ $ $ % % % % % $ $ $ $ $ % & & & & = = % $ % & & & & = - & * * - - - - - - - / * * = ( - % % % % - - - * - - - & & * * ; & & & & & * * * & * * * & & = * * * * & & & & & & & & & & & & & & - * * * % % % - = & & & % % $ $ % % % & & & & & - - & & & = = - - - _ - - = - - & = = & - - - - - - = - - - - - - - & & & - - - - = & & & = & = & & & & & & & & = & & & = = ; = ; ; & & - = - - - - & & - = - - - & - = - - * - * * * & = = ^ * ; ; - - ; ; % % % % % % % & % % % & & % % % % % $ % % % % % % * * * , % $ % $   ",
"  . $ $ $ % % % % % $ ; ; ; ; & & & * & = = & & & & & & & - - & & & & & & - - - - - = * ; , ] - - - - - - * * * { - - - * - - = & & & = & = = & & & * & & * * - * ; & & & = & & & & * & & & & - - - * - - % - * - = & & & & & & & & & & & & & & & - - & & & = - - - ! & - = - = & = = - - & - = = - = - - - ! - - - - & & & - - - = & & & & & = & & & & & & & ) = = & & = * ; = & ; & - - = - - - & & - - - - - - & & & & - * * * * * - = = , ] ; & - - * * ; - % % & & & & * & % % % % % % % % $ $ % % & = & * * * * $ $ $ $   ",
"  . $ $ $ $ % % % % $ ; ; & & & & ; * & = = & & & & & & & & & & & & & - - - - - * - = - ; ( , - - - - - - * * - , - - - - - { ' & ! & & & & = & & & & - = * * - * = & = & = & & & = & & & = - - = - - * - * * * - & - & & & & & & & & - - - & & & - - - & - = = - - , = , , , = = = = - - { - = = - = - & & & - - - - - - - - - - & & & & & & = & & & & & & & & & & & & & & & & & & = ; ; = - - & & = - - = - - - & & & - - - * * ; * - = = ; ; ; ; - - & * - - - & & & * * * & & & = & & & & % & & & - & = & & * * * $ % % $   ",
"  . $ $ $ % % % % % $ * * & & & & ; & & & & & & & & ; - & - - & & & & - - - - ; * * * - , , , - - - - - - * * - > : - - - - - & & = & & & & & & & & - - = * * ; - - & = & = & & & = - - - = - = = - * * * * * = - - & & & & & & & & & & - - - & & & & - & & = - - ] , = , = , = , = = / - < - = = - = = - - - - & - - - - - - & & & & & - & & & & & & & & & & & & & & ! ) & - & & & = - = = - - & & - - - = - - - & & & - - - * ; ; * * = = ; ; ; ; * * * - - - - - * * * * & * ; ; = ; ; & & & = & = & & * & & ; ; * * * % $   ",
"  . $ $ $ % % % * * * * * & & & & = & - & & & & & & - - - - - & & & & & - - - - * * * * * , , - - - - - - * * * * * * * * - - - & - & & = = = = & = - - - - - - & - - - & = = & - - - - - - - - - * ] - - * - = = - & & & & & & & & & & - - - & & & - - & & = - - - / , * = , = = = , , , , - = - - = = = - - - - - - - - - = & & & & - - & & & & & & & & & & & = = & ! ! & , - = - = & - = - - & - - - - = & - - - & - - - - ; ; ; ; - = _ = ; ; ; * * * - - ; - - & * * * - * * ; ; & & * & & = & = & & * & * [ ; * * * * $   ",
"  . $ $ % % % % * * * * * & & & & & - & & & & & & & - - - - - - - & & & - - - - * * * * - ( , - - - - - - - - - - - * * * * - - & - - & = = = = - - - - = = - - - - - - - & = - = - - - - = - * - - - - * * - = = - & - & & & & & & & & - & & & & & & & - & & - - - - - , = = = , ~ = , , , - = - - = = = - - - & - & & ~ , , & & & & - & & & & & & - = & = & & = = & = ! - , ! = = = & = = - - - - - - - = & & - - - - - - - ; ; - - - = , ; ; ; ; ; ; * - - ; - - - * * * - * * ; ; & & & & & * & * & & = * ; [ * * * * * $   ",
"  . % % % % % % } | | | | 1 1 1 1 1 1 1 1 1 2 1 1 1 3 3 3 3 3 3 3 3 1 1 3 3 3 3 3 | | 3 3 3 3 3 3 3 2 3 3 3 3 3 3 3 | | | | 3 3 3 3 3 1 2 2 2 2 3 3 3 2 2 2 3 3 3 3 3 3 3 1 2 3 2 1 3 3 3 2 3 2 3 3 3 | 3 2 3 2 2 3 3 1 1 1 1 1 1 1 1 1 3 3 3 | | 3 1 1 3 3 1 3 3 3 3 3 2 2 2 2 2 4 4 4 4 4 5 3 3 3 2 3 2 3 3 3 1 3 3 1 1 4 4 4 3 1 1 1 1 1 2 1 1 1 3 2 1 2 1 1 2 2 2 1 4 4 4 2 2 2 2 2 2 2 4 3 3 3 5 3 3 3 1 1 3 3 3 2 3 3 3 | | 6 6 6 6 6 6 3 3 2 | 6 6 3 3 6 2 3 3 3 | | | | | 6 6 1 1 1 1 1 | 1 | 1 1 1 | 7 [ ; * ; * * $   ",
"  . % % % % % % * 8 9 0 a a b c b b b b b b d b b b b e f b d e e e e e e e e e e e e e e e e e e e c e c e e e b e g g g e e e e c e b c c e c e e e c c e e e e e e c e b b e a a e e e e e g e e c c e c e c c e e b b b e e e b b e e e e e e e e e e e e e e e e d c d c d c c d h d d e e e e c e e e e b b e e e e c d i e c e b b b b b b b b c b b b b c c b b d d d e c c c d c c d d d e e e e e e g e e e e e e g g g a a b c g g e c c g a a i e a c e g g g g g g g g a b b b b b g g c b b 0 0 * j ; ; ; * * *   ",
"  . % % % % % % k l m n n o o p o o o o o o o o o o o q r o q s s t s o s s s s s s s s s s s s o s s s p r s s s s s u n s n s n s s o o p s s s s s p p s s s s s s p s s s s u u p s s s s s s s s s s p s p p s s o o o s s s o o s s s s s s s s u p s s s p s s p v v p p p p w v v w s s s s p p s s s s s s s s s p s s s p s s s s o o o o o p x y o o o p o o p s z s p p p v p v s s s s p s s s s p s s s s s s s n v A s s p s q v p p s n v s n u u u u u u u u u u u p o u n n n u u u u n B l j * ; ; * * ; $   ",
"  . % % % % % % * k j [ [ C C D C C C E E C C E E C C C E E F E E E E C E E E E E E E E E E E E E E E E D G H E E E E E E E j j E D E C C E E E E E E D E E E E E E E E E E E E E E D E E E E E E E E E E D E D D C E D C E E E E C C D E E E E j E E E D F D I E E J D J J D J J D J D K E E E E E D D E E E E E E E E K E E E E D C C E E C C C C E D C C C C D C C C D E E E D D F J D L E E E E D E E E E E E E E E E E M [ J E E E D E L J J D E E E E E j j E j j j E E E E D E E C C C [ D j j j [ j j * ; ; ; ; * ; $   ",
"  . % % % % % % * * * ; * ) ) = & & & & - - ~ - - N ~ = & - - - - - & & - - - - - = - - - - - - - - - - - - - - - - - - - - - * - = - = = - = - - - - - = - - - - - - - - - - - - - = / / - - - - & & - - = - = = & - - = - - - - - & - - = - - * > , - = , = - - - , = , , , , , = : = & - - - - - = = = - - ^ , - - O , - - - - = & - - - & = - - - = & & & - = & = ) = - - - = - - / = - - - = - = - - = - - - - - - - - - - - - - - = - - N P = , - - - Q R * - - - - - - - - - = - - & & ; * * * * ; * * * * ; ; ; * * $   ",
"  . % % % % % % * * * * * , , , = & & & ) & & & & , , ! & - - - - - & & & - - - - = - - - - - - - - - - = & - - - - - - - - - - - = - & = = : - - & - - = - - - - - - - - - - - - - - - - - - - - - & & - = = = = - & - - - - - - - - - - - - * * P , , = , = = - - & , , , , ( = - - = ^ - - - - - - - = - - = - - - - ] - - - R = - ] - - - = - - & & & & & - = ! = ! = - - - = = - - = - - - - - - - - = - - - - - - - - - - - - - - = - - - - = > / - - - - - - - - - - - - - - = - & & & * * * * * * * * * * ; * * * $ $   ",
"  . % % % % % * * * * S g g T ~ , , , , , = & & & ! , _ & - - - - - & & & - - - - - - - - - - - - - - - = & - - - - - - - - - - - = - & = = = - - & & - - - - - - - - - - - - - - - - - - - - - - - = & - = - = = - - - - - - - - - & - - , , > * , , , , , , = - - - U , , , ( - - - - / - - ] { - - - = - - = - ( - - - - - - , , & & - - & = - , & ) & & - = = , = & & & - - = = - - = - - - = - - - - = - - - - - = - - - - - - - - = - - - = * * - - - - - - - - - - - - - - - - - & - * * * * * S g g S * * * * & & $ $   ",
"  . % % % % % * * * g g V W X Y ~ & & , , , & & & & & & - - - - - - - & & - - - - - - - & - - - - - - - = - - - - - - - - - - - - - - & = = = - - = = - - - - - - - - - - - - - - - - = - - - - - - = - - = - = - - - - - - - - - - - - , , , , , , , , , , - = > - - - U < & & = - - - - - - - , < = - - - - = - - - Z = - - - & = & & & - & & _ , & _ , = , , = , = = = - - - = = - = = - - - - - - - - = - - - = = = - - - - - - - - = - - - - - * - - - - - - - - - - - - - - - - * - - * & * * g `  .* 0 0 ; * * & & $ $   ",
"  . % % % % % * * * ..V +.@.#.Y , ~ & & ) & - - & & - - - - - - - - - - - - - - - - - - - - - - - - - - = - - - - - - - - - - - - - - - = = - = - = = = - = - - - - - - - - - - - - - = = > O - - - - - - = - = - - - - - - - - - - - - - = , , , , , , , , - - , = - - - - & & - - = - - - - - > : - - - - - - - - - - = , & - - - & & - - & & ~ , , , , , , , = , = = = - - - = = - - = - - - - - - - - = - - - = = = - - - - - - - - = - - * * - - - - - - = - - - - - - - - - - - * - - , * * * $. .g %.* &.* * * * * $ $   ",
"  . % % % % % % * * *.=.-.;.@ >.= ~ _ & & - - - = - - - - - - - - - - - - - - - - - - - - - - - - - - & = - - - - - - - - - - - - - - & & - = = - - - = - = - - - - - - - - - - - - - = - - - U - - - - - = - - - - - = - - - - - - - - - = , , ^ - , , , , - - U = = = = = ! - - - - - & & - - - - = - = - - - - - - - - & & - - - - & = - & - N , , , , , , = = , = = - - - , / = - - = - - - - - - - - - - - - = - - - - - - - - - - = - - - - - - - - * - - - - - - - - - - = - - - - - * * * & ,.C '.).& !.* * ; * * $ $   ",
"  . % % % % % % * * S ~.{.#.].^.& & & & ) & - - = - - - - - - - & - - - - - - - - = - - - - - - - - - - - - - - - - - - - - - - = - - & & - = - - - - = - - = - - - - - - = - - - - - = = - - , - - - - - = - - - - - = - - - - - - - - - = = , - - - , , ] - - - - = - = / = - - - - - = & - - - - = - = - = - - - - - < ( - = - - - - = - Q , , , , , = , , = = , = - - - - - - = - - - - - - - - = - - - - - - - - - - - - - - - - - = - - - : , * - - * - - - - - - - - - - = - - - - - & * * & /.(._.- S :.& ; ; * $ $ $   ",
"  . % % % % * $ * * * <.[.}.>.= & & & & & & & & = & - - - - - & & - - - - - - - - = - - - - - - - - - - - - - - - - - - - - - - - - - & & - - = - - - - - - = U - - - = - = - - - - - - R - - , N N - - - - - = - - - - - - - - - - - - - = , = - - - - - - ] - - - = O - - = - - - - - = - - - - - - - = - = - - - - - - - - - - - - - = ( , , , , , , , , - - = , = - - = - - - = - - - - - - - - - - = - - - * - = - - - - - - - - - = - - - = = = - - - - - - - - - - - - - - - - - - - & * * & = |.].1.|.& & & = % $ $ $   ",
"  . $ % % % * * * * * * * = = = ) & & & & & & = = & & - - & - & - - - - - - - - - - - - - - - - - - - - - - - - - - - - - - - - - - - - & - - = - - - = - - - , - - - - - = - - - - - - ] , - - - { - - - - - = - - - - - - - - N , > - - = ] = - - - - - - - - - - = = - & = - = = = - & > - - - - - - - - = - - - - - = - - - - - - Q , , , , < , - < = - - - = , = - - - - , , = - - - - - - - - - - = - - - - - = - - - - - - - - - - - - - = - = - - - - - - - - - - - - - - - - - - - & * * * = & & & & & & - = % $ $ $   ",
"  . % % % % % * * * * * * & ! ! = & - = & & & = = & - - - - & & - - - - - - - - - - - - - - - - - - - - - - - - - - - - - - - - - - - - > - - = - - - - - - - ( U P - - - - Q - - - - - - P - - - - { - - - - - - - - - - - - - O , - - - = - = * - - { - - - - - - = = = = - - = = = - & - ] - - - = - - - - - - - - - = - - - - - - ] = , , = = - - , = - - - = , = , - - - = Q = - - - - - = - - - - - - - - - * = - - - - - - - - - = - - - = - - - - = - - - - - - - - - - - - - - - & & * * * & & & & & & & = % % $ $ $   ",
"  . % % % % % % * * * ; ; & & & = & & & & & & = & - - - - - - - - - - - - - - - - - - - - - - - - - - - - - - - - - - - - - - - - - Q { - - - = - - - - - - - - N , - - - = < - - = - - - = - - - - , - - = - = - - - - - - - = - - - - - = - - - , - ] - - - - & - = = = = - - = & = - - , , - - - = - - - - - = - - - = - - - - - - - = ^ - , = - - , = - - = = U = - - - - = - = - = - - - - - - - - - - - - - = - - - - - = - - - - = - - - = - - ; - - - - - - - - - - - = = - - - - & & * * * & & & & & & * * % % $ $ $   ",
"  . $ % % % % % * * * ; ; & = & = & & & & & & - - - - - - - - - - - - - - - - - - - - - - - - - Q - - - = - & & - - - , O { - - - - - - - { - - - - - - = - - - = , - - - - N - - = - = - - - - { , = , - = - = - - - - - - - - - - - - - - - - - - Q ^ - - / - & - = = = = = - = - = - - , , - - = = - - - - - - - - = = - - - - - = - = - - / U - - - - - - = = , = - - - - = - = - = - - - - - - - - - - - - - - - - - * - - - - - - = - - = - - = - - - - = - = - - - - - = = - - - - & & & & & & & & & & & * * % % $ $ $   ",
"  . % % % % % % * * * ; ; & = & & & & = - - - - - - - - - - - - - - - - - - - - - - - - - - - - - - - - - - & & - - - - - - { - - - - - - , ] - - - - = = - - - , - - - - - , - - = - - = - - - : , , , - = - - - - - - - - - - - - - - - - - - - - N , - - - - - - = = = = = - = - = - - - O - - = = - - - = - - - - = = - - - - - = - = - ^ ] - - - - - - - = / = = - - - , = - = > = - - - = - - = - - = - - - - - - - = - - - - - * = - * * * * - - - - - = - - - - - - - - = = - - - - - & = & & & & & & & * * % % $ $ $   ",
"  . % % % % % * * & & ; ; & * & & & & & & - - = - - & - - - - - - - - - - - - - - - - - - - - { - - - - - - - - - - - - - - - - - - - - - = , < - - - - - - - { , - - - - , , Q - = - - - - - - - - ^ - - = - - - - - - Q - - { - - - - - - - - - U , - = - - = - - = = = = = - = - = - - - - - - = = - - - = - - - - - = - - - - - - - - - - = - - - - - - - = - - - - - > , = - = , = = - - - - - - - - = - - = - - - - = - - - - - - = - * * * - - - - - = = - - - - - - - - = = - - = - - - = & - & & & & & = * % % $ $ $   ",
"  . % % % % $ & * , = ; ; * & ; ; ; & & & - & = - - - - - - - - - - - - - - - - - - - - - - - / - = - - - - - - - - - - - - - - - - - - - - { - - - - - = - - - ] { - - O , , - - = - = - - - - - - , - - - - = - - - - , - - - - - - - - - - - - - - - = - = = - - - = = = - - = - = - - - - - - = = - - - = - - - - = - - - - , : - - - - - = - - = - - - - = - = - - - N , = = = , - - - - - - - - - - - - - = = - - - = - - - - - - - - - - - - O < = - = = - - - - - - - - = = - - = - - - = - - & & & & & = * % % $ $ $   ",
"  . % % % & = = ) & & & ; & * & ; & & & & & & = - - - - - - - - - - - - - - - - - - - - - > / - - = - - - - - - - - - - - - - - - - - = - - - - Q - - - = - = = { P - - - , ( - - - - = - - - - - Q , - - - - = - - - - , - - - - - - , Q - - - - - - - - - - = - - = = = = - - = - = - - - - - - ] = - - - - - - - - = - - - - - - - - - - - - - - - - - - - = = = - - - N , = = = - - - - - - - - - - - - - - = = - - - = - - - - - - - - - - = - - - = - = = - - - - - - - - - - - - = - - - = - - & & & & & = * % % $ $ $   ",
"  . % $ & % * * & & & & ; & ; ; & ; & & & & & = - - - - - - - - - - - - - - - - - - - - - - - - - = - - - > - - - = - - - - - = - - - = = - - - - > - = = - - - - - - - - - - - - = - = - = - - - - = - - - - = - - - = - - - - - - - > , - - - - - - - = - - - - - = = = = - - - - = - - - - - - = = - - - - - - - - - - - - - - - - - = - - - - - - - - - - = - = - - - - - = = = - = = - - = - - = - = - - - = - - - - = - - - - - - * - - - = - - - < { = = - - - - - - - - - - - - * - & & = & & & & & & & = * % % $ $ $   ",
"  . $ % % % * * & * * * ; & = & & & & & - - - = - - - - - - - - - - - - - - - - - - - - - - - - - { { - / , - - - - - - - - - = = - - = = - - - = - - - = - - - - - - - = - - - - - - = - = - - - - - - - - - = - - - - - - - - - - - - - - - - - - - - - - - - - - - - = = - - - - - - - - - - - = = - - - = - - - - - - - - - - - - - = - = - - - - { - - - = - = = = - - - = = = - = = - - = - - = - - - - - - - - - - = - - - - - - * - - - = - - - , , - - - - - - - - = - = - - - = - - & & & & = & & & & = * % % % $ $   ",
"  . % % % % * * * * * * ; & & & & ! & & & = - = - - - - - - - - - - - - - - - - - - - - - - - / - ^ P ] Z - / = - - - - - - - - - - - = = = - - = - = { = - - - - - = - = - - - = - = = - - - - - - - - - - - = - - - - - - - - - - - - - - - = - - - - - - - - - - - - = = - - O - - - - - - - - - - - - - - - - - - - - - - - - - - - - - = - - { Z / , - - = = - - = - - - = - - - = = - = - - - = - = - - - - = - - - = - - - - - - - - - - - - - - U ] - - - - - - = - = - = = - - = - - - & & & = & & & = = & % % % $ $   ",
"  . % % % % % * * * * * ; & & & - & & & - - - - - - - - - - - - - - - - - - - - - - - - - < / - O , ] - - - - = - - - - - - - - - - - = = = - - = - = = = - = - - - - - = - - - = - - = - - - - - - - - = - - = - - - - - - - - - - = - - = - = - - - - - - - - - - - - = = - - , , = - - - - R / - : - - - - - - - - - - - - - - - - - - - = - = , Z , - - - = - - - - - - - = - - - = = { < - - - = - = - - - - = - - - - - - - - - - - - - - - - - - = - - - - - - - = - = - = - - - - - - - & & & = & & & = = & $ % % $ $   ",
"  . % % % % $ * * * * ; ; , & & & & - - - - - - - - - - - - - - - - - - - - - - - - - - > - - - - ] Q { > - - = - - - - - - - - - - - - - - - - - - - = = - - - - - - - = - - - = - - = - - - - - - - - = - - = - - - - - / - - - - = - = - - - - - - - - - - - - - - - = = - - = = , , U < - - - - - - - - - - - - - - - - - - - - - - - - = - - , , U - - - = N ^ - - - - - = - - - = - - - - - - - - = - - - = = / , ] - - - - - - - - - - - - - - - = - = - - - - - = - = - = - - - - - - & & - & & & & & = = & $ % % $ $   ",
"  . % % % % % $ * * ; ; ; = & = & & - - - - - - - - - - - - - - - - - - - - - - - - - - - - - / { - - - , - - = - - - - - - - - - - - - - - - - - - - - = = - - - - - - - - - - - - = = - - - - - - - - = - - = - - - - - ] - - - - - - - - - - - - - - - - - - - { ] U = = - - - ] , - - - - - - - - - < = = - - - - - - - - - - - - - - - = - - , , { = - = - - - - - - - - = - - - = , - - - - - - - = - - - - = ] Z = = - - - - - - - - - - - - - - = - = - - - - - - - = - = = - - = - & - & - - - - - & & = & = % $ $ $   ",
"  . % % % % % % * * * ; ; = = = * & - - - - - - - - - - - - - - - - - - - - - - - - - - - { : { - - - - Z - = = - - - - - - - = - - - = - - - - - - = - = - - - - - = - = - - - = - = = - - - - - - - - - - - - - - = - - - - - - - - - - - - - - - - - - - = - - , / / = = - - - , = - - ( - - - - - - Z = = - - - - - - - - - - - - - = - - - - - - { Q - - O - = = - = - - = - , , = = - - - - - - , = / - - - = - - = = - - - - - - - - - - - - - - = - - - - - - - - - = - = - - - = - & - - - & - - - & & = & = % $ $ $   ",
"  . $ $ * % % * * * ; ; ; = & = - - - - - - - = - - - - - - - - - - - - - - - - - - - - - - - - - - N , = - - = - - - - - - - = - - - = = - - - - = = = = = = - - = = - = - - - = = - = - - - - - - - - - - - - - - = - - - - - - - - - = - - - - - - - - - - - - - = - R = - - = = - { = , / - - = - - - - - - - - - - - = - - - - - , : - - - - - - , = - ] = - = = { = - - = - , - = = - - - = - - , , , O - ^ U - - = = - - - - - - - - - - - - - - = - - - - = - = - - = - = = - - = & & - - & & & = - & & & & = % % $ $   ",
"  . $ $ $ * % * * * ; * * = ) - - - , - - - - = - - - - - - - - - - - - - - - - - - - - - - / - Q : , , - - - = - - - - - - - = - - - = = - - : = 2.= - - - - - - - = - - - - - - = - = - - - - - - - - - - - = - - = - - - - - - - - - - - - - - - - - = - - - - - > - / - - - = = = , = > < - - = - - - = - - - - - - - = - - - = - , , ( = - - { , , = / - - - = ^ - = - - - - N - = = , = / = - - , U - - - , , , / - * - - - - - - - - - - - - - - = - = - - - - = - - = - - - - - - - - - & & & & & & * * & * = % % $ $   ",
"  + $ $ % % % * * * ; * * = & , - - > Q - - - = - - - - - - - - - - - - - - - - - - - - - { - - = , ( ^ - - = = - - - - - - - - - - - = = - - { - - = - - - - - - - = - - - - - - - - - - - - - - - - - - - - = - - - - - - - - - - - - - - - - - - - , = = - - - - R : P = - - = = ] - = - , , , = - - - - - - - - - - - = = - - = > , , - = - - , , , , - - - = = - - - - - = - - - = , , , , - - - - = - - > < ( ] - - - - - - - - - - - - - - - - - = - = - - - - = - = - - - - - - - - - - - & = & & * & * * & & % % $ $   ",
"3.+ $ $ % % % * * ; ; ; ; = = & - - , , { - - = - - - - - - - - - - - - - - - - - - , , - { - - , N U { - - = = - - - - - - - - - - - = = - - { , - - - - - - - - - = - - - - - - - - - - - - - - - - - - U - = - - - - - - - - - - - - - - - = - - - / - - - - - - O / { = - - , , O - - - , / - = - - - - - - - - - - - = - - - = ] - > U = - - - - - , , - = < - - - - - - = - - - - > , = , - - - - = - - - - - - - - - - - - - - - - - - - - - - - = - = - - - - = - = - - - - - - = - - - - - = - = & & * & & = % % $ $   ",
"3.+ $ $ % % % * * ; ; ; ! = = / , Q , , - - - = - - - - - - - - - - - - - - - - - - , , - > - R , P , - - - = - - - = - - - / { - - = = = O / - , = - - - - = - - - = U = > - - - - - = - - - - - - , / N ^ - = - - - - - = - - - - - - - - - - - - - = - - = - - - < N O = - R 2., - - - - - - = = - - - - - - - - - - Z = - = - = , , ( - = - - = - = , , , = - - - - - - - - = = - - - - O < { - - - = - - - - - - - - - - - - - - - - - - - - - - = = - = - - - - - - - - - - = - = = - - & & - = - - - & & & & & % % % $   ",
"  . $ % % % % * * * * * , = = - = - - - - - / - - - - - - - - - - - - - Q - - - - - - , , , , , Q - - - - - = - - - = - - - - - - - = = = < > - / = , U N , = - - = = , = - - - - - = = - - - - - - , P < - - - - - - - - - - - - - - - - - - - - - = - - - = - - U N P , - > < - / - - - - - - = = - - - - - - - - - P - = - = - - , , - - = - - = - - = - ] = = - - - - - - - = = - = - - - - - - - - - - - - - = - - - - - - - - - - - - - - - - - = - - = - = - - - - - - - = - - = = - & & & - - - - - = & & & * % % % $   ",
"  . $ % % % * * * * & & - = = - = - - - - - - - - - - - - - - - - - - - , - - - - - { , , , U , , - - - - - - - - - - - - - - = - - = = - - - - - = / , > { = - = = = , , , - - - - = = - - - - - - - , - - - - - - - - - - - - - - - - - - - - - - = = = - = - - - - - = = - - - - - = - - - - - - - - - - - - - - , , - = - = - - , , - - = - - - - - - - , = = - - - - / P = = = - = - - - - - - - - = - - - - - - - - - - - - - - - - - - - - - - = - - - - - - - - - - - - = - - = - - & & & & & - - - & & & & & % % % $   ",
"  . % % $ * * * * * & - - = = - = - - - - - - = - - - - - - - - - - - - : < - O - - - , , , { , = N - - - - - - - - - - - - - = > < = - - - - = - = = - - - = - - = = - , ( - - = = = = - - , - N , , - - - - - - - - - - - = - - - - - - - - = - - = = = = = - = = = - - - - - = = - = - = - - - - - - - - - - { > { ] - = - - - - , , - = = - - - - - - - = = = - < - - = = = = - - - - - - - - - - - = - - - - - - - - - - - - - - - - - - = - - - = * = = - - - - - - - N ^ = - - - & - & & & & & & - & & & & & & % % % $   ",
"  . % % % ; ; ; ; * * ; ; = = - - - - - - - - - - - - - - - - - - - - - - , : - - - / , , ( Q - = , - - - - - - - - - - - - - = { > { - - - - = - = - - - - = - - - - - , P - - - = = = - , - - < - = - { - - - - - - - = - - - - - - - - - - = - = = - = - = - - = - - - - - - = = - = - - - - - - - - - - - { Q - - - - = - - - - , P - = = - - - - - = / = = - - - = - = = = = - - - - - - - - - - - = - - - - - - - - - - - - - - - - - = = - - - * * = - - - - - - - - , - N - - - - & & & - & - = = & & & & = & $ $ % $   ",
"  . $ % * * * ; ; * * ; ; = = - - - - - - - - - Q - - - - - - - - - - - - > , > - 2., , U , U - - - - - - - = / - - - - - - - N ( - , - - - - = = = - - - - - - - = - - - - - - = = = , , , , - - - - - - - - - - - - - = - - - - - - - - - - = - = = - - - - - - - - - - - - - = = - - - - - - - - - - - = - - - - - - - = - - - - , , - = = - - - - = = - = = - P ^ = - - = = = - - = - - - - = - - - - > - - - - - - - - - - - - - - - - = = - - = = * = - - - - - - - - - - - - - - - - - - - & & & = & & & = & & $ $ % $   ",
"  . * * * * * * * ; * ; - = = - - - - - - - - - - - - - - - - - - - - - - - > ^ , , , ^ - , U - = { - - = - = - - - { - - - - - ( , , - - - - = = = - - - - - - - - - - - - - - - - = = , , N - - - - - - - - - - - - = = - - - - - - - - - - - - = = - = - - > Q - - - - = - - = = - - - - - - - = = - - = - - - - - - - = - - - - , , > = = - - - - = = - = - - - - = - - = = - - - = - - = - = - - - - - - - - = - - - - - - - - - - - - = = - - - = = = - - - - - - - - - - - - - - - - - - & & & = = - - - = & & $ $ $ $   ",
"  4.* & & % % % * * * ; - = = - - - - - - - - - - - - - - - - - - - - - - - - - - , O , > , > - - - - - = - - - - - - - - - - - - P - - - - = - - - - - - - - - - - - - - - - - - - - = ( , < - - = - - - - - - - - - - - - - - - - - - - - - - - - - - = = - - - - - - - - - - - - - - - - - - - - = - - = - - - - - - - - - - = - - - - - - - - - - = - - = / - - - = - - = - - - - = - = = , = R - - - - - - - = - - - - - - - - - - - - = = - - - = = = - - - - - - - - - - = - - = - - - - - & & & & & & - = = = % % $ %   ",
"  + % % % % % % * ; ; ; ; = - - - - - - - - - - - - - - - - - O - - - - - - - - ^ ( - - - - - - - - - - - - - - - - - - - - - , , , = = = - = = - = - - - - - - - = - - - - - - = - - - , N { - - - - - - - - - - - - - - - - - - - - - - - - - - - - - = = - - - - - - - - - - = - - - - - - - - - = - = = - - - - = - - - - - - - - - - - - - - - - = - , = : , - - - - - = , , U - = - = = , = U ^ N - - - - - - - - - - - - - - - - - - = = = - - - - = - - , 2.- = - - - - = - - - - - - - - = & & & & & & & & = % % % %   ",
"3.+ % % % = & & ; ; ; ; = = - - - - - - - - - - - - - - - - - > - - - - - - { { N < - - - - - - - - - - - - - - - - - - - - - - - U = = = = - - - = - - - = = = = = - - - - - - = = - - - - - , < - - = - - - - - - - - - - - - - - - - = - - - - - - - - = = - - - - - - - - - - - - = - - = - - - - - = = - - - - - - - - - - - - - - - - - - - - - - Q - = , , - - - - - = , , ( - = - = < , = P - > - - - - = - - - - - - - - - - - - - = = = - - - = = - - , - = = - - - - = - - - - - - - - - - - - & & & & & = % % % % 3.",
"3.+ & & % % % & & & * ; = - - - - - - - - - - - - - - - - - - > - - - - - - - , , - - - - - - - - - - - ] / - - - = - - - - - - - / , = = = - - - = = = - = = - - = = - - - - - = - - - - - - , , - - - - - - - - - - - R > - - - - - - = - - - - - = - - = = - - - - - - - - - - - - - = - = - - - - - = - - - - - - - - - - - - - - - - = - - - - - - / ^ = R , - - - - - ( = , U ^ = - - - = = , , - - - - - - - - - - - - - - - - - - - = > - - - - = = - - - - - = - - - - = - - - - - - - - - - - - - - & = & = $ $ % % 3.",
"  . & % % % & & & = - ; - - = - - - - - - - - - - - - - - - - - - - - - - - - ] , - - - - - - - - - - = , , - - - = - - - - - - - < ^ , U = - - - = = = - = = - - = = - - - - - = = - = - - - - , / - - - - - - - - - - ] - - - - - - - = - - - = - = - - = = - - - - - - = - - - - - - = - - - - - - - = - - - - - - - = - - - - - - - - = - - - - - - ^ , , , ^ - - - - - - , , , , = , - - = = - - - - - - - = - - - - - - - - - - - - - = - - - - - - = - - - : - = - - - - = - - - - - - - - - - - - - - - = = = $ % % %   ",
"  . % % * & & = - * * & = - - - - - - - - - - - - - - - - - - - - - - - - - - - / - - - - - - - - - - = - - - - - - - - - - - = - 2.- , = - - - = - - = - = - - - = - - - - - - = = - = = - - - - - - - - - - - - - - - - - - - - - - - - - - - = - = - - = - = - = - - - - - - - - - - - - - - - - - - = - - - - - - - = = - - - - - - - - - - - - - - - - N N = - - - / - - , U , , , , , ^ - - - - - - - ^ O = - - - - - - - - - - - = - = = - - - - - = - - = { - = - - - - - - - = - - - - - - - - - - - - - = = $ % % %   ",
"  . & * = & & = - * & & = - - - - - & - - - - - - - - - - - - - - - - - - - - - - - - - - - - - = - - = - - - - - - - - - - - - ( ^ - = = , - - - - - = = = > = - - - - - - - = = - - - - - - - - - - - - - - - - - - - - - - - - - - - - - - - = - = - - = - = = = - - - = - - - - - - - - - - - - - - - - - - - - - - = - - - , , { - - - - - - - - - - - - N = - = = - - ( O - / = , , N - - - - ] { / , , , - - - - - - - - - - - - = - - - - - - - - - - - = - - - - - - - - - - = - & - - - - - - - - - - - = * $ % % %   ",
"  . $ * * * * * * * = & = - - - - - - & - - - - - - - - - - - - - - - - - - - - - - - - - > - - = - - = - - - O - - - - - - - / O - = = = = - - = - - = ( = , = - - = - - - - = = - - - - - { > - - - - - - = ( - : - = - - - - = - - - = - - - = - - - - = - = - - - - - - - - - - = = = - - - - - - - - - - - - - - - - { - < 2., - - - - - - - - - = - = - - - - = = , U > - - - = > : ] - - = - - / - , / - - - - - - - - O - - - - - - - - - - - = - = - = = { - - - - - - - - - - & & & & & & - - - * - - - = & $ $ $ $   ",
"  . $ * * * * & * * - - = = = - - - - - - - - - - - - - - - - - - - - - - - - - - - - - - < ] / = - - - - - - P P = - - - - - - - - - = = = - = - - - - = - > - = - = - - - - - - - - - Z { , Z - - - - - , = N - - / = - - - - - - - - = - - - = - - - - = - = - - - - - - - - = - = = = - - - - - - - - - - - - - - > - - - , , , > - - - - - - - - = - = - - - - = = - - - - - - = = , , - - = - - - - - { - - - - - - - - - - - - - - - - = - - - = - = - = = - - - - - - - - - - = - & & & & & - - - - - - - = & $ % $ $   ",
"  . $ & % * * * * * - - = = - - - - - - - - - - - - - - - - - - - - - - - - - - - - - - - - - - = - - - - - - - - - - - - - - - - - - - = - - - - - - - - - ( , = - = - - = - - - - - , > ] , / - - - - - < = - - - > / - - - - - - - - = - - - = - - - - - - = - - - - - - - - = - = = - - - - = - - - - - - - - - , , > - - - - - ^ - - - - - - - - = - = - - - - = - - - - = - - - = - = / - = - - - - - , - - - - - - - - - - - - - - { - - - - = = - = - - > O = - - = - - - - - - - - - & - - - - & & - & - & & $ % % %   ",
"  . $ % % * * * * = - * ; = - ] - - - - - - - - - - - - - - - - - - - - - - - - - - - - - - - - = - - - - - - - = - - - - - - - - = - = = = - - - - = - - = < < - - - - - - - - - = - = - , , - - - - - - - = = = = { , - - - - = - - - = - - - - - - - - = - = - = - - - - - - = - = = = - - - = - ( - - - - - - - - - - - - - - - - - - - - - - - - = - = - - = - - - - - - = - - = - R = = - = - - - - - R - - - - - - - - - - - - - - - - - - - - - = = - - - - = - = = - - - - - - - - - - - - - - - - - & & * * $ % % %   ",
"  . $ % % * * * ; ; ; * ; = < , { - - - - & - - - - - - - - - - - - - - - - - - - - - - - - - - - - - - - - - - = - - - - - - - - - = = = = - - - - = - - = - - - - - - = = - - - = - > , - - - - - - - - - N , = = , = - - - - = - - - = - - - - - = - - = - = - - - - - - - - = - - - = - - - = - { - - - - - - - - - - - - - - - - - - = - - - - - = - = - - - - = - - - - = - - = - - - = - = - - - - - O - - - - - - - - - - - - - - - - - - - - - = = - - - - - - - - - - - - - - - - - - - - N , - - & & = = * $ $ % %   ",
"  . $ % = * * * ; = ; ; ; = , , R - - - - & & - - - - - - - - - - - - - - - - - - - - - - - - - - - - - - - - - = - - - - - - - - - - = = = = - = - = - - = = - - - - - : - = - - = - - - - - - - - - - - { ^ / - - = = - - - - - - - - = - - - - - - - - = - = - - - - - - - - = - = - = - - - = - - - = - - - - - = - - - - - - - - - - = - - - - - = - = - = = - = - - - - = - - = ] - - = - = - - - - ( / - = - - - - - - - - - - - - - - - - - - - - = = = - - - - - - - - - - = - - - - - - P O , , - - - = = * $ $ % %   ",
"  . $ % * & * * * ; - ; ; = , - - - - - - - - - - - - - - - - - - - - - - - - - - - - - - - - - = - - - - - - - - - - - - - - - - = - = = - = - = - = = - = = R = - - - - - - - = = - - - - - - = - - - - - - - - - = = - - - - - - - - - - - - = - - - - = - = - = - - - - - - - - = = = - - - = - - - = - = - - - = - = - - - - - - - - = - - - - - = - - - = = - = ^ - - - = = - - - - - = - - - - - - - - - = - - - - - - - - - - = - = = = - - - - - - = = - - - - - - - - - - = - - - - - - - - - P - - - - & * $ % % %   ",
"  . % % * * , * * * - ; ; = - - - - = - - - - - - - - - - - - - - - - - - - - - - - - - - - - - = - - - - - - - - - - - - - - - - = = = = - = - = - = - - = = > = - - - - - - - = = - - - - - - = - / / - - - - - - ] = - - - - - - - - - - - - - - = - - = = = = = - - - - - - = - = = = - - - = - - - = - = - - - = - = - - - - - - - - - - - - - - = - = - = = = = - - - - = = - - - - - - - O - - - - - - - = - - = - - - - - - - - - = - - - - - - - = = - - - - - - - - - - - = - - - - - - = - - - - - - = & * $ $ % $   ",
"  . % % = & , , = = / = = = - - - - - - - - - - - - - - - - - - - - - - - - - - - - - - - - - - - - - = O , - - - - - - - - - - - = - - = = = - = - = P , = = = = - - - - - = - - - - - - - - - = = < N - = - - - = - - - - - - - - - - - - - = = - = - - = = = = - - - - - - - = - = = = - - - = - - - = - = - - - - - - - - - - - - - - - - - - - = = - = - = = = - - - - U = = = - - - - - - Q - - - - - - - = - , = - : O ( - - - - - - - - - - = - - - - - - - - - - - - - - - - - - - - - - = = - - - - - - & * % $ $ $   ",
"  . % % = & , , = = - - = - - - - - & & & & & - - - - - - - - - - - - - - - - - - - - - - - - - - - = = - - { - - - - - - - - - - = = - = = = - = - = = = , = = = Z - - - - - - = - - - - - - - = = - - - = - - - - - - - - - - - - - - - - - = = - = - - = = = = - - - - - - - = - - = = - - - - - - - = - - - - - - - = - - - - - - - = - - - - - = - - = = - = - - - - - - = = = - - - - ] : > - - - - - - - = - , = - { - - - - Q = - = = - - - = = - - - - - - - - - - - - - - - - & - - - - - = - - - - - = & & % $ $ $   ",
"  . $ * = & & & = = - - = - - - - - & & - - - - - - - - - - - - - - - - - - - - - - - - - - - - - - = - - - - - - - - - - - - - - = = = = = - - = - = - = < = - = - - - - - - - - - - - - { N - - - - - - = - - - = - - - - - - - - - - - - - = = - = - - - = = = = - - - - - - - - - - - - - - = - - - = - - - - - - - = - - - - - - - = - - - - - = = - = - - = - - - - - - = - = - = - - < ^ = - - - - - - - = - , = - - - - - - - - - = = - - - = = = = - - - - - - - - - - - - & - & - - - - - = - - - - - = & & $ $ % $   ",
"  . $ * = & * & = = - - = - - , - - = , - - - - - - - - - - - - - - - - - - - - - - - - - - - - = - = > , = - - = - ^ - - - - - - - = - = = - - = - = - = = = = - - - - - - - - = = - - - - - - - - - - - = - - - - - - - - - - - - - - - - - = = - = - - - - = = = - - - - - - - - - = - - - - = - - N - - - - - - - - - - - - - - - - = - - - - - - - - = - - = - - - - - - = - = - = - - = O = - - Q - = = - - R U - - - - - - - > - - - - - - - = - = - - - - - - { / { - - - - & & - - - - - - = - - - - - - & & $ $ % $   ",
"  @ = & & % % % - * * - = = - - - - - , - { - - - - - - - - - - - - - - - - - - - - - - - - - - = - = / - = - - - - - - - - - - - - = = = = = = = - = - = = = = = - - - - = - - - - - - - - - - - - - - - - - - - - - - - - - - - - - - - - - - - - = - - = - - - = - - - - - - - - - = - - - - = - - - - - - - - - - - - - - - - - - - - - - - - - - - - - - - = - - - - - - = - = - - - - = - - - - - - - - - - , - = - - - - - - - - - - = - - - = - = - - - - = - / , - - - - - = - - - - & & - = - - - - - - , & $ $ % $   ",
"5.@ = & % % % % * * * - = = - - - - - - Q { - - - - - - - - - - - - - - - - - - > , , - - - - - - , = - - - - - - - - - - - - - - = - = = = = - = - = - = = = = - - - - - - = = = = - - - - - - - - - - - - - - - - - - - - - - - - - - - - - - - - = - = = = - - = - - - - - - - - = = - - - - = { - - - - - - - - - = = - - - - - - - = - - - - - - - - - - - - - - - - - - = - = - - - - = - - - - { - - - - = N > = - - - - - - - = - - - - - - = - - - - - - - - - = - - - - - = - - - - - - - = - - - - - - & & $ $ % $   ",
"  . $ & $ % % & - * - - = = - - - - - ] , ] - - - - - - - - - - - - - - - - ] - O N , - - - - - - , , > - - - - - Q - - - - - - - = > / P ] = - = - = - = = = = = - - - - - = = = - = - - - - - - - - - - - - - - - - - - - - - = - - - - - - - - - - - = = = - - = - - - - - - - - = = - - - - = - - - = - - - - - - = = - - - - - - - = - - - - - - - - - - - - - - - O - - = - = = - - = = - - - - - - - - - = - - = - - - - - - - - = - - - - - - - - = - - - - - - - - - - - - = - - - - - - - = - - & & & - = & $ % % $   ",
"  . $ & $ * & & - % % - ; ; - - - - < , = - - - - - - - - - - - - - - - - - - , , U ( - { - - - - Q - - - - - - , - - - - - - - - = R = = - = - = - = - = - = - - - - = - - = = = - = - - - - - - - - - - - - - - - - - - - - - = - - - - - - - - - - - = = = - - = - > - - - - = - = - - - - / = - - - - - - - - - - = = - - - - - - - = - - - - - - - - - - = - - - - - - - = : = = - - = = - - - - O - - - - ^ - - = - - - - - - - - = - = - - - = - = = - = - - - - = - - - - - - - - - - - = - - - - & & - = = & $ $ % $   ",
"  . % $ $ % * & = % % - = & - - - - < - , - - - - - - - - - - - - - - - - - - - - - - - - - - O O - { - - - - - - - - - - - - - - = > , = - - - = - = - - - = - - - - = - - = = = - = - ] / - - - - - - - - - - - - - - - - - - = - - - - - - - - - - ] = = - - - = { > - - - - = = = - - - - ( = - Q Q - - - - - - - = = - - - - - - - = - - - - - - - - = - = - = = - - - - = - = = - - = = - - - O < - - - = - - - - - - - - - - - - - - = - - - = = = = = = - - - - = - - - - - - - - - - - = - = - - & - - = = & $ % % $   ",
"  . % $ % % % & = & - - = - - - - = / - , - - - - - - - - - - - - - - - - - - - - - - - - - - { , < N - - - - - - ^ > - - - - - - = = - = - - - = - = - - - = - - - - - - - - - = - = , , - - - - - - - - - - - - - - - - - - - - - - - - - - - - - O - - - - = - - - - - - - - = = = - - - - - = - - = - - - - - - = = - - - = - - - - = - - - = - - - - = = = - - - - = = - = - = ( = - = = - - - - - - - - = - - - - - - - - - - - = = - = - - - = - = - = = - = - - = - - - = - - - - - - - = - = - - & - = = & & $ % $ $   ",
"  . % $ % % % % % = - - = - - - - = - - , - - - - - - - - - - - ] / - - - - - - - - - - / { - - , < = - - - - - = , , Z - - - - - = = - = ^ > - = - - - = - = - - - - - - = = - = , , ] - - - - - - - - - - - - - - - - - - - - - - - - - - - - - O < - - - - = - - - - - - - - = = - - - - - - = - - = - - - - - - = = - - - = - - - - = - - - = = - - - = = = - - - - = = - = - = , = - = - - - - - - - - - = = - - = - - - - - - = = = - = - - = - - = - = - - = - - = - - - - - = - - - - - = - = ' & - - = = & & $ % % $   ",
"  . $ ; = % % % = - - - = - - - - = - - , - - - - - - - - - - - ] , , - - - - - - - > < ] / - - - - = O - - - = = , U / - - - - - = = - = : , - - - = - = - = - - - - - - = = , , , ] - = - - - - - - - - - - - - - - - - - - - - - - - - - - - - > { - - - - = - - - - - - - - = = - = - - - ( = - { = = - - - - - = = = - - = = - - - = = - - - - ] - - = - = - = - - = = - = - = - = - - - - - - - - - - - = - - - = - - - - - - = - - - = - - = - - = - = - - = - - = - - - - - = - - - - * = - < U ) - - = - & & $ % % $   ",
"  . * * = & & = * % % % % - - - - - - - , - - - - - - - - - - - - - - - - - - - - - , O - - - - - - = - , - - = = , , P - - - - - = = - - = , Q - - = - = - = - - - - - - = > , , , - - = - - - - - - - - - = - - - - - - - - - - - - - - - - - - - - - - - - = - - - - - - - - = = - = - - - > - - { - - > - - - - - = = - - = = - - - = = - - - - , - = = - = - = - - = = - = - = - - - = - - - - - - - - - - - - - = - - - - - - - - - = = - - = - - - - = - - = - - = - - - - & - - - - - & = - N , , , & & - & & $ $ $ $   ",
"  . $ * = $ & = * * ; - = - - - - - - - - & - - - - - - - - - - - - - - - - - - - - , , - - - - - - - - , / - = - ^ , 2.- - - - - = = - - = - - = = = - = - = - - - - = - - - - - - - - - - - - - - - - - - = - - - - - - - - - - - - - - - - = - - - - - - - = - - - - - - - - - = - = - - - - - - Q - , : - - - - - = - - - = = - - - = = - - - < , - = = = = - = - - - - - = - = - - - = - - - - - - - - - - - - - = - - - - - - - - - = = - - - - - - - = - - = - - = - - - - - - - - - - & & - - N ] R ! & & & * % $ $ $   ",
"  . * * $ & = = * * ; ; = - ; - - - - - - - - - - - - - - - - - - - - - - - - - - - U - - - - - - - - - - - - = - Q , - - - - - - = - - - = - - = = - - = - = - - - - = - - - - - - = - - - - - - - - - - - = - - - - - - - - - - - - - - - - = - - - - - - - = - - - - - - - - - = = = - - - - - - - = = { / - - - - = = - - - - - - - = - - - - - - - = - = = - = - - - - - - = = - - - = - - - - - - - - - = - - - = - - - - - - - - = = - = - = = = - - = - - - - - - Z - - & - - { ] & - - - - - - - - - - - * * $ $ $ $   ",
"  . * * $ & = = & - * - = - - - - - - - - - - - - - - - - - - - - - - - - - - - - - > - - - - - - - - - - - - = - - N - - - - - - - - - = = - - = - - - = - - - - - = = - - - - - - - = - - - - - - - - - - - - = - - - - - - - - - - - - - - = - - - - - - - = - - - - - - - - - = = = - - - - - - - = - - ] / - - - = = - = - - - - - = - - - - - - - = - = = - = - - - = - = - = = - - - - - - - - - - - - = - - - = - - - - - / - - = = - = - = = = - - = - - - ^ > , , U - - - - - { & & - - - - - & - - - - * $ $ $ $ $   ",
"  . * % % & & $ = $ - - - - - - - - - - - - - - - - - - - - - - - - - - - - - - - - - O U - - - - - = - - - - = - - ( - - - - - - - - = = - - = = - - - = ^ - - - - = = - - - - - - - = - - - - - - - - - - - - = - - - - - - - - - - - - - - - - - - - - - - = - - - - - - - - - = = - - - - - - - - = - - = - { U Z = - - - - - = - - = - - - - = = - = - = = - = - - - = = = - = = - = - - - - - - - - - - - - - - = - - - - - - - - = = - = - = = = - - = - - - P ] , , , , , N - - - - - - - - - & & & - - - & $ % $ $ $   ",
"  . * % % % % $ $ $ - - - - - - - - - & - - - - - - - - - - - - - - - - - - - - - - - N , - - - - - = - - - - = - - - - - - - - - - = = = - , = - - = - = 2.= - - - - - - - - - - - - - - - - - - - - - - - - = = - - - = - - - - - - - - - - = - - - - - - - = - - - - - - - - - = = - - - - - - - - - ^ / = - - < - = - - - - - = > - - - - - = = = - - - = = O - - - = - - = - - - - = - - - - - - - - - - - - - - - - - - - - - - - = = - - - - - - - - = - - N ( - , , , , , = = - - - - - - & & & & & - - - & % % $ $ $   ",
"  . * % % % $ % $ & - - = - - - & & & & - - - - - - - - - - - - - - - - - - - - - - - , ^ - - - - - - - - - - = - - - - - - - - - - = - - , , = , , = - N , = - - - = - - = = - - - - - - - - - - - - - - - - - = - - - = - - - - - - - O ] - - - - - - = - - = - - - - - - - - - - = - - - - - - - - - - - = - - - - = - - - - O = - - - - - = = - - - = - = = - - - - = - - = = - - - = - - - - - - - - - - - - - - - - - - - - - - - = = - - - - - - - - = - - - - - O - , / - = = - - - - - = & & & - - - - & * % % $ $ $   ",
"  . * % % $ $ % % % & * * - - - & & & - - - - - - - - - - - - - - - - - - - - - ( { > ( < - - - - - - - - - - = - - - - - - - - - = = = = = , , , , , - - = - - - = = = - - - - - - = - - - - - - - - - - - - = - - - - = - - - - - - - - - - - - - - - = = - = - - - - - - - - - - = - - - - - - - - - - - - - - - - = - - - = - = - - = - = - = - - - = - = = - - - { = = - = = - - - - - - - - - - - - - - - - - - - - - - - - - - = = = - - - = = - - - = - - - - - - - - - - - = - - - - - & & - - - - - = & * * % % $ $   ",
"  . ; % % % $ * & & ! * * ; - - - - - - - - - - - - - - - - - - - - - - - - - - U < { / - - - - - - - - - - < = - - - - - - - - - = = = , = , , , , , - - - - - - = = - - - - - - - - - - - - = - - - - - - - - - - - - = - - - - - - - - - - P - - - - = = - = - - - - - - - - - - - - - - - - - - - - - - - - - - - = - - - = - = - - = - = < = - - - = R = = - - ^ , - = = = = = - - - = - - - - - - - ] - - - - - - - - - - - - - = = = - - = = = - - - = - - = - - - - - - - = = & - - - - & & - - - - - = * * * % $ $ $   ",
"  . ; * % % & * & & , * ; ; * * - - - = - - - - - - - - - - - - - - - - - - - - < - / > - - - - - - - - - - , = < - - - - - - - - = = = , , , = , = , - ^ - - - - = = = - - = - - - - = - - - = - - - - - - - - = - - - = - - - - - - - - - - , - - - = - - - = - - - - - - - - - - - - - - - - - - - - - = - - - - - = - - - - - = - - = - = - - - - < = = = - - - P , = = = = = - - - - - - - - - - - - , { - - - - - - - - - - - = = = = - = = = = = - - = - - = - - & - - - - = = & & - - - = & - - - & - = - * * $ $ $ $   ",
"  . $ $ % % & & = & * * * * * * - - - = - - - - - - - - - - - - - - - - - - - - - , - - - - - - - - - - - - - = - - - - - - - - - = = - , , / = - = - - , - - - / = - = U , = - - - - - - - - - - - - - - - - - = - { - - - - - - - - - - - - - - - - = - - / - - - - - - - - - - - - - - - - - - - - - - = - - - - < = { - - - - = - - = - - - - - - - = = = O - - > : - - = = - - = = - - - - - - - - - - - - - - - - - - - - - - = = = - - - - = = = - = = - - = - & - - - & & = & & & - - - & - - - - & & = - * * $ $ $ $   ",
"  . * % % & & & = & * * * * * & & - - - - - - - - - - - - - - - - - - - - - - - - > { - - - - - - - - - - - - - - - - - - - - - - = = - - - - = - = - - - - - - - , - = - , , - - = = - - - - - - - - - - - - - = - - - - - - - - { - - - - - - - - - - - - - - / - - - - - - - - = = - - - - - - - - - - - - - - - U = - - = - - - - - = - - = - ^ ] / = = = > - = - - - - = = - - - = = = - - - - - - - - - - - - - - - - - - - - = - - - - - - = = = - = = - - - - - - - & & & & & & - - - - - - = - & & & = - * * % $ $ $   ",
"  . * % % & & & = * * * * * * & & & - - - - - - - - - - { - - - - - - - - - - - - - - - - - - - - - - - - - - - - - - - - - - - - - = - - = - = = = - - - - = - - P - - - - , N - = - = - - U , , ] - - = - > - = - - - - - - - ] - - - - - = - - - - = - - - - , - - - - - - - - = = - - - - - - - - - - - - = - Q ( = - - = = - - - - = - - = - - , < = = = - - = - - - - = - - - - = = - - - - - - - - - - - - - - - - - - - - = = = - - - - = = = = - = = = - - - - - - & & & & & - - - - - - - = & & & & - - * $ % % $ $   ",
"  . $ % % & & = * * * * & * & & & - - - - - - - - - - - P - - - - - - - - - - - - - - - - - - - - - - - - - - - - - - - - - - - - - - - - - - = = = - - = - - - - = - = > = = - - = - = - , N , , , ^ : = - - - - - - - - - - - { , - - - - = - - - - = - = - - - - - - - - - - - = = - - - - - - - - - - = - = - - - - - - = = = - - - = - - = = = , = = > = - - = - - - - = - - = - - = - - - - - - - - - - - - - = - - - - - - = = = - - - - = = = = - - = = - = - - - & - - & = & - - - - - - - - & & & & - - & % % $ % $   ",
"  . * % & * * * * * * ; & & & & & - - - - - - - & - - - , > - - - - - - - - - - - - - - - - - - - - - - - - - - - - - - - - - Q U = - = - = - - - - = = - - - - - = = = ] = - - - = - - U , , , ( , > - - - = - = - - - - - - - - - - - - - = - - - - - - = - { - - - - - - - - - = = - - - - - - - - - - = - - - - - - - - - - - - - - - - - = = = / = = - = - - = - - - - = = - = = - = - - - - - - - - - - - - - = - - - - - - = - = - - - = = = = - - - = = ( = - - : - - - - - & - - - - - = - - & & & & = - & % % % % $   ",
"  . * * * * * * * * * * - - & * - * & - - & - & & - - - - Q - - - - - - - - - - - - - - - - - - - - - - - - - - - - - - - - , , , = - = - = - - = - = - = - - - - = - = , = - - - = - - - - - / ] - - - = - - - > , - - - - - - - - - - - - = - - - - - - = { = - - - - - - - - - - - - - - - - - - - - - = - - - = - - - - - = = - - - - - - = = = - = = - = - - - - - - - = = - = = - = - - - - - - - - - - - - - = - - - - - - = - = - - - - = - = - - - - - < = - - & - - - - & - & & & & & = - & & & & * & - & , % % % $   ",
"  . * * * * * * * * - - - - * * * * & & - & & & & - - - - - - - - - - - - - - - - - - - - - - - - - - - - - - - - - - - - - , , , = = = = - - - = - = - = - = - - = = = , < - - - = - - - - - - - - - - = - - - , , - - - - - - - - - - - - = - - - - - - = - - - - - - - - - - - - - - - - - - - - - - - = - - = = - - = - - = = - - = - - - = = = - = = - = - - = - { - - = = - = = - = - - - - - - - - - - - - - - - - - - - - = - - - - - - = - = - - = - - / = - - - - - - - - & & & & & - = & & & & & & = - & , % % % $   ",
"  . * % & & * = & - - & & & * * * * & = & & & & & - - - - - - - - - - - - - - - - - - - O > - - - - - - - - - - - - - - - { - - < , - = = - - - = - - = - - = - - = = = , > - - - = = = - - - - - - - - - - - - - O - - - - - - - - - - - - = - - - - = - = - - - - - - - - - - - - = - - - - - - - - - - - - - - = - - - - = = = - - = - - - = = - - O = - - - - = - - - - = = - = - - = - - - - - - - - - - - - - - - - - - - - = - - - - - - = - - = - = - - - = - - - - - - - - - - & & - - & & & & & & - = - & * % % $ $   ",
"  . % % % & & = & - - & & & & * * * & = & & - & & & - - - - - - - - - - - - - - - - - - - - - - - - - - - - - - - - - - - - - - - , - = - - - - = - - - - - - - - = - - = R - - - = = = - - - - - - - - - - - - - = - - - - - - - - - - - - - - - - - = - - - - - - - - - - - - - = = - - - - - - - - - - - - - = - - - - - = = = - - = - = - = - - - = - - - - - = - - - - = = - - = - = - - - - - - - - = - - - - - O - - - - - = - - = - O = = - = - - = = ( - = - - - - - & & & - - & & - - - & & & & & - - - * & % % $ $   ",
"  . % % % & * = & - * & & - - & - * - = - - - - - - - - - - - - - - - - - - - - - - - - - - - - - - - - - - - - - - - - - - / R { , , = = = - - - - - - - - - - - = - - = - = - - - - - - - - - - - - - - - - - - - - - - - - - - - - - - - = - - - - = - - - - - - - - - - - - - - - - - - - - - - - - - - - - - - - - - - = = = - - - - = - = = - - - - - - - - = - - - - = = - - = - = - - - - - - - - = - - - - - - - - - - - = - , = - - = = - = - - = = - - - - - - - - & & & , > ! & - - - - & & & & - - - * * % % $ $   ",
"  . % & & & * * & & * * * * - - - - - = - - - - - - - - - - - - - - - - - - - - - - - P R - - - - - - - - - - - - - - - - / , , , , , = = - - - - - - - - - - , = = - Q = - = - - - - - - - - - - - - - - - - - - - - - - - - - - - - - - - = - - - - = - = - - - - - - - - - - - - - - - - - - - - - - - - - - = - - - - - = - = - - = - = - = = - - = = - - - - = - - - - = = - = = - = - - - - - - - - - - - - - - - - = - - - = Q = = - - = = - = - - = = - - - - - Z - & & , , , < , & & ) & - & & & & & & & * & % % $ $   ",
"  . % $ & & & * & & - - - - & & - & - = - - - - - - - - - - - - - - - - - - - - - - , , - - - - - - - - - - - - - - - - - - , , , , , = = = , , - - - - - - - - = = - - = - = - - - - - - - - - - - - - - - - - - - - - - - - - - - - - - - = - - - - = - = - - - - - - - - - - - - { > - - - - - - - - - - - = = - - - - - - - = - - - - - - - = - = = = - - - - = - - - - = = = = = = = - - - - = - - - - - - - - - - - = - - - - Q = = - - = = - = - - = = P - - - - - - = ! O ! - & & & & & & & & & & & & & * * % % % $ $   ",
"  . % $ & & & = & & - - - * & & & & & = - - - - - - - - - - - - - - - - - - - - - < , U - / - - , , - - - - - - - - - - - - - , , , = , = = , , = = - = - - - - = = - , = - = - - = - - - - - - - - - - - - - - - - - - - - - - - - - - - - = - - - - - - = - - - - - - - - - - - - > - - - - { - - - - - - - = - - - - - - = - = - - = - - - - - - - - = - - - = = - - - - = = = = = = = - - - - = - - - - - - - - - - - = - - - - - , - - - = = - = - = - = - Q - - - { - - 2.) & & & & & & & & & & & & * & & * ; % $ $ $ $   ",
"  . % % & & & & & & - - * * & & & & = = - - & & & - - - - - - - - - - - - - - - - , , - - - - , , , N - - - - - - - - - - - - - - = = , = = Q , - = - = - - - - = = - Q - - = - - = - - - - - - - - - - - - - - - - - - - - - - - - - - - - = - - - - - - - > - - - - - - - - - - - - - - - - - - - - - - - - - - = - = - - = - = - - = - - - = - - - - - - = - = = = - - - = = = = = = = - - - - = - - - - - - - - - - - - - - - - : , - - - = = - = - = = = - - - - - & - Z & & & & & - & & & & & & & - * & & * & $ % $ $ $   ",
"  . $ $ $ & & & & - & & * & * * & & = = & & & & - - - - - - - - - - - - - - - - - - - - - - , , , , - - - - - - - - - - - - - - - = = - = = - : - = - = - - - - - = - - = - - - - - - - - - - - - - - - - - - - - - - - - - - - - - - - - - - - - - - O - - - - - - - - - - - - - - - - - - - - - - - - - - - - - - = - - - = - = - - = - - - - - - - - = - - - = - = - - - = = = = = - - - - - - - - - - - - - - - - - - - - - - = O < - - - = = - = - = = = - - - - & & & & & & - - & & - - & & & & & - * & & & & % $ $ $ $   ",
"  . & $ * & & & & & & & & & & * * * = - & & & - , > , U - - - - - - - - - - - - - - - - - - , , , , - - - - - - - - - - - - - - - = = - = - - - - = - = - - - - - = - - - - - - - - - - - - - - - - - - - - - - - - - - - - - - - - - - - - - { - - - > - - - - - - - - - - - - - - - - - - - - - - - - - = - - - - - - - - = - = - - = - - - - - - - - - - - - = - = - - - = = - = = - = - - - - - - - - - - - - - - - = - - - - = = - - - - - = - = - = = - - - - - & & & & & & & & & & & & & & & & & & & & & & $ $ $ $ $ $   ",
"  . & % % & & = & & & & & - - - - - - - & - - , , , , , - - - - - - - - - - - - - - - - - - , , , , , - - - - - - - - - - = - - - = - - = - = - - = - - - - = - - - = - - - - - - - - - - - - - - - - - - - - - - = - - - - - - - - - - - - - - - - - - - - - - - - - - - - - - - - - - - - - - - - - - - - { - - - - - - - - = = - = - - - - - - - - - = - - - - - - - - = = - - = - - = - - - - - - - - - - - - - - - = - - - - = = - = - - = = - = - = - - - - - - - & & & & & & & & & & & & & & & & & & & ! & % $ $ $ $ $   ",
"  + % % % & & & & - & & & - - - - - - - - - - , , , , , - - - - - - - - - - - - - - - - - - , , , , , - - - - - - - - - - = - - - - - - = - - - - = = - - - - - - - = - - - - - - - - - - - - - - - - - - - = - - = - - - - - - - - - - Q ] - - - - - - - - - - - - - - - - - - - - - - - - - - - - ] - - - - = - - - - - - - = = { ] = - ( - - - - - - = - - - - - - - - = = - - - = - = - - - - - - - - - - - - - - - = - = - - = = - = - - = = - = - - - - - - - - - & & & & & & & & & & & & & & & & & & & & & $ % $ $ $ $   ",
"  + % % % & & & & & & & & - - - - - - - - - - - O ' U Q - - - - - - - - - - - - - - - - - - - / , , , - - - - - - - - - - = - - - = = - = = - - - - - - - - - - - - = - - - - - - = - - - - - - - - - - - - - - - - - : - - - - - - < > > { = - - - Z / - - - - - - - - - - - - - - - - - - - - - - / - = - - = = - - = - - - = = - Z - - - - - - - - - - - - - - - - - - = - - - = = - = - - - - - - - = - - - - - - - = - = - - = = - - - - = = - = = = - - - - - - - - & & & & & - & & & & & & & & & & & & & & $ % % $ $ $   ",
"  + % % % & & & & & & & & - - - - - - - - - - - , , ( { - - - - - - - - - - - - - - - - - - - - , , , - - - - - - - - - - = = - - - = - = = - - - - - - - - = - - - - - - - - - - = = - - - - - - - - - - - - - - - - - - - - - - - - O { > = - - - - > - - - - - - - - - - - - - - - - - - - - - - - - = - - = = - - = - - - = = - - - - - = - - - - - - - - - = - - = - = = - = = = - = - - - - - - - = - - - - - - - = - = - - - - = - - - = = - = = = ^ - - - - - - & & & & = & & & & & & & & & & , & & & & & % % % $ $ $   ",
"  + % % % & & & & & & & * - - - - - - - - - - - O , U - - - - - - - - - - - - - - - - - - - = - - , - - - - - - - - - - - - - - - - = = = = - - - - - - ^ - = - - = - - - - - - - - = - - - - - - - - - - = - - - - - - - - - - - - < / { - = O - - - - - - - - - - - - - - - - - - - - - - - - - - - - - - - - - - - = - - = - - - - - - - = = - - - - - - - - = - - - - = = = - = = - - - - - - - - - = - - - - - - - = - - - - - - = = - - = = - = = = { - - ( - - - & & & & = & & & & & & & & & & & & & & & & % % % $ $ $   ",
"  + % % % % & & & & & & & - - - - - - - - - - - - , - - - - - - - - - - - - - - - - - - - - - - ( - - - - - - - - - - - - - - - - - = = - - - - - - - = - - = - - = - - - - - - - - = - - - - - - - - - = - - - - - - - - - - - - > Q ^ - - - - - - - - - - - - - - - - - - - - - - - - - - - - - - - - - - - - - - - - - - - - - - = = - - = - - - - - - - - - = - - - - = - = = = = - - - - - - - - - - - - - - - - - = - - - - - = - - - - = = - - - = - - - > - - - & & & & = & & & & & & & & & & & & & & & & & % % $ $ $   ",
"  + % $ $ $ & & & & & & & - - - - - - - - - - - & - - - - - - - - - - - - - - - - - - - - - - - - - - - - - - - - - - - - - - - - - = - - - - - - = - - - - - - - - - - - - - - - - - - - - - - - - - - = - - - - - - - - - - - - - - ] N 2.- - - - - - - - - - - - - - - { { - - - - - - - - - - - - - - - - - = - - - - - - - - - - = - - = = = - - - - - - - = - = - - = - - = = - - - - - - - - - - - - - - - - - - = - - - - - = - - - - = = - = - - - - - - - - - & & & & & & & & & & & & & & & & & & , & & & % % $ $ $   ",
"  + % % $ % & & & & & & & * - - - - - - - - - - - - - - - - - - - - - - - - - - - - - - - - - - - - - - - - - - - - - - - - - - - - - = - = - - - = - - - - - - - - - - = - - - = - - - - - - - - - - - = - - - - - - - - - - - - - / ^ , , ] - - - - - - - - = - - - - - - - - - - = - = - - Z Z - - - - - - - - - - - - - - - = - = - - - - = = = = = - - - - = - = - - = - - = = - - - - - - - - - = - - - - - - - - = - - - - - - - - - - = = = = - - - - - - - - - & & & = = & & & & & & & & & & & , ) , & & & % % $ $ $   ",
"  + % $ $ $ & & & & & & * ; - - - - - - - - - - - - - - - - - - - - - - - - - - - - - - - - - - - - - - - - - - - - - - - - - - - - - = - = - - - - - - - - - - - = - - - - - - - - - - - - - - - - - - - - - - - - - - - - - - - - - N , , - - - - - - - - - = - - - > - - - - - - = - = - - - = - - - - - - - - - - - - - - - = - = - - - - - - = = - - - - - = - = - - = - - = = - - - - - - - - - - - - - - - - - - - - - - - = - - - - - = = = = - - - - - - - - - - - & = & & & & & & & & & & & & & & * & & & = % $ $ $   ",
"  + % % $ $ & = ; & & & & - - - - - - - - - - - - - - - - - - - - - - - - - - - - - - - - - - - - - - - - - - - - - = - - - - - - - - - = = - - = = - - - - - - - = - - - - - - - - - - - - - - - - - - = - - - - - - - - - - - - - - - - { - - - - - - - - - - - - - - - - - - - - - - - - - - = - - - - - - - = - - - - - - - = - - - - - - - - = = - = - - - = - = - - = - - = = - - - - - - - - - = - = - - - - - - - - - - - = = - - - - = - = = - - - = - - - - - & & & = & & & & & & ' & & & & & & & & & & & = % $ $ $   ",
"  . $ $ $ $ & ; ; & & & & & - - - - - - - - - - - - - - - - - - - - - - - - - - - - - - - - - - - = - - - - - - - - = - - - - - - - - - - - - - = - = - - - - - = = - - - - - - - - - - - - - - - - - - = - - - - - - - - - - - - - - - - - - - - - - - - - - = - - - - - - - - - - - - - - - = = - - - = - - - - - - - - - - - = - - - - - - - - = = - = - - - = - = - - = - - - = - - - - - - - - - = - = - - - - - - - - - - - = = - - - - = - = = - = - = - - - - - - - & = & & & & & & & & & & & & & & & & & & = % $ $ $   ",
"  . $ $ $ $ * ; & & & & & & - - - - = - - - - - - - - - - - - - - - - - - - - - - - - - - - - - = = - - - - - - - - = - - - - - - - - - - - - - = = = - - - - = = - - - - - - - - - - - - - - - - - - ] = - - - - - - - - - - - - - - - - - - - - - - - - - - = - - - - - - - - U - - - - - - - = - - - = - - - - - - - - - - = - - - - - - = = = = = - = - - - = = = - - = - = = - - - - - - - - - - - - = - - - - - - - - - - - = = - - - = = = - = - = - = - - - - & - - & = & & & & & & & & & & & & & & & & & & & % $ $ $   ",
"  . $ $ $ $ & ; ; ; & & ; ; - - - - - - - - - - - - - - - - - - - - - - - - - - - - - - - - - - - = - - - - - - - - - - - - - - - - - - - - - - = - = - - - - = - - - - - - - - - - - - - - - - - - - , = - - - - - - - - - - - - - - - - - - - - - - - - - - = - - - - - - - - > - - - = - - - = - - - - - - - = - - - - - - = = - - - - - = = = = - - - - - - - - - - = = - = = - - - = - - - - - - = - - - - - - - - - - - - - = = = - - = = = = - - = - - - - - - & & - & = & & & & & & & & & & & & & & & & & & & % $ $ $   ",
"  + $ $ $ $ & & ; ; ; & ; - - - - & - - - - - - - - - - - - - - - - - - - - - - - - - - - - - - - - - - - - - - - - - - - - - - - - - - - - - - - = = - - - - = - = - - - - - - / ] O ( , - - - - - - , = O - - - - - - - - - - - - - - - - - - - - - - - - = = - - = - - - - - - - - - - - = - = - - - - - - - = - - - - - - - = - - - - - - - = = = - - - - - - - - - - = - - = - - - - - - - - - - = - - - - - - - - - - - - - = = = - - = = = = = = = - - - - - - & & & - = & & & & & & & & & & & & & & & & & & & % $ $ $   ",
"  . $ $ $ $ & & ; * * * ; - - - - - - - - - - - - - - - - - - - - - - - - - - - - - - - - - - - - - - - - = - - - - - - - - - - - - - - = - - - - = = - - - - = - = - - - - - , O , , < , = - - - - - - = , { - - - - > > / - - - - - - - - - - - - - - - - = - - - = - - - - - - - - - - = = = = - - - - - - - ] ] - - - - - - - - - = - - - - = = = = - = - = - = - - - - - - = - - - - - - - - - - - Q - - - - - - - = - - - - = = = - - = = = = = = = = - - - - - & & & - = & & & & & & * & & & & & & & & & & & & % % $ $   ",
"  + $ $ $ $ & & - ; * ; & & & & - - - - - - - - - - - - - - - - - - - - - - - - - - - - - - - - - - - - - - - - - - - - - - - - - - = - - - = - - = - - - - - = - = - - - - - - , , , , ^ = - - - - - - = ] - ] - - - - - - - - - - - - - - - - - - - - - - - - - - = - - - - - - - - - - = = = = - - - - - - O U { - - - - - - - - - = - - - - = = = = - - - - - = - - - = - - - - - - ^ - - - - - - - - - - - - - - - - - - - - - = = - - = = = = - = - = - - - - - & & & - = & & & & & & & & * & & & & & & & & = & % % $ $   ",
"  + $ $ $ $ & & & - ; & & & & - - - - - - - - - - - - - - - - - - - - - - - - - - - - - - - - - - - - - - - - - - - - - - - - - - - = - - = = - - = - - - - - - - - - - - - - - : , , , , = - - - - - - - - O - - P - - - - - - - - - - - - - - - - - - - - - - - - - - - - - = = - - = - = = = - - - - - - - - - - - - - - - - - - = = - - - - = = = = - = - - - - = - - = - - - - - > - , O - - = = = - - - - - - - - - - - - - - = = - - = = = - - = - = - = - - - - - - - = & & & & & * & & & & & & & & & & & = & % % $ $   ",
"  + & & * & ; & & - & & & & - - - - - - - - - - - - - - - - - - - - - - - - - - - - - - - - - - - - = - = - - - - - - - = - - - - - - - = = = - - - - - - - - - - - - - - - - - - , , - - < - : - - - - - - - - - < P Q - - - - - - - - - - - - - - - - - - - - - - - - - - - - = - - = - - = = = - - - - - - - - - - - - = = = - = - - - - - - - - = = - - - - - - - - - = - - - = , , { , : - - - = = - - - - - - - - - - - - - - - = - - = = = - - = - = - = - - - & = & & = & & & & * & & & & & - - - - & & - = - % $ $ $   ",
"  + % & * $ $ & & & & ; & & - - - - - - - - - - - - - - - - - - - - - - - - - - - - - - - - - - - - - - = - - - - - - - = - - - - - = - - - - - - - - - - - - - - - - - - - - - - ] , , ] ] - ] - - - - - - - - - - - , - - - - - - - - - - - - - - - - - - - - - = - - - - - = - - - - - - = = - - - - - - - - - - - - - = = - - = = - - - - - - = = - - - - - - - - - - = - = , = ( , , / - - - - - = - - - - - - - = - - - - - - - = - - = = - - - = - = - = - - - & & & & = & & & & & & & & & & - - - - & & & = - % $ $ $   ",
"  + % & $ $ & & & & * & & & - - - = - - - - - - - - - - - - - - - - - - - - - - - - - - - - - - - - - - - - = - - - - - - - - - - - - - - - - - = - - - - - - - - - - - - - - - - , , , / P - - - - - - - - - - - - - - - - - - - - - - - - - - - - - - - - - - - - = - - - - = - - - - - - - - { > - = - - - - - - - - - = Q ] - = - - - - - - - = = = = - - - - = - - - = < = = = - P N - - - - - - = - - - - - - - = - - - - - - = = - - = = - - - = - = - - - - - & & & & = & & & & & & & & & & & & - - - - & = & % $ $ $   ",
"  + $ & $ $ & - & & & & & * * * - - - - - - - - - - - - - - - - - - - - - - - - - - - - - - - - - - - - - - = - - - - - - - - - - = - - - - - - - - - - - - - - - - - - - - - - - = - < ^ > - = - - ] - - - - - - - - - - - - > - - - - - - - - - - - - - - - - - - = = - - = = - - - - - - - - - - - - - - - - - - - - - = , Q - = - - - = - = = = = = = - - - - = = - - = - = = - P , , - - - - - = = - - - - - - - = - - - - - - = = - - - - - = - = - = - - - - - & & & - = & & & & & & & ! & & & & - - - - - = & % $ $ $   ",
"  + $ $ $ $ $ & & & & & * - * * - - - - - - - - - - - - - - - - - - - - - - - - - - - - - - - - - - - - - - - - - - - - - - - - - - - O , - - { - - - - - - - - - - - - - - - - - = - - - - = - - - - - , , , - - - - - - - - / - - - - - - - - - - - - - - - - - U = = - - = = - - - = = - = - = - - - - - - - - - > - - = - - - = - - - = - = = = - - = - - - - = = - - = - = = - , , , , - - - - = = = - - - - - - - - - - - - - = = - - - - - = - = - - - - - - - - & - - = & & & & & & & & & & & & & - & - - & & % $ $ $   ",
"  + $ $ $ $ & $ & & & & - * * * ; - - - - - - - - - - - - - - - - - - - - - - - - - - - - - - - - - - - - - - - - - - - - - - - - - - - , N - = = - - - - - - = - - - - - - - - - - - - - - - - - - - - , , U - - - - - - - - - / { - - - - - - - - - - - - - - - = - = { - = - - - - - = - = - = - - - - - - - - - - - - = Z - - = - - - = = = - = = - - - = = - = = - - = - = = - ( , , < Q - - - = = = - - - - - - - - - - - - - = = - - = - - = - = - - - - - - - & & - - = - & - - & & & & & & & - & & & & & & & % $ $ $   ",
"  + $ $ $ & & & & & & & & - * * ; - - - - - - - - - - - - - - - - - - - - - - - - - - - - - - - - - - - - - - - - - - - - - = - - - - - , , , = = , - - - - - = - - - - - - - - - - - - - - - - - - - - - - - - - - - - - - - - - Z - - - - - - - = = { - - - - - - - - - - - - - - - - - - = - - - - - - - - - - - - - - = = - - = - - , = = = = = = = - - - - - = = - - = - - - - - - - - - - - - = = = - - - - - - - - - - - - - = - - - = = = = - = - - - - - - - - - - - = - - = - - & & & & & - - & & & & & & & % $ $ $   ",
"  + $ $ $ $ * & & * & & & - * * * - - - - - - - - - - - - - - - - - - - - - - - - - - - - - - - - - - - - - - - - - - - - - - - - - - - - , - - , - - - - - - = - - - - - - - - - - - - - - - - - - - - - - - - - - - - - - - - - - - - - - - - - = = - - - = - - - - - - - - - - - < - = - = - - { = - - - - = - - - - - - - = - - - = { = = - = - = = = - - = - = = - - = - - - - - - - - - - - - - - - - - - - - - - - - - - - - = - - - = - = = - = - = - - - - - - - - - = & - = - - & & - - - - - - - & & & & & % % % $ 5.",
"  + $ $ $ $ & * * * * * * * * * * - - - - - - - - - - - - - - - - - - - - - - - - - - - - - - - - - - - - - - - - - - - - - - - - - - - - - - - - = - - = - - = - ( - - - - - - - - - - - - - - - - - - - - - - - - - - - - - - - - - - - - - - - = = - - - = - - { - - - - - - - , , , = - - - - ^ = { ^ - - = - - - - - - - - - - - - - = = - = = = - = - - - = = - - - = - - - - - - - - - - - - = - - - - - - - - - - - - - - - = - - - - - - - - = - - - - - - - - - - - = & & = - - - - - - - - - - - & & - - - % % % $   ",
"  + $ % $ & * * * * * * * * * * * - - - - - - - - - - - - - - - - - - - - - - - - - - - - - - - - - = - - - - - - - - - = - - - - - - - - - - - - = - - = < / - , < - - - - - - - - - - - - - - - - - - , - - - - - - - - - - - - - - - - - - - - - - - - - = - - - - - - - = - - O - - = = - - - , = , - - - = - - - - - - - - - - - - - = = / = = = - - - - - = = - - - - - - - - - - - - - - - - = = - - - - - - - - - { - - - - - - - - - - = - - = - - - - - - - - - - - = & & = - - - & - - - - - - - - - - - - % % $ $   ",
"  . % % $ & & * * * * * & - * ; - - - - - - - - - - - - - - - - - - - - - - - - - - - - - - - - - - - - - - - - - - - - = - - - - - - - - - - = = - - - ( , , = , { - - - - - - - - - - - - - - - - - ] , - - - - - - - - - - - - - - - - - - - - - - - - - - - - - - - - - = - - : - - = = - - ^ , , - - - - - - - - - - - - - - - - - = = = = = = = - = - - - - = - - - = - = - - - - - - - - - - = = - - - - - - - - - - - - - - - - - - - - = - - - - = - - - - - - - - - - & - = & - - - - - - - - - - - & - - - % % $ $   ",
"  . % % % & & * * * * * & & ; - - - - - - - - - - - - - - - - - - - - - - - - - - - - - - - - - - - - - - - - - - - - - = - - - - - - - - - - - - { - > , , , = P - - - - - - - - = - - - - - - - - - > - - - - - - - - - - - - - - - - - - - - - = = - - - - - - = - - < U ] - - - - - - - - = < , O - - - - - - - - - - - - - - - - - - = = = = = = - = - = - - = - - - = - = - - - - - - - - - - = = - - - - - - - - - - - - - - - = - - - - - - - - = = - - - - - - - - - = - & & & - - - - - - & & - - - & - = - % % $ $   ",
"  + % % $ $ & & * * & * & & & - - - - - - - - - - - - - - - - - - - - - - - - - - - - - - - - - - - - - - - - - - - - - = - - - - - - - - - - - - = = = , , ^ = > - - - - - - - - - O - - - - - - - - - - - - - - - - - - - - - - - - - - - - - = = = - - - - { - = - { { - > ] > - { - = - - = U , - - - - - - - - - - - - = - - - - - - - = = - - = - = - - - - = - - - = - = = - - - - - - - - - - = - - - - - - - - - - - - - - - = - - = - - - - = = = - - - - - - - - = = & & & & - - - - - & & - - - - - - - - % % $ $   ",
"  + $ % $ $ & * ; & & & & & - - - - - - - - - - - - - - - - - - - - - - - - - - - - - - - - - - - - - - - - - - - - - - - - - - = = = - - - - - = = = = , / - , { - - - - - - - - - - - - - - - - - - - - - - - - - - - - - - - - - - - - - - - = = - = - - - - - = - - - - - - , U P - - - - = , , U - - - - - - - - - - = = - - - - - - - = = - - = - - - - - = - - - - = - = - - - - - - - - - - - = - - - - - - - - - - - - - - - = > { = - = - - - = = - - - - - - - - = = & & & & - - & & - & & - - - - - - - - & % $ $   ",
"3.. $ $ $ $ * & & & & & & & - - - - - - - - - - - - - - - - - - - - - - - - - - - - - - - - - - - - - - - - - - - - - - - - - - = - - - - - - = - = - = - = - - - - - - - - - - - - - - - - - - - - > - - - - - - - - - - - - - - - - - - - - - = - - - - - - - = = - - - - - - , , / { - Z = = - - = - - - - - - - - - , , = - - - - - - - = = = = = - - - - - - - - - - = - = - - - / - - - - - : - - - - - - - - - - - - - - - - - = - - - - = - - = - - - - - - - - - - = = = & & & - & & & - - = = - - - - - - - & & $ $ 3.",
"3.+ $ $ $ $ & & & & & & - - - - - - - - - - - - - - - - - - - - - - - - - - - - - - - - - - - = - - = - - - - - - - - - - - - - = - - - - - - = = = - = - = - = - - - - - - - - - - - - - - - - - / / O - - - - - - - - - - - - - - - - - - - - - - - - - - - - - - - ] = - - - , > - = { ^ = - - - = - - - - , - N - - , - = - = = - - - - = = = = = = - - - - - - - - - - - = - - - , , - - - - U , U - - - - - - - - - - - O U - - - - - - - - - - - = - - - - - - - - - = = = * & & - & & & - - = = - - - - - - - % & $ $ 3.",
"3.+ % $ $ $ & & & - = & - - - - - - - - - - - - = - - - - - - - - - - - - - - - - - - - - - - = - - = - - - - - - - - - - - - - = - - - - , , = = = - = - = - = - - - - - - - - - = - - - - - - - - - - - { - - - - - - - - - - - - - - - - - - - - - - - - - - - - - - - - - - - - - = = = = - - - = - - - - / , < / - , - = < = = = - = = - - = = = - - - - - - - - - - - - = - - - , , , - - - - = ] - - - - - - - - - - - , , ] - - - - = - - - - - - - - - - - - - - - = = = & & & - - - & & - - - - - - O Q > - $ - $ $ 3.",
"3.+ % $ $ $ & & - - & & & & & - - - = = - - - - = - - - - - - - - - - - - - - - - - - - - = - = - = = - - - - - - - - - - - - = - - = , , , - = = - - = - - - = - - - - - - - - - = - - - - - - - = - - - N - - - - - - - - - - - - - - - - - - - - - - - - - - = = - - - - - - - - - = = = = - = - = - - - - - - ] ] , , - = > - = = - - - - - - - - - - - - - - - - - - - - = - - - : > O - - - - < Q - - - - - - - - - - , , , - - - - - = - - - - - = - - - - - - - - - = = - & & & - - - - - - = - - - - { P / - % $ $ $ 3.",
"3.+ % $ $ & & & & & & & - - - - - = = = - - - - - - - - - - - - - - - - - - - - - - - - - = - - - = = = - - - - - - - - = - - = - = = , N - - - - - - = - - - - - - - - - - - - - - - = - - - - - = - - - N , - - - - - - - - - - - - - - - - - - - - O U - - - - - - - - = = = - - - = - = = - - - = - - - - - - - Q P , - = - - - = - - - - - - - - - - - - - - - - - - - - - - - - - - - - - - { < / - - - - - - - - - U N = - - - - - - = - = - - = = - - - - - - - - - = - - & & - - - - - - - - - - - - / , , U % % $ $ 3.",
"3.+ % $ & & & & & & - - - - - - - = = - - - - - - - - - - - - - - - - - - - - - - - - - - - - - - - = = - - - - - - - - - - - = - = = , / - - - - - - - - - - - - - - - - - - - - - - - - - - - - - - - - - < - - - - - - - - - - - - - - - - - - - - - - - - - = - - - - = - = - - - - - - = - - - = - - - - - - - - - - - = - - - = - - - - - - = = - - - - - - - - - - - - - - - - - - - - - - = = - - - - - - - - - - , - - - - - - - - = - = - - = - - - - - - - - - - = - & - - - = - - - - - & - - - - - , , - % % - $   ",
"3.. % & & & & & & & & - - - - - - - = = - - - - - - - - - - - - - - - - - - - - - - - - - - - - - - - = - - - - - - - - - - - - - = = - - - - - - = - - - - - - - - - - < - - - - - - = - - - - - - U > - - O , - - - { - - , ^ - - - - - - - - = = - - - - - - = - - - - = - - - - - = - - = - - = = - - - - - - - - - - - - - - = = - - - - - - = = - - - - - = = - - - - - - - - - - - - - - - = = - - - - - - - - - - - - - - - - - - - = - = - - = - - - - - - - - - - = - - - - - = - = - - - = = - - - > , ( / % % $ $   ",
"3.. % & & & & & & & - - - - - - - - - - - - - - - - - - - - - - - - - - - - - - - - - - - - - - - - - - - - - - - - - - = - - - > = = - - - - - - = - = - - - - - - - O , Z { > - - - = - - - - - - U - - - , , - - - U : , - < - - - - - - - - - - - - - - - - - - - - - = - - - - - = - - = - - = = - - - - - - - - - - - - - = = = - - = - = - = = - - - - - = = - - - - - = - - - - - - - - - = - = - - - - - - - - - - - - - - - - - - = - - - - = - - - - - - - - - - = - - - - - = - = - - & = = - - - , , - - % % $ $   ",
"3.. & & $ & & & & & = & - - - - - - - - - - - = = - - - - - - - - - - - - - - - - - - - - - - - - = - - - - - - - - - = = - - - = = = - - - - - - - - = - - - - - - - R , , ( N - - - = - - - - - - - - - - > > - - - - - - - N Z - - - - - - - - - - - - - = - = - - - - = - = N P O = - = = - - = = - - - - - - - - - - - - - = - = - - = = = - = = - - - = - = - - - - - - = - - - - - - - - - = = = - - - - - - - - P / - - - - - - - - = - - - - = - - - - - - - - - - = - - - & & = { = - - & - = - - , , O - - % % $ $   ",
"  . & $ & & & & & = = & & & & & - & - - - - - = = - - - - - - = - - - - - - - - - - - - - = - - - - - - - - - - - - - = = - - - = , = - - - - ] - - - = - - - - - - - , , , U < R - - = - - , - - - - - - - - - - - - - - , - , / { - - - - - - = - - - - - - - > ^ , { - = - = - - - = = = = = = = = - - - - - - - - - - - - - = - = - - = = - - = = - - - - = = - - - - - - = = - - - - - - - - = = = - - - - - { - - , , - - Q ^ = - - - - - = - - = = - - - - - - - - - = - - & & - = - = - - - - - > > - - - - - % % $ $   ",
"  + & $ & & & & & & = & & & & & - - - - - - - = = - - - - - - = - - - - - - - - - - - - - = - - - = - - - - - - - - - = = - - = = , = ^ , ( < ^ = - - = - - - - - - - , , , ^ - , - - - - - , - - - - - - - - - - - - N N ( , < { - - - - - - = = = - - - - - - - U , , - = - = - > - - = = = = = - - - - - - - - - - - - - - - - = - - - = = - - = - - - - - = = - - - - - - = = - - - ] ] - - - - = = - - - - - , = - , , O < , { = , ( - - - = - - = = - - - - - - - - - = - & & - - = - = - - - - - - > - - - - - % % % = 6.",
"  + $ $ & & & & & - - & & - & & - - - - - - - - - - - - - - - = - - - - - - - - - - - - - - - - - = - - - - - - - - - = = - - = = , = , , O N { = - = = > - / - - - - , , , , ^ , - - - - - - ] - - - - - - - - > - - N , , < , - - - - - < - = = = - - - - - - - O O U , , - = - - - - - = = - - = - - - - - - - - - - - { - - - = = - - = = = = = = - - - - = = - - - - - - = = - - - O { { - - = = = - - - - - Z ^ ] , , ] , , P U / , , < - = - - - = - - - - - - - - - - - & - - - = - - & - - Z O { , - { - - - % % % = 6.",
"  . $ % & - = & - - & & & - & & - - - - - - - - - - - - - - - - - - - - - - - - - - - - - - - = - - - - - - - - - - - - = - - = , , = ] O - { = = = - = , , N - - - - 2., , , , , - - - - - - - - - - - - - - - - - ] , , : - - - - - - - Z = = = = - - - - - - - ( , , , , - = - - - - - = = - - = - - - - - - - - - - - - - - - = = - - - = = - = - - - - - = = - - - - - - = = - - > O Q - - - - - - - - - - - - - - - < , , , , { - O , > - / - - = = - - - - { - - - = = - - - - - - - , ! - P , , , , > < - - - % % % - 6.",
"  . % $ & & = & - - & - & - & - - - - - - - - - - - - - - - - - - - - - - - - - - - - - - - = = - - - - - - - - - - - - - - - = , / - - - - - - - = , , , / / - - - O , , , , , , - - R - - - - - - - - - - - - - - - - - - - - - - - - - - - = = = - - - - - - = - , - - - - = - - - - - - - = - = - - - - - - - - - - - - = = - = = - - - = - - = = - - - - = - - - - - - - = - - / , , , - - - - - - - - - - - / , , , , , , , , , - - { - - - - - = = - - - - - - - - = = - - - - - = - , ] - - , , , , U ( N & - % $ - % 6.",
"  . % % & & = & & - & & & - - - & - - - - - = = - - - - - - = - - - - - - - - - - - - - - - = = - - - - - - - - - - - - - - - = - - - - - - - - P , , , , < ] ] - , , , , , , , , - - - - - - - - - - - - - - - - - - - - - - - - - - - - - - - - - - - = - - - = - - = - - - = - - - - - - - - - = - - - - - - - - - = - - - = - = = - - - - - - = = = - - - - - - - - - - - = = { ( , P O { - - - - - - - - - - { ( , , , , U , , P - - - - - = - - = - - - - - - - - - - - - - - - - = - = - - - - / , , N / < & - % $ - % 6.",
"  . % % & & & & & & - & & - - - & - - - - - = = = - - - - - = - - - - - - - - - - - - - - - - - - - - - - - - - - - - - - - - = - = - - - - - ^ , , , , , , / - - , , , , , , , , , - - - - - - - - - - - - - - - - - - - - - - - - - - - - - = = - - - = - - - = - - - - - - - - - - - - - - - - - - - - - - - - - - - - - - = - = - - - - - = - = - = - - - - - - - - - - = = = - ^ , , , / - - - - - - - - - - - , ( , , - - - - - - - - - - - - - = - - - - - - - - - - - - - - - - = - & - - - - - ] , , - & & - % % % % 6.",
"  . % % & & - - - - - & & & - - - - - - - - - - = - - - - - - - - - - - - - - - - - - - - - - / - = - - - - - - - - - = - - - = - = - - - - - - - - = , - - - - - , , - - - , , , , - - - - - - - - - - - - - - - - - - - - - - - - - - - - - - = - - - = - - = = - - - - = - - - - - - - - - - - - - - - - - - - - - = - = - - - - - - - - = - - - - = - - - = = - - - - - = = - - - - , , P - - - - - - = - - - - - : < - - - - - - - - - - - - - { - - - - - - - - - - = - - & & - - = - - - Q < - - - O > - - - - % % % % 3.",
"  . $ $ & & - & & & & & & & - - - - - - - - - - = - - - - - - - - - - - - - - - - - - - = - - - - = = - - - - - - - - = - - - = - = - - - - - - - - - - - - - ] ] , , - - - , { - , - - - - - - - - - - - - - - - - - - - - - - - - - - - - - - - - - - = - - - = - - - - = - - - - = O , = - - - - - - - - - - - - - = - = - - - - - - - - = = - = = = - - - = = - - - O , - - - - - - > U - - - - - - - - - - - - - ] < - - ( , U - = , U - - - - - = - - - - - - - - - = - - & & - - - - - - > / - - - - - - - - - % % % % 3.",
"  . $ $ & & & & & & & & & & & & & & - - - - - - - - - - - - - - - - - - - - - - - - - - - - = - - = = - - - - - - - - = - - - = - = - = - - - - - - - - - N , , , , , N ^ , , - - - - - - - - - - - - - - - - - - - - - - - - - - - - - - - - = - - - - = - - - - - - = - = - - - - = = - = O - - - - - - - - - - - - - - - - - - - - - - - = = - = = - - - - = = - - - , - = - - - - - - - - - - = - - - - - - - - - 2.- - - , , ] - < , { - - - - - = - = - Z - - - - - = - - - - - - - - - - - - - - & - - - - - - % % % % 6.",
"  . $ $ & & & & & & & & - & - & & - - - - - - & - - - - - - - - - - - - - - - - - - - - = - = - - - - - - - - - - - = = - ( - = - = - = N - - - - - = - - - ( , , , , , , , , - - - - - - - - - - - - - - - - - - - - - - - - - - - - - - - - - - = - - = - - - - - - - - = - - - U = - - - - - - = - - - - - - - - - - - - = - - - - - - - = = - = = - - - = - = - - - , > - - - - - - > - - - - = - - - - - - - - - { - - - - / - - Q - - - - = - - = - = - , - - - - - = - - - - - - - - - - - - - & & - - = - - - % % % -   ",
"  . $ % & = & & & = & & - & & & & & - - - - - = & - - - - - - - - - - - - - - - - - - - = - = - - - - - - - - - - - = = - - - = - = - - - - - - - - - - - , , , , / > , , , , Q - - - - - - - - - - - - - - - - - Z > - - - - - - - - - - - - - - = - - = - - - - - - - - = - - - - = - - = - = - = - - - - - - - - - - - - = = - - - - - - = - - = = - - - = - - - - - - - = - - - - > O - - - - = - - - - - - - - - - Z - { Q , , - - - - - - = - - = - = - ( - - - - - - - - - - - - - - - - - Z ] & & - - - - - - $ % % - 6.",
"  . $ $ - = & & - & & & - & - & & & - - - - - = - - - - - - - - - - - - - - - - - - - - , < 2.< - - - - - - - - - - = - - - - = - = - - - - - - - - > , , , , , , { ] , , , ] - - - - , , - - - - - - - - - - - - - : - - - - - - - - - - - - - - - - - = { - - - - - - - = - - - - - - = = , - - = - - - - - - - - - - - - = = - - - - - = = - - = = , O > - = = - - - - - = - - - - > > - - - - = = - - - - - - - - > - - - - - R O - - - - - - - - = - = - - - - - - - - - - - - - - - - - - - , ( - - - - = - - - $ $ - - 6.",
"  + % $ % & & - & & & & & & - - & & & - - - = = & - - - - - - - - - - - - - - - - - - - , , = - = - - - - - - - - - - - - - - = - = - - - - Q , ^ > , , , , , , ] / , , , > - - - - - - - : - - - - - - - - - - - - < - - - - - - - - - - - - - - - - = = > < - - - - - - = - - - - - - = - , , - = - - - - - - - - - - - - - - - - - - - = = - - = = ^ - - - = = - - - - - - - - = - , Q - - - - = = - - - - - - - - - - - - - - - - - - - - - - - - - < - - - - - - - - - - - - - - - - - - - - & & & - - - - - - - - = $ $   ",
"  + % % % & & & & & & & & & & - - & & & & - = = & - - - - - - - - - - - - - - - - - - - O O = - = - = - - - - - - - - / - - - - - = - - - - - - ^ ^ , , , N , , , , , , , - - - - - - - - - - - - - - - - - - - - - : - - - - - - - - - - - - - - - - = - Q ] = - - - - - = - - - - - - - - , , - = - - - - - - - - - - - - - - - - - - - = = - - = = { - - - = = - - - - - - - - = - - - - - - - - - = - - - - - - - - - - - - - = - - - - - - : , , , , - - - - - - - - - - - - - - - - - - - - - - - - - - - - - % % = % $   ",
"  . % % % & & & = & & & ; & & - - - - - & - - - - - - - - - - - - - - - - - - - - - - - - - = - - - = - - - - - - - - - - - - = - = - - - - - - - - = - - > , , , , , , , - - - - - - - - - - - - - - - - - - - - - - - - - - - - - - - - - - - - - - = - - - = - Z - - - - - - - - - - = - - - - - - - - - - - - - - - - - - - - = - - - = = = = = - - - - - = = - - - O - - - - - - = - - - - - - - = - - - - - - - - - - - - - = - - - - - - , , , / , - - - - - - - - - - - - - - - - - - - - - - - - - - - - - - % $ % $   ",
"  . % % % & & - = = & * & & & - - - - - - - - & - - - - - - = - - - - - - - - - - - - - = - = - = - = - - - - - - - - - - = - = - = - - - - - - - - = - - - , , , , , , , , - - - - - - - - - - R ( - - - - - - - - - - - - - - - - - - - - - - - - - = = - - - - - - - - - - - - - = = = - = - - - - - - - - - - - - - - - - - - = - - - - - = = = - - - - - = = - - - Q - / , - - - = - - - - - - - = - - - - - - = - - - - - - = - - - - - { N , , ] - - - - = - - - - - - - - - - - - - - - - - - - - - - - - - & % $ % $   ",
"3.. $ % % & = & = = * & & & & & & & - - - - - - - - - - - - = - - - - - - - , - - - - - = ^ = N = - = - - - - - - - - - - = - - - - - - - - - - - - = - - - , , , , , , , N - - - - - - - - - - ( Q - - - - - - - - - - - - - - - - - - - - - = - - = - - - - - - - - = - - - - - - = = = - = - - , / - - - - - - - - = - - - = - = - - - = - = = = - - - - - = - - - - O - = , - - - = - - - - - - = = - - - - - - - - - - - - - = - - - - - - - { , = - - - - = - - - - - - - - - - - - - - - - - - - - - - - - - = $ $ % $   ",
"3.. & % = & = & - - * & & & & & & & - - - & - - - - - - - - - - - - - - - , , - - , > - = - = - - - - - - - - - - - - - - = - - - = - - - - - - - = - - - - - P , , = , , R - - - - - - - - - - - - - - - - - - - - - - - - - - - - - - - - = - - - = = - - - - - - - - - - - - - - Q = = / = = = N > - - - - - - - = = - - - = = = - - - = - = = = - - - - - = - - - - - - = - - - - - - - - - - - = = - - - - - - - - - - - - = - - - - - - - - ^ , - - - - - = - - / - - - - - : - - - - & - - - - - - - - - - & = % $ % $   ",
"3.+ & & = & = & & - * * * * & & & & - - - & - - - - - - - - - - - - - - - , , - , , , = = - = - - < - = - = - - - - - - - - - - - = - - - - - - - - - - , Z - - - { = - , ( - - - - - - - - - - - - - - - - - - - - - - - - - - - - - - - - = - - - - = - - - - - - - - - - - - - Z , , = O = = = - - - - - - - - - - = - - - = = = - - - = - = = = - - - - - = = - - > { O = - - - - - - - - - - - = { - - - = - - - - - - - - - - - - - - - ^ U / < - - - - - = ^ ^ { - - - - - - - - - - - - - - - - - - - - - - = % % % $   ",
"3.+ $ $ = & & ; ; * * * & ; - & & - - - - = = - - - - - - - - - - - - - - - : - , , , = = - = - - > - = - = - - - - - - - - - = = = - - - - - - - - - - , , - - - - - - - - - - - - - - - - - - - - - - - - - - - - - - - - - - - - - - - - = = = - - = - - - - - - - - - = - - - - = - = - = = = - - - - - - - - - - - - - - = = - - - - = - = = = - - - - - - = - - - - = = - - - - - - = - - = = = - - - = = - - - - - - - - - - - - - - - , , < Q { - - - - - ] , , - - - - - - - = - & - - - - - - - - - - - - - $ % % $   ",
"3.+ % % - & & ; ; ; * * & & & & & - - - - - = - & - - - - - - - - - { - - - - - , , , N < ( = ] - - - = > = - - - - - - - - - - = = - - , - - - - - - - - , - - - - = - - - - - - - - - - - - - - - - - - - - - - - - - - - - - - - - - - - = - = - - = - - - = - - - - - = - { - - = - = - - - = - - - - - - - - - - - - - - - = - - - - - - - - = - - - - - - = - - - - - - - - - - - - - - - = = - - - - - = - - - - - - - - - - < - - - - , , - - = - - - - - ] , , - - - - - - - - - - - - - - - & & & & - - - - $ % % $   ",
"  + % - & & * ; ; ; * * - & & - - - - & & = - - - - - - - - - - - - - - - - - N , - ( , , P { ] - Q < , , N < - - - - - - - - - = ( , , , , - - - - - - - - - - - - - ( R ] - - - - - - - - - - - - - - - - - - - - - - - - - - - - - - - - - - = - - - - - - = - - - - - = - - - - - - = - - - = - - - - - - - - - - - - - - - = - - - - - - - - = - - - - - - = - - - - - - - - - - - - = - - - = - - - - = = - - - - - - - - - - - - - - - > < - - - - - , , , , > ] - - - - - - - - - - - - - - & & & & & & & - - $ $ % $   ",
"  + * & & & ; ; ; & & ; - & & & & & & & - - - - - - - - - = - = - - - - - - - > P - - = - , = , < , , , , , , - - - - - - - > = = , , , , , , - - - - - - - - - - - 2., , - - - - - , , , , - - - - - - - - - - - - - - - - - - - - - - - - - - = - - - - - - = - - - - - - - - - - - - = - - = = - - - - - - - - - - - - - - = = - - - - - - - = = - - - - - - - - - - - - - - - - - - - - - - = = - - - - - = - = - - - - - - - - - - - - - - - - - - ] , , O , N - - - - - - - - - - - - - - - - & & & & - - & - - $ $ $ $   ",
"  + * & & & ; ; & & & * & & & & & & & & & - - - - - & - - = - = - - - - - - - - - - - P ^ - , U = - , , = , N - - = = - - - = = = , , , , , , , - - - - - - - - - - - - - - - - - - , , , , - - - - - - - - - - - - - - - - - - - - - - - - - - - - - - - - - = - - - - - - - - - - - - = - = = = - - - - - - - - - - - - - - = = - - - - - - - = = - - - - - = = - - , P - - - - = - - - - - N - = = - - - - = - - - - - - - - - - - - - - - - - - - / , , , ] ] = - - - - - - - - - & & & - - - & & & & - - & & - - $ $ $ $   ",
"3.+ * - - & * ; * & * * & & & & & & & & - - - - - - - - - - - - - - - - - - - - - - - > , , / - = > , U = U > ^ , = = N R - < = , , , , , , , - - - - - - - - - - - - - - - - - - - - - ] < - - - - - : > - - - - - - - - - - - - - - - - - - - - - - - - - - = - - - - - - - - - - - = = - = = = - - - - - - - - - - - - - - = = - - - - = - - = = - - - - - = = - > , N - - - - = - - - - - - - - = - - - - - - - - - - - - - - - - - - : - - - 2., , , - - - - = - { = - - - - - - & & & - - & & & - - - & & & = - $ $ $ $   ",
"  + * & * * * * * & & & & * & & & & & & - - = - - - - - - - - - - - - - - - - - - - ( 2., , - - = - ( { = ^ : < N = = , P , , , , , , , , , - - - - - - - - Q , - - - - - - - - - - - - - - - 2., - - - > - - - - - - - - - - - - - - - - - - - - - - - - - - = - - - - - - - - - - = - = - = = = - - - - - - - - - - - - - - - - - - - - = - - = - - - - - - = - - - Z - - - - = = - - - - - - - - = = - - - - - - - - - - - - - - - - - - - - - R > P - - - - - = - - = - - - - - - & & - - - - & & & - - & - - = - $ $ $ $   ",
"  + * & = * * * ; & & - - = & & & & & & - - = - - - - - - - - - - - - - - , , , , R ( , , - = - = = = - = , = , O , , - Q , , , , , { - P - - - - - - - - - - , R - - - - - - - - - - - - - - - - - - Q , , - - > - - - - - - - - - - - - - - - - - - - - - - - - - - - - - - - - - - - - - = - = - - - - - - - - - - - - - - = - , : O - = - - - - - - - - - = - - - - - : / - = = - - Q , - - = = = = - - - = - = - - - - - - - - - - - - { ] - - , = - - - = - - - - = - - - - = = - - - - - - - & & & - - - - = - - $ $ $   ",
"  + = = = & & * ; ; & & - - & & & & & - - - = - - - Q ( - - - - - - - - - , , , , , , , , - = - = = = - = > = , , , , - - < , , , / - - , - - - - - - - - - - - - - - - > - - - - - - - - - - - - - - - , O , ] Q - - - - - - - - - - - - - - - - - - - - - - - - - - - - - - - - - - - - - - - - - - - - - - - - - - - - - - - - - - - = = - - = - - - - - - = - - - - ( , , : = = - - = > , = = = = = - - - - - = - - - - - - - - - - - - N , - - , = , , - = - - - - = - - - - = = = - - - - - - & - - - - - - = & % % % $   ",
"  + = * & & & * & & & & - - - - & - - - - - = - - - - - - - - - - - - - { < ( , , , , ^ - - - - = - = , = - - , , , = R , N , ^ - - - - / O - - - = - - - - - - - - - / , / - - - - - - - - - - - - - - - - O , - - - - - - - - - - - - - - - - - - - - - - - = > > - - - - - - - - - - - - - - = - - - - - - - - - - - - - - - - - - - = = - - = - - - - - - - - - - - ] = P , = = , ( = 2., = = = = - - - - - - - - - - - - - - - - - - - - ] - - , = , , - = - - - - = - - - - - - - - - - - - - - - - - - - * & - % % $ $   ",
"  + = & & & & & & & & & & & - - - - - - - - - - - - - & & = - - - - - - - - = Q ( , , - - - = - - - , , = - , , , , , , , N ( = - = - - : , , , ^ = - - - - - - - ] - - ( - - - - - - - - - - - - - - - - - - P < - - - - - - - - - - - - - - - - - - = - - - = / { - - - - - - - - - - = - - - - - - - - - - - - - - - - - - - = - - - = - - - = - - - - - - - - - - - - = - P , , , , = N , - = - = - - - - - - - - - - - - - - - - - , P { - - - - = N - - = - - - - = - - ^ < - - - - - - - - - = - = - - - - & - % % $ $   ",
"  + % = & & & = = & & & & & & & - - - - - - - & - - & & - = - - - - - - - - = - - ( , = ] - = - - - N , = - , , , , , , , - - > , = ] ] , , , , , = , - - - - - , , - > U < > - - - - - - - - - < R , - - - - - - - - - - - - - - - - - - - - - - - = - - - - = - - - - - - - - - - - - - - - - - - - - - Z - - - - = - - - - - = - - - = - - - = - - - - = - - - - - - - - - - = Z , - - - / - = = = - - - - - - - - - - - - - - - - - , , - - - - - = - - - = - - - - = - - - - - - = - - - - - = - - - - - - - - % $ % $ $   ",
"  + & & & & & & = & & & & & & & - - - - - - - & - - & & - - - - - - - - - - - - - - - = ( > = - - - - ( = , , , , , , , U - Q , , = - - N , - , , = , ^ - - - - ( N - , , N O ( < - - - - - - - , , , , ] - - - ^ - - - - - - - - - - - - - - - - - = - - - - = - - - - - - - - - - - - - - - - = - - - - - - - - - = - - - - - = - - - = - - - = - = = - = - - - - = - - = - - = - - - - - - = - = = - - - - - - - - - - - - - - - - - , , - - - - - - - - - - - - - - = - - - - - = = - = = - - = = - - - - - - - % $ % % $   ",
"  + & & & & & = = & & & ; - - - - - - - - - - - - - - - - = - - - - - - - - - - - - - = P - - - - - - - = , , , , , , , , - , = = = - - - , - , , = , , O - ( , - ^ 2., , - > - - - - - - - - - , , , , , < - - N - - - - - - - - - - - - - - - - - = - - - - = - - - - - - - - - - - - = - - - - - - - - - - - - - = - - - - - = - - - = - = - = - = = - - - - - - - - - = - - = - - - - - - = - = = - - - - - - - - - - - - - - - - - ^ < { - - - - - - - - = - - - - = - - = - - = = - - - - - = = - - - - - - - $ $ $ $ $   ",
"  . & & & & & = & & * ; & - & & - - - - - - , , , , - - - = - - - - - - - - - - - - - = - - - - - - Z , U P - , = , = , N - , = = , - - - , , , , = , , - - - - P Z - - - - - - - - - - - - - - N , , , , , > N P - - - - - - - - - - - - - - - - - = - - - - = - - - - - - < > - - - = = - - - - - - - - - - - - - = - - - - - = - - - = - = - = - = = - - - - - - - - - = - - - - - - - - - = - = - - - - - - - - - - - - - - = = - - - - - - - - - - - - = = - - - - = - - = - - - - - = - - - - = - - - - - - - $ $ $ $ %   ",
"  . & & & = & = = - - - - - - & & - - - - ( , , , , - - = = - - - - - - - - - - - - - = - - - - = - - Q , , - , , , = - - - , = = - - ] , , , , N = , , ( - = - - - - - - - - - - - - - - - - - - , , - , , ] P - - - - - - - - - - - - - - - - - - = - - - - - - - = - - - - - - - - = = - - - - - - - - - - - - = = - - - - - = - - - = , = - = - = = - - - - - = - - - = - - - - - - - - - = - - - - - - - - - - - - - - - - = - - - - - - - - - - - - - - = - - - - = - - = - - - - - = - - - - = - - - - * * * $ $ $ $ %   ",
"  . & & & * * * * ; - - - - - - & - - - = - = = , ^ - - - = - - - - - - - - - - - - - = - - - - - - - - U , , , - - = - - - , = = - - ( , , , N , = , , , - - - - - - - - - - - - - - - - - - - - P , - , , , ( - - - - - - - - - - - - - - - = - - - - - - - - - - N , - - - - - - - - - - - - - - - - - - - - - = - - - ^ N - = - - - = ] - - = - = - - - - - - - - - - - - - - - - - - - - = - - - - - - - - - - - - - - - = - - - - - - - - - - - - - - = = - - - - = - - - = = - - - = - - - - = - - - * * * * $ $ $ $ $   ",
"  . * * * * * * * * - - - - - - - - - - = - = - - - - - - - - - - - - - - - - - - - - = - - - - - - - - - , , U = - = - - - - = = - < - < N , O , = , , , , - - - - - - - - - - - - - - - - - - - , , , O , , , / - - - - - - - - - - - - - - - - - - - - - - - - { ] , - - - = - O - - - - - - - - - - - - - - - = - , , , > - = - - - = - - - = - - = - - - - - - - = - - - - - - - - - - - - - - - - - - - - - - - - - - - = - - - - - - - - - - - - - - - = - - - - = - - = = = = - - = - * - - * - - ; ; * * * * % $ $ $   ",
"  . * * * * * * * * & - - - - - - - - - = - - - - - - - - - - - - - - - - = = - - - - = - - - - - - - - - , , < - - = - - - - = = : = < ( U - P , , , , , , U - - - - - - - > - - - - - - - - - - , , : / , , < ^ O - - - - - - - - - - - - - - - - = - - - - - - - - - - - - - / > - - - - - - - - - - - - - - - = < , O - - - - - - - = - - = - - - = - - - - - = - = - - - - - - - - - - - - - - - - - - - - - - - - - - - - - - - - - - - - - - - - - - = = - - - - - - - = = = = - - - - * - - - * * ; & & = * * * % % % 3.",
"  . * * & * * * * * & & & - & - - - - - = - - - - - - - = - - - - - , , - - - - - = - - - - - - - - - - - - - - - - - - - - - = = - = U , , < , , , , , , , , , ^ - - - - - - , U - - - - - - / , , , - { - ^ - - - - - - - - - - - - - - - - - - - - - - - - - - - - - - - - ^ - - - - - - - - - - - - - - - - - = < , - - - - - - - - = - - = - - - - - - = - - - - - - = - - - - - - - - - = - - = - - - - - - - - - - - - = - - - - - - - - - - - - - - = - - - - - - - - = = - = - - - - - - - - & * ; & & & & = & % % $   ",
"  . & & * ; ; ; ; & & & & - - - - - & & = - = - - - - - - - - - - , , , O , - - - - - - - - - - - - - - - - - - - - - - - - - = = - = , , , - > > , , , , , , , , - - - - - - , , - - - - - N , , , > - - - / - - - - - - - - - - - - - - - - - - - - - - - - - - - - - - - - ] - - - - - - - - - - - - - - - - - = - - - - - - , , - - = - - = = - - - - - - - - - - - - - - - = - - - - - - = = - = - - - = - - - - - - - - = - - - - - - - - - - - - - - = - - - - - = - - = = - = - - - - - - - - & * * * & & & $ $ $ % $   ",
"  . & , * ; ; ; ; ; * & & - - - - - & & = - = - - - - - - - - - , , , , , , - - - - - - - - - - - - - - - - - - - - - - , P - = = - > , ( - - - - = ( , , , , , , ] - - - - - - { - - - - - U , , , , - ] P / - - - - - - - - - - - - - - - - - - - - - - - - - - - - Z U , , O > - - - - - - - - - - - - - - - - = - - = - - - , , - - = - - = = = - - - - = - - = - - - - - - = - - - - - = = = - = - - - - - - - - - - - - = = - - - - - - - = - - - - - = - - - - - = - - = = - = - - - - - - - - & & * * & & & $ % % % $   ",
"  + % * * ; ; ; ; & * & & - - - - - - - - - - = - - - - - - ^ , , , , , , , - - - - - - - - - - = = - = - - Q = - - - - - - - = = - - - - - - - - = - , , , = , O - ( - - - - - - - - - - - - , / , , , , , , N - - - - - - - - - - - - - - - - - - - - - - - - - - - - - , , U : , , > - - - - - - - - - - ( - - = = - = - = = - - - - = - - = = = - - - - < - - - - - - = - = = - - - - - = = = - - - - - - - - - - - - - - - = - - - - - - - = - - - - - = - - - - - = - - = - - = - - - - - - - = & & * & & & & $ % % % %   ",
"  + % * * * * = & & * & & - * - - - - - - - - = - - - - - - , P ^ , , , Q { - - = - - - - - - - = = - = - - - - - - - - { < = = = / - - - - - - - = - , , , = , - - / , - - - - - - - - - - - - - O - , , , , P - - - - - - - - - - - - - - - - - - - - - - - - - - - - - , R ^ U , , { - - - ] - - - - - - - - - = - - - - = = O - : - = - - = - = - - - - - - - - - - - = - = = - - - - - - = - - = - = - - - - - - - - - - - - - - - - - - - - - - - - - = - - - - - = - - = - - = - - - - - - - & & & - & - & & % % % % %   ",
"  + % * * * & = = ' & & & - - - - - - & = - = = - - - - - , , > , , , , U - - - = - - - - - - - = = - = - - - - - - - - - Q - - = - - - - - - - - = - - , = = - - - O , , , - - - - - - - - - - - , Q , , , , - - - - - - - - - - - - - - - - - - - - - - - - - - - - - ^ , R ] , , - - - - - ^ - - - - - - - - - - - - = - - - - - - = = - - = - - - = - = - - - - - - - = - - - - - - - - - - = - = - = - - - - - - - - - - - - - - - - - - - - - - - - - - - - - - - = - - = - - = - - = - - - = & & & - & - - & % % $ $ $   ",
"  + % * & & & & , , _ & * & & & - - - - = - = = - - - - - - , > , , , U - - - - - - - = - - - - - - - - - - - - - - - - - - - - = ( ^ - - - - - - = - - - = = - - - U , , , , - - - - - - - - - - - - ^ - - - - - - - - - - - - - - - - - - - - - - - - - - - - - - - - < , U ] , , ^ - - - - - - - - - - - - - - = = - - - - = - - - = = - - = - - = = - = - - - - - - - = - - - - - - - - - - = - = - = - = - - - - - - - - - - - - - - - - - - - - - - - - - - - - - = - - = - = = - - = - - & = & & & - & - - & $ $ $ $ $   ",
"  + = & & & & & & , / * * * * & & - - - = - - - - - - - - - , P , , - - - - - - - - - = - - - ] = - - - - - - - - - - - - - - - = , , < O ] - - - = - - - = = - - - / , , , , - - - - - - - - - - - - - - - - - - - - - - - - - - - - - - - - - - - - - - - - - - - - ] , / N , , , / - - - - - - - - - - - - - - - = = - - - - - - - = = - - = - - - - - = - = - - - - - = - - - - - - - - = = - = = - - - = = = , , , - - - - - - - - - - - - - - - - - - - - - - - - = - - - = = = - - = - & & = - - - - & - - & & $ $ $ $   ",
"  + & & & & & & & ~ & * * * * & & - - - = - - - - - - - - - Q O , - - - - - - - - - - = - - U = = / - - - - - - - - - O - - = - = U , - ^ R / - - - - - - - , , - - - - , , - - - - - - - - - - - - - / - - - - - - - - - - - - - - - - - - - - - - - - - - - - - - - ^ < - , , , , ] - - - - - - - - - - - R ( - = = = ] U = - - - - - = - - = - - = - - = - = - = - - - = - = - - - - - - = = - = = - - - = = = - - - - - - - = - - - - - - - - - - - - - = - - - - - - - - - = = = = - - - & & - & - - & - - & & & $ $ % $   ",
"  + * & & & & & * * * * * * * - & - - - = - - - - - - - - - - O ] - - - - - - - - - - - - - , = = , P - - - - - - - - - - - - = = - - - < - - - , , - - - , , , N - - - - - - - - - - - - - - - - - - - - - - - R > U Q - - - - - - - - - - - - - - - - - - - - - - - O ^ - , , , , N - - - - - - - - - - - , / - = = - - - = - - - - - - - - - - - - - - - - = = = - - - - - = - - - - - - = = - - = - - = = = = - - - - - - = = - - - - - - - - - - = - - = - - - - - - - - - = = = = - - - - - - - - - - - & = & & & $ $ $   ",
"3.+ * * & & = & & = & - & & - - - - - - = - - - - - - = - - - - - - - - - - - - - - - - - - , , , , R - - - - - - - - - - - = = = - - - - - : N , , - - - , , , - - - - - - - - - - - - - - - - - - - - - < < - - < , P - - / - - - - - - - - - - - - - - - - - - - - , O - - , - { , { - - - - - - - - - - / - - = - - O - = - - - - = - - - - - - - - - = - - = = - - - - - = - - - - - - = - - - = - - = = - - - - - - - - = = - - - - - - - - - - = - - = - - - - - - - - - - = = = - - - - - - - - - - - & & & & & $ $ *   ",
"3.+ * * & & = = & = & - & & - - - - - - = - - - - - N = - - - - - - - - - - - - - - - - - - Q = , Q - = - - - - - - - - - - - = = ] - - - - - , , , P - - - , > - - - - - - - - - - - - - - - - - - - - - , - - - , , : = - - - - - - - - - - - - - - - - - - - - - - N > - - - - - U O - - - - - - - - - - - ^ < = - - - - = - - - - = = - - = - = - - - = - - = = - - - - - = - - - - - - = - - - - - - = - = - - - - - - - - - - - - - - - - - - - = - = = - - - - - - - - - - - = - - - - - - - - - - & & & & * * * $ % $   ",
"3.+ * * * & = = & = & & - & - - - & - - = - - - - - - - - - - - - - - - - - - - - - - - - - , = , - - = - - - { - - - - - - - - > Q - - - - - - P , , - - - - - - < ^ - - - - - - - - - - - - - - - - - - - - - - , , - = - - - - - - - - - - - - - - - - - - - - - - - > / - - - - - - - - - - - - - - - - - / - - - - - - - - - - > = = - - = - - - - - = - - = = - - - - - = - - - - - - = - - - - - - = - = - - - - ] - - - - - - - - - - - - - - - - - - - - - - - - - - - - - = - * - - - * * * * * & & = = & * * $ % $   ",
"3.. * * & & = = & & & & - R - - - - - - = & - - - & - = = - - - - - - - - = - - - - - - - Z - = - - - = - - - - - - - - - > - - - - - O - - - - - , , , - - - - - - - - - - - - - - - - - - - - - O , , - - - - O , , , = - - - - - - - - - - - - - - - - - - - - - - ] U , & - & & - - - - - - & & & - - - - - - = - - - - - - - - - = = - = = - - Q - - = - - - - - - - - - - - - - - - - - - - - = - - = - = - - - - - - - - - - - - - - - - - - - - - = = - - - - - - - = = - = = - = - - - - * * * * & & = = * * * $ % $   ",
"  + * * & & = = & & & & & - - - - - - - - - - - - - - = = - - - - - - - - - - - - - - - - , - - - - - = - - - - - - - - / , - = - R - - - - - - - ( , , , , , - - - - - - - - - - - - - - - - - - - N , - - - - - { - - - - - - - - - - - - - - - - - - - - - - - - - & , , _ & - - - - - - - - - - - - - - - - - = - - - - - - - - - - = , = = - Q ( - - = - - = - - - - - - - - - - - - = = - = - = - - = - = - = - - - - - - - - - - - - - - - - = - - = - - - - - - = - = * - = = - = - - - - = * * * - & = & * * * % % $   ",
"  . % * & & & = & & & & & & & & & - - - - - - - - - - = - - - - - - - - - - - - - - - - - - - - - = = = - - , , P - - - U , = : { { { - - - - - - U , , , , - - - - - - - - - - - - - - - - - - - - - - - - - - - - - - - - - - - - - - - - - - - - - - - - - - - - - & & = & - & - - - - - - - - - - - - - - - - - - - - - - - - - - - = - = = - ^ , - - - - - = - - - - - - - - - - - - = = - = = = - = = - - - = - - - - - = - - - - - - - - - - - - - = - - - - - - - - = * - * = - = - - - - - - - * * & = & * * * % % $   ",
"  . % * * ; = = & & & & & & & & & & - - - - - - - - - - - - - - - - - - - - - - - - N - - - , - - - - - - - , , , - - - - ( , , : ^ > - - - - - - - - , N - - - 2.- O - - - = - - - - - - - - - - - - = - - - - - - - - - - - - - - - - - - - - - = - - - - - & & & & & & & & - - - - - - - - - - - - - - - - - < O - - - - - - - - - - = - = = - , , > - - - - = - - - = - - = - - - - - = = - = = = - = = = = - = - - - - - = - - - - - - - - - - - - = = - - - - - - - - * * * * - - - - - - - - - - & - & & ; * * = % $ $   ",
"  . % * ; ; = = & & & - & & & & & & & - - - - - - - - = = - - - - - - { - - - - - - O ^ Q P , - - U ( - - - , , , , - - { , , N Z { - - - - - - - - ] : - - - - , , ( - - - - - - - - - - - - - - - - - - - N - - - = - - - - - - - - - - - - - - - - - - - - - & & & - - - - - & - - - - - - - - - - - - - P , , - - - - - - - - - - - = - - - - , , - - - - - = - - - = - - = - - - - - = = = = = = - = = = = - - - - - - - = - - - - - - - - - - - - - = - - - - - - - - * * * * - - - - - - * - - - & ; - & ; ; & & $ $ %   ",
"  . % % * & = = & & & & & & & - - & - - - - - - - - - = = - - - - - - P , , - - - - - - - > / - - , ( ^ = - , , , , - - - = , , < ] { - - - - - - - - - - = - , , , O - - - - - - - - - - = - - - - - - - - , - - - = - - - - & - - - - - - - - - - - - - - - , ( & & & & & - - - - - - - & - - - - - - - , , , U - { - - - - - - - - = - - - - - - - - - - - - - - - - - - - - - - - - - = = = = = = - - = = = - - - - - - - = - - - - - - - - - - = - = = - - - - - - - - * * * * - - - - - - * - - - & & - & & & & & $ $ %   ",
"  . % % * & = & & & * * * - - & & & - - & - - - - - - , = - - - { > - - - , - - - - - - - - O - , , = , = , , , , , , - - = , , , ] : - - - - - - - - - - = - < ] - - - - - - - , - - - - - - - - - - - - - - - - - = - - - - - - - - - - & - - - - - - - - - ^ P & & & & - - & - - - - - - - - - - - - - - ( O , , R - - - = - - - - = - - - - - - - - - - - - - - - - , / - = - - - - - = = = - = - - - - - = - - - - - - - = - - - - - - - - - - = - - = - - - - - - - - - * * * * - - - - - - - - - - = - & & * & & % % % 3.",
"  . % % * & & & & * * * - * - - & & & & = - - - - - - = = - - - - - - - - - - - - - - - - - < - = , = , , , , , , , , - Z , , , , , { - O - - - - - - - - = - - - - - - - - - O , - - - - = - - - - - - - - - - - = = - - - - - - - - - - & - - - - & & & & & & & & & & - - - - - - - - - - - - - - - - - - - - Q / - - - - = - - - - = - - - - - - - - - - - - - - - , , , - = - - - - - , = = - = - - - - - = - - - - - - - = - - - - - - - - - - = - - = - - - - - - - - - = * * - * * - - - - - - - - = & & & & & & % % %   ",
"  . $ & & & & = & & & - & & * * & & & - = - - - - - - = = - - - - - - - - - - = - - ] - - - - = = O = , - , , , , , , - 2., , , - : - O < { - - - - - - = = - - - - - - - - - - = - - - - = - - - - - - - - - - - = = - - - - - - - - - & - - - - - & & & & - - & & & & - - - - - - & & - - - - - - - - & - - - - - - = - - - - - - = = - - - - - - - - - - - - - - - , , , - - - - ] - - > - = = = - - - - - = - - - - - - - = - - - - - - - - - - = - - = - - - - - - - - = = = - - * * ; - - - - - - - - * & & = = = % % %   ",
"  . $ & & & & ; & & & & & & & & & - - - = - - - - - - = = - - - - - - - - - - = - - - - - - - = = , , , N , , , , , , - , N , , - - { ( ( Z - - - - - - - = - - - - - - - - - = - - - - = = - - - - - - - - - - - = - - - - - - - - - & - - - - - & & & & & - - - - = - - - - - - - & & - - - - - - - & & - - - - - - = - - - - - - - = - - = P - - - - - - - - = - - - , , - - N N Q - - = = = = = - - = - = = - - - - - - - = - - - - - - - - - - = - - = - - - - - - - * = = = = * * ; ; - - - - - * * - & * & = = & % % % 3.",
"  . $ & & & = & & = & - & & & & - & - - - - - - - - - = = - - - - - - - - - - - - - - > , U , - / - = , , , = , , , , , , , , , 2.- - , , , < - - - - - - - - - - - - - - - - = - - - - = - - - - - - - - - - - = = - - - - - - - - - - - - - - & & & & - - - - - - - - - - - - - , , = : - - - - - - - - - - - - - - - - - - - - - - - - - = - - - - - - - - - = - - - - = - - - > Z - - - - - - = - - - - = = - - - - - - - = - - - - - - - - - - = - - = - - - - - - - * = * * * * ; ; ; - - - - - * * - & & & = - & % % % 3.",
"  . % & & * * & & = - - - & & - - - - - - - - & - - - = - - - - - - - - - - - - - - - - , , - - - - - - > = = , , , , , , = , , , - - P , , , < - - - - - - - - - - - - - - - - - - - - = - - - - - = - - - - - = - - - - - - - { < - - - - - - - - - - - - - & & - - - - - - - - , U = , , - - - - - - - - - - - - - - - - - - - - - - - - - - - = - - - - - - - - - - - - - - - - - / O - - - - = - - = = = = - - - - - - - - - - - - - - - - - - = - - - - - - - - - - = = - = * ; ; - - - - - - - ; ; * - - - & - & % % % 3.",
"  . % & * * * & & - - - - & - - - - & & < & - & & & - - - - - - - - - - - - - - - - - - - - - - { - { - - = , , , , , , , = , , , - - - , , , ^ - - - - - - - - - - - - - - - = - - - - - - - - - - = - - - - - - - - - - - - - - : - - - - - - - - - - - - - & & & & & - - - - - , , = , U - - - - - - - - - - - - - - - - - - - - - - - - - - - - - - = - - - - - - - - = - - = - : , U > - = = = - - = = = - - - - - - - - = - = - - - - - - - - = - - = - - - - - - - = = - = = - - - - - - - - - & ; * - - = = & - % % % 3.",
"  . % * * * * * & - = - & & - - - - & & & - - - & & - - - - - - - - - - - - - - - - - - - - - - = - - - - - { , , , , , , , , , , - - - O , , - - - - - - - - - - - - - - = - - - - = - , - - - - - = - < - - - - - = - - - - - - - - & & - - - - - - - - - - & - & & & - - - - - - - = - - - - - - - & - - - - - - - - - - - - - - - - - - - - - = - - = - - - - - - - - - - - - P , R > = O = = = - - = = = - - - - - - - - - - = - - - - - - - - = - - = - - - - - - - = = - = = - - - - - - - - - - * * - = = & - & % % $ 3.",
"  . % * * * * * * & = & - - - - - - & & - - - - & & - - - - - - - - - - - - - - - - - - - - - - = - > - - - = U , , , , , , ^ , , - - - = - - - - - - - = - - - - - - - - = - - - - = - - - - - - - - - , - - , , = = - - - - - - - - - & & - - & & - - - - - & & - - & - - - - - - - = - - - , , , O - - - - - - - - - P - - - - - - - - - - - - = - - - - - - - - - - - - - ] , , , - - < R = = = - = = = = = - - - - - - - - - - - = - - - - - = = - - = - - - - * - - = = - = = - - - - - - - - - - - - - = & & & & $ % % 3.",
"  . % % * * * * & & = & * - - - - - - - - - - - - - - - - - - - - - - - - - - - - - - - - - - - - - = - - = = N , , , , : U - , , - - - = - - - - - - - - - - - - = - - - = - - - - = - - - - - / - - - - - - , ^ = = - - - - & & & - - - - - - & & & - - - - - - - - - - - - - - - - - - - - - , = , N - - - - - - - - : ^ , ^ , P - - - - - - - - - - - - - - - - - - - - - = , U > - - / - = = = - = = - = - - - - - - - - - - - - - - - - - - = = - - = ; - - - ; - - = = - - - - - - - - - - - - - - - - = & & & = $ % %   ",
"  . % % * & = & & - * * * - - - & - - - - - - - - - - - - - - - - - - - - - - - - - - - - - = - - - = - - = ; O R , U < , ] - < - - - - = = - - - - - - - - - - - = - - - = - - - - = - = - - - - = - = - - - - / = = , - & & & & - - - - - - - & & - - - - - - - - - - - - - - - - - - - - - - , = , , , / - - - - - - - - < - < , , - - - - - - - - - - - - - - - - - - - - / = ( / > - - - = = = - - - - = - - - - - - - - - - = - = - - - - - - = - - = ; * - - - - - = = - - - - - - - - - - - = - - - - & & & & & $ % %   ",
"  . % $ $ % = & & = - * * - - - - - - - - - < - - - - - - - - - - - - - - - - - - > - - - - - - = = - - - - - - = - Q - { > - - - - - - / = - - - - - - - - - - - = - - - = - - - - = , = - - - - - - - - ^ - - - = , , - & & & & - - - - - - - - - - - - - - - - - - - - - - Q - - - = - - - - - = , , , , - Q - - - - - - - - - R = - - - - - - - - - - - - - - - - - - - - - = , = , N O - - - = - = - - - - - - - - - - - = - - - - - - - - - = = - - = ; * - - - - - = = - - - - - - - - - - - = - - - - = & & & & $ % $   ",
"  . % % $ $ = & & = * * & & & - - - - - - - - - - - { - , Q O - - - - - - - - - - - - - - - - - = = - - - ; - - = - - - - - - - - - - - / = - - - - - - - - - - = = - - - = - - - - = , , > - - - - = - - - - - - = , , - & & & - - - - - - - - - - - - - - - - - - - - - < - - ] - - = - - - - U = , , , , , , , - - - - - - - - - = - - - - - - - - - - - - - - - - - - O > O , , = , N Q - - - - - - - - - - - - = - - - - - - - - - - - - - - - - - - = - - - - - - - = = - - - - - - - - = - - = - - - - = - & & = % % $   ",
"  . % % $ % * & & = & & & & & , , - / & * { - - - - - - , - - - - - - - - - - - - - - - - - { ] - - ; ; = ; ; - = - - - , , > - - - - - - - - - - - - - - - - - - = - - - = - - - - = , , - - - - - - - - - - - - - ( Q - = - - - - - - - - - - - - & - - - - - - = - - - / , ( - - - = - - - - , , , , , , , , , - - - - - - - - - = - - - - - - - - - = - - = - P - = , , - - = , , U R - - - - = - - - - - - - - = - - - - - - - - - - - - - - = - - - - - - - - - - - = = - - - - - - - - - - - - - * * - = - = & = % % $   ",
"  . % % % ; ; ; ; = & = - & & , , - - & & , , - - - - - - - - - - - - - - - - - - - - - - , > { > : ; ; = { = - - - - - - / < / ( - - - - - - - - - - - - - - - - = - - - = - - - - = , = - - - - - - - - - - - = - ( - - = - = - - - - - - - - - - & - - - - - - - - - - - O / / - - = - - - - , , , , , , , , - - = - - - - - - - - - - - - - - - - - = - - = - , - = , - - - = , , U , - - - = = - - - - - - - - = - - - - = - - - - - - - - - = - - - = - - - - - - - = = - - = - & = ; - = - - - - ; - - = - = & = % % $   ",
"  . % % % ; ; & ; = - - - { - , / - - & , - & - - - - - - - - - - - - - - - - - - - - - - , , P - ; ; ; ; - = - - - - - - - = - - - - - - - - - - - - - - - - - = - - - = = - - - - = , = - - - - = - - - - - - - , , { - = - = - - - - - - - - - & & & - - - - - - - - - - - - - - { = - - - - ^ = , , , , , , = - - - - - - - - - - - - - ^ - - - - - - - - = , O / - - - - ] = , U - > = - - - = - - = - - - - - - - - - - = - = - - - * - - - = - - - = - - - - - - - = = - = = - & = = & - - - - - - - - - - & & = % % $   ",
"  . % % % * ; ; ; ; - * * Z ] { - - - & , & - = - - - - - - - - - - - - - - - - - - - - - / ; ] U { ; ; ; - = = - - - - - - = - - - - - - - - = - - - - - - - - - - - - - - - - - = = Q = - - - - = = - = - - - - = = - - = - = - - - - - - - & & & - - - - - - - = - - - - - - - - ] = < - - Q , , , , , , , , = ( < - < - - & - - - - - , , - - - - - - - = = , , - - - - - N , , = - = = - - - = - - = - - - - - - = - - - - - = - - - - - - - = - - - = - - - - - - - = = - - = - - - = & - - - - - - & - - - & & & % % $   ",
"  . % % * * ; ; * * * * * < ^ - - - { , , - - = - & - - - - - - - - - - - - = - - - - - ; = - - = = ; ; ; - = = - - U - - - = , , = - - - - - - - - - - - - - - - - - - = = = - - = = - = - - - - = - - - - - - - = = - - = - = - - - - - - - - - - - - - - - - - = - - - - - - - - / = , - - , , , , N N = , , , , , , , U O < - - - - - = , - - - - - - - - = - > N = > Q - { - - - - = - - - - - - - - = - - - = - = - - - - - = - - - - - - - - - - - = - - - - - - - = = - - = - - - - - , , - - & & & & - - & & & % % $   ",
"  . % * * * * ; & = * * * * , , > , N N ( - - = - - - - - - - - - - - - - - = - - - - - - = = - ; = ; ; ; - = = = - - - - - = , , - - - - - - - - - - - - - - - - - - - - - = - = = = = = , - - - = - - - - - = - = - - = = - - - - - = - - - = - - - - - - - - - = - - - - - - - - - = - - , , , , , , , , , , , , , , , = - - - - - - - = - - - - - - - - - , , , , = , ] - - - - - - = - - - - - - - - - - - - = - - - - - - - = - - - - - - - - - - - - - - - - - - - = = - - - - - - - - - - - - & & = & - - & & & % $ $   ",
"  . % * * * * & & = & - * * , - & , _ - - - - - - - - - - - & - & - - - - - = - - ; - - - ; = - = ; ; ; ; - = - - - - - - - - - - - - - - - - - - - = - - = - - - - - - = - = - = = - = = , , 2., , , - - - - = - = - - = = & - - - - - - - - - - - - - - - - - - = - - - - - - - - - = - - , N , , , , , , , , , , , , ] - - - - - - - - = - - - = = = - - - - , , , , , , < U = - - - = - - - - = - - - - = - - - - = - - - - = = - - = - - - - - - - - = - - - - - - - - - - - - - & - - - - - - & & & = - = = & & & % $ $   ",
"  + % * * * * & = = & ! , , O - - ] & - & - - = & - - - & - - & - - - - - ; ; - - ; - - - = = - = ; ; - - - - - - - - - - - - - - - - - - - = - - - - - - - - - = - - - - - - = = = - = = , , , , , , , { - - = - - = - - & - - - - - - - - - - - - - - - - , Z = = - - - - - - - - - = - - < , , , , N = , , / , , , < - - = - - - - - - - = - - - - = - - - - , , , , , , P / , , > - = = - - - - - - - - = - - = - = - - - - = = - - - - - - - - - - - = - - - - - - - - - = - - - & - = - - - - - & - - - = = & & = % $ $   ",
"  + % * * * * & & = , , & - - - - - - - - - - = - - - & & & & & - - - ; ; ; ; - - ; - - - - = ; = - = , = - - - - - - - - = - - - > U - - - = - - = - - - - - - - - - - - - - = - = - = - , , , , , = , , , - = - = = - - - - - & & - - - - - - - - - - - - , , = = - - - - - - - - - - - - - ] N , , , , R ] ^ : - = O - - = - - - - - - - - - - - - - - - - - > / - - < , U - - , - - = = - - - - - - - - = - - = - = - - - - = = - - - - - - - = - - - = - - - - - - - = - - - - & - & = & - - - - - - & & = = & & & $ $ $   ",
"3.+ % * * * * * * = , ~ & & - - - - - - - & & = - - - & - & & - - - - ; ; ; ; - - ; ; ; - = = & ; ; = - - = - - - - - - - - = - - , ] - - - = - = = - - - - - - - - - - - = - - - = = = - , , , , = = , , , - = - = = - - = - - - - - - > - - - - - - - - - , , = = - - - - - - - - - - - - - N , U ^ , , / = , , , = - - / = - - - - - - - - O - - - - - - - - - - - - - - , - - - = - - = - - - = - - - = = = - = - - - - = - = - - - = - - - - = - - - - - - - - - - - - - - - - & & & = & - - - & - = & & & = & & & $ $ $   ",
"3.+ % * * * * & = = & ! & & & & - - - - - & & = - - - - , - & - - & - ; ; ; ; - - ; ; ; - = - & = ; = - - = = = - - - - - - = - - / - , ; - = - = = - - - - - - - - - - - - - - - - = = - N , , ] , = - - < - = - = = - - = - - - - - - - - - - - - - - - - - , = - - - - - - - - - - = - - - - = U < , = , = U , , = < > = - - - - - - - - - ^ - - - - - - - - - - - - - - - = = - = - = = - = - = - - ; - = = * = - - - - = - - - - - = - - - - = - - - - - - - - - - - - - - - - - & = = - - - & & & = - & = & & = & $ % $   ",
"3.+ % * * * * & = = & & & & & & * - - - & & - = - - - - , > / = & & - * * ; ; ; - ; ; - - = - - - = ; - = = = - - = - - - = = - - - - - , - = - = = - - - = - - - O - - - = - - - - = = - , , - - - = - - - - = - = = - - = - & - - & - - - - - - - - - - - - , , < - - - - - - - - - = - - - - = = - , = / = , , , = , , ^ - - - - - - { - - > - - - - - - - - - - - - - - - = = - = - = = - = = = = - - - ; * * - - - - - - - = - - - = - - = = = - - - - - - - - - - - = - - - - - & & = - - - & & & = - = = = & & & % % $   ",
"3.+ % * * * * * * * = & & & & & & - - - & & & & - - - ( , Q = = - & & & * * ; & & - - - - = - - - = - ; ; - = - - = - - - = - - - - * * = - = = & = - - - = - - = - - - - = - - - - = - - - - - - = - - - - > = - = = - = = - - & - & - - - - - - & & - - - - , = , - - - > - - = - - = - - - - = = - { - N , , , , = , - - - - - - - - - - - - - = - - - - - - - - - - - - - - - = = - = = - = = = - - - ; * ; ; = - - - - - - = - ; - - - - = = = - - - - - - - - - - - - = = = - & & = = - - = , & = = - = = = & = & % % $   ",
"  + % % * * * * * * * & & & & & - - - * & & & - - - - - ] , = = { - & & & - = & & - - - ; - - - = = - = = * = - - = - ; - - - - - - * = - - = - - = - = - = - - = ^ ( - - = - - - - = - - - - - - = = - - - - = - = = - = = - - - - - = - - - - - & - - - - - , = , , - - , : - - - - = - - - - - - - - - / , = , , = - - - - P , Z - - - Z - - - - - - - - - - - - - - - - - = - - = - = - - = = - - - - ; * * - - - - - - - - = - - ; - - - = = - - - - - - - - - = - - - = - = & & - = = - - & & & = = - = = = & = & % % $   ",
"  + % % * * * * * * * & & , & - - - - & & - = - - & - - - , > - - - - & - - = & * - - - - ; = - = - - * * * - - - - - - - - - - - - - = - - = - - = - = = - - - = > - - = = = - - - = - - - - - - = = - - - - = - = = = = = - & - - - - - - - - - - - - - - - - = , , - - , , , U / - - - - - - = - = - - - , , , , = ( / < - - - = - = R , - - - - - - - - = - - - - - - - - = - - = - - - - - = - - - - - = - - - - - - = - - = - - - - - - - - - - - - - - - - - = - - = = & = & & - - - - - - & & = = & = = = & = & % % $   ",
"  . % $ * * * * * * & & & & { - - & - - - - = - - - - - - ) = - - - - - - - = * * - - - - - - - = - - * * * - = - - - - - & & & - - - - Q , = - - = - = = - - = - - - - = - - - = - = - - - - - - = = - - - - = - = = = = = & - & - - - - - - - - - - - - - - - = - U U - - ] , ^ , - = - - - - = - = - = - - - - - P Q - - - O , - - = P , - - - - - - - - = = - - = - - - - = - - = - - - - = = - - - - - = - - - - - - = - - - - - - - - - - = - - - - - - - - - = - - = = = & - & & = & & & & & - & = & & & = & = & % % $   ",
"  . % $ * * * ~ * & & & & & - - - & & & & - = - - & - - - & = - - - - - - - = * * * - - - - = - = * * * * - - = - - - - - - = - - - - = O , = = * = = - = - - = = - - - = - - - = - - = - - - - - = = - - - - = - = - - = - - - - - - - - - - & - - - - - - - - - Q ] , & - - - - , , = - - - - = - = - = - - - & & = - - - - , , - - = - U & - - - - - - - - = - - = - - - - - - - - - = = - = = - - - - - - - = = - - - = - = - - - - - - = = = - - - - - - - - - - - & - = = & - - & & & & & & & - & = & = & = & = & % % $   ",
"  . % % % * & , = & & & & & & & & & & & & & = - - & & & & & = & - - - - - - * * * * * - & = - - * * * * - - = - = - - - - - ; - - - - - - - = = * = = - = - - = - - - - = - - - = - - - - - - - - = - - - - - = - = - - = - - - - - - - - - - - & - - - - - - & - - - _ & - - - & & , = , - - - = - - - = - - - - & = - - - - ~ , / = = , - - - - & - - - - - = - - = = & - - - - - = - = = - = = - - - - = - - = = - - - = - = - - - - - - = = = - - - - - - - - - - - - = = = & - - & = & & & - - = - = & = & & & & = % % %   ",
"  . % % % * & & = & & & & & & & & & & & & & & & & & - - & & & & - - & & - * * * * * * - - = & - * * * - - * = - - - - - - * ; & - - - - - - - = & = - - = - - - - - - = = = - - = - - = - - - - - = - - - - = = = = & - = - - - & & & - - - - - - - - - - - - & & - = & & - - - & - < = , - - - - - = - = - - - - - - - - - Q & = , / = N - - - & & - & - - - - - - & = - - - - - - = - - = - - = - = - - = - - - = - - - - - = - - - - * - = = = - - - - - - - - - - * - = = = & = & & ~ = & & = - = & = & = & = & = = % % % 3.",
"  . % % * * & & = & & & & & & & & & & & & & & * & - - & & & & & - & & & & * * * * * * - - = - - * * * * - - - = - - - - - ; ; ; & - - - - - - - - = - * * - - = & - - = = = - - = - - = - - - - = ; ; * - - = = - - ; - = - - & & & & = - - & - - - - - - - & & & - - - - - - - - - - = , & - - - - - - = - - - - O - - - - - & & & ) = , ! & & & & & & - - - - - & = = - - - - - - - - = - - - - - = - - = = - = = - - - = - & = - - - * * = - = - - - - - - - - - & - - ; & = & - & = & ; & & & - = & = & = & = & & % % % % 3.",
"  . % % * * & = = & & @.c c @.& & & & & & & = * & - - - & & & - - - - - & * * * * * * - - = - - * * - - - - - = - - - - - - ; ; & - - - - - - - - = - ; ; - - - - - - - - = Q - = - - = - - - - = ; * * , - = = - - = - = - - - - & & = - & & & - - & - - - & & = & & - - - - - & & & & ~ & - - - - - = = - - - - - = - - - - & & _ , , ~ = - - & & & & & - - = - & & = = - - = - - - - = - = - = - - - - = = - - - - - ; = - - = - - - - - = - = - - - - - - - - - & - - = & = & - & = & & & & - - ].c 7.@.& & & & & % $ $ % 3.",
"  . % % * * & = = & c c 8.W }.}.& & & & & & = * & - - - - - & - - - - - - - - * * * * * - - - * * - - - - - = = - - - - - - ; ; - - - - - - - * & = - ; ; - - = - - = = Q P > - - - - - - - - - * * - - - - = = - - = - = - - - - - & = - - & & & & & - - & & & = & & - - - - - & & & & & & - - - - = = = - - - - - = - - - - O , , ) & & = - - & & & & & = & & & & - = = - - = - - - - = - = - = - = - - = = - - - - & & = - - = & - - - - = ; = - - - - - - - - - - - - & & & - - & = & & & & - 9.c 8.0.}.}.& & & = % $ $ $   ",
"  . % % * * & = & & 2 8.a.@.#.}.& & / & & & = & & - - - * - - - - - - - - & = - * * * - = - - * * - - - - - * * * * - - - - * * * - & & & - = - & = & = - = - = - - = = ] = - = - - - = - - - = = - - - - - - - - = - - - - - - - - - = - - - & & & & - - & & & = - - - - - - - - & = & & & - - = - = = = - - - - - = - - - , , ! , ^ - & & & - & & & & & = & & & - - = = - - = & & ; - = - - - - - = - - = = - = - ; & & = - = = - - - - - = - = - - - - - N - - - - - - & & & - & & & & & & & & 2 @ b.].c.}.& & & = % % $ $   ",
"  . % % * * & & & & d.e.f.;.8.|.& & { - & & & & & & & & * * - - - - - - - - - * - & * - = - - * * * - - - - * * - * * - - - - * * & = & & - = - & = & - - = - = = - - = , = - - - - - = - - - - = - - - - - = - - - - - - & & - & - - - & - - & & & & - - & & = = - - - = - - - & & = & & & - - = - = = = - - - - - = - - - , , , , , < & & & & & & & & & = & & & - - - - - - = & & & - - - - - - - - - - = - & - - - - - = - = = - - - - - = - - - - - / Z - = ; ; - - - - & & & & & & = & & & & d.g.h.i.8.|.& & & & % % $ $   ",
"  . % % * * & = & & @.(.j.#.@.k.& & - - - - - - & & & & & & = - - - & - - - * * * & & * = - & - * - - - - - - & - - * * - & & * * * * * * * = - & = & - * = - = - - = = , > - - - - - = - - - - = ^ - - - - = - = = - - - & & & & - - - & & & - - - & - = - - = = - - - - - - - & & = & = & - - = - = - - - - - - - = - - - { N < ~ - - - & - & & & & & & & & - & & & - - - = = & - & = = - - - & - = - - - - - - - - - - = - = - - - - - - = - = & - - - - - = ; ; = & - & & & & & & = = & & & & @./.l.m.@.^.& & & & % % $ $   ",
"  . % % * & * = = & & |.n.}.|.& & & & & = & & = & & & & & & = & & & & & & * * * * * * * = & & - = & & & & & & = - - & & - & & * * * * * * * * = - - - = * - - - - - = = - - - - - - - = - - - - = U - - - - = - = = - - = & & & & & - & & & & - - - & & - - - = - - & & - = & & = & = & = & - = = - = = - - - - - - - - & & & & & , - - - & & & & = , , & & - - - & & - - - = - - - - = = - - - - - = - - - - - - - - - - = - = - - - - - - = - - - - - - - - = & & & & & & & = & & , , = & & & & & >.o.Y |.& & & & & = % $ $   ",
"  . $ $ % & & = = & & & & & & & & & & ) , , = & & & & & & = = & & & & & & * * * * * * * * & & & = & & & - * - = - - & & & & & & * * * * * * * - = - - = * - - - - - = = - - - = - N & - - - - - = & & - = - = - = = & - = - - & & & & & - - - & & & & & & & * = - - & - - = & & = & = & = & - = = - = = - - & & - - = - - - & & & & & & / & & & = & , , , & - - - & & & & - - & - = & = = - - - - & = & & - - - - - - - - = - = - - - & - - = - = - - - - - - - & & & & & * * = & & , , = = & & & & = & & & = & D & & = % $ $   ",
"  . % % % * & = & & & & & & & & & & & ! , , = * & & & & & = = & & & & & & * * * * * * * * & & * = & - = - - * * * * & & & & & & & & ] ; * * = & * & & = & & & & - - - = - = - - - = - - - O - - = & & & = - - ^ = = & = = & - & & & & & - - - - & & & * * & & ) - - - - & & & & = & = & & & - = - - - = - & & & & & ] - & & - & & & & & ~ & & - & - - , , & & - - - & & = & - - - & = = - = & - = & = & - - - = - - - - = = - = - & & & & - = - = - - - - & & & & & ; & & & & = & & ) = = , = & & & = = & = = & D & & & % $ $   ",
"  . $ % % * & ) p.1 1 1 1 1 1 1 1 4 1 1 4 4 1 1 | 1 1 1 1 2 1 1 1 1 1 1 3 6 | | 6 | | | | | | | | 1 1 2 1 1 | | | | 1 3 q.1 1 1 1 1 5 5 1 1 3 2 1 1 1 2 1 1 1 2 1 1 1 1 1 2 1 1 1 2 1 1 1 q.1 1 2 1 1 1 2 1 2 4 4 4 3 2 2 1 1 4 1 1 1 3 3 3 3 3 3 1 2 1 1 1 1 1 1 3 3 3 1 1 1 2 1 1 2 1 1 1 3 2 3 3 3 1 1 1 1 3 1 4 5 3 1 1 4 1 1 1 4 4 4 4 4 1 1 1 3 3 3 1 1 3 3 1 1 1 2 1 3 1 1 1 2 2 1 2 2 1 1 3 1 1 3 3 3 2 1 3 3 1 1 2 3 2 1 1 1 1 3 3 2 | 1 1 1 3 1 1 1 1 1 1 | 1 1 1 1 2 1 1 1 2 2 4 1 1 1 1 2 2 1 2 2 p.C & & % % $ $   ",
"  . $ $ % * & = = r.s.t.b b c b b b b b b u.b b g g b b b c a b b b b b b a g g g g g b g b b g g g c c g e g g b b e e e b b b b b c b b c e c b b b b g b b c b b b c b b b b b c b b b e b c c b b b c b c b c v.d c c b b b b b e e e e e e e b c b b b b b b b e b b b b c b b c e b b e c e b b b b b b b v.d d e b v.d d v.b d d d d d b b b d d e e b b e e b b b c b b b b c c b b b a a e e e b e e c b b b b b c e c b b e e e e c e b b g c g a c a a g b b b b b c c b c c v.c b b b b c c b }.w.& D & % % % $ $   ",
"  . % $ $ % * * x.y.z.o o o v o o o o o A.A.p o o o o o o n o o o u n o n n u u u u u u u o o u u u p p u u u u u o o o o o o o o o p o u u p p p o o p u o o p o o o p o o s s o o p o p o o p p p o o o o o o p v v x o o o o o o o s s s s s o o p p v v o p s o s o o o o p o o p o o o s p o o s o o o o o B.A.o o o o v v y o B.v v v v s s r C.q s o o o s o o o o o o o o o s p o o o o o o s s o o o o o o o o p p o p o o o o o p n u u u n o u u n n n o p o u o o p p o o p s p o o o p p p o D.y.j & % % % % $ $   ",
"  . % % % % ~ * , x.j C C C J E.C C C C J J F.C C C C C C D C C [ [ [ C C C j j j C C j j j j j j j D C C j j j j j C C C D C C C C D [ [ [ C C C C C C C C C D C C C D C E E E C C D C C C C C C D C C C C D C D J C D C C C D C C C C E j E C C C C E.J J C D E E E C C C C C C C D C C E E D C E E E C J J E C C C C C C C E.F.C E J J D C C C E C C F.F.C D C E C C C D C C C D E E C C D C C C C C C C C C C E C C C J J D C C C C C C [ [ [ [ j C j j j j C C D C C j C D j j C D C E C C C D D C C D C * & & & % % $ $   ",
"  . $ % % $ $ % ) ! _ * * * , _ ~ & & & & ) , & & * = & & = & & & & & ; & & * * * & & & * * * * * * * * * * * * ; * & & & = & & & & = ; ; ; & & & & & & & = & = & & & = & - - = & ) = & & & & & & & & & & & = , = = & = & & & & & & & & * * & & & & = & ( , & & - < Q & & & & & - = = = & - & = & - & & & & ~ & & & & - & & & & & & = = , - & & : - & & = = & = & = & & & & & & & = - & & & = & & & & & & & & & & & & & = , , = & & & & & ; ; ; ; * * ; & & * & & & = * * & & & * * * * & & & & & = = & & = & & & & & % $ $ $   ",
"  . % $ $ $ $ % % * * * * * & & & * & & & ) * * & * * * * = & & & & * * * * * * * & & * * * * * * ; * * * * * ; ; ; & & & = & & & & = * ; ; * & = & = = & = & = & & = & = & & = = ~ = & & & & & = = & & & & = , = = & = & ~ ! & & * & & & * & & & & - - - , & = / - & ) = & - Q , , = ; ; - & = & & & = & & & & & & & - - & & & & & & & & - - = ! - - , & = - - & = & , & & & & & = - - & & & & & & & & & = = & & & & = = & ' = & & & & ; * * ; * * ; * & & & & & & & & & & - & * * * * ! & & & & = = & & * & & & & & & $ $ $   ",
"  . $ $ $ % $ $ $ % * * * * * * * * & & & = * & % & = & & * * * * & * * & * * * * * & * * * * & & ; * * * * & & * * * & & & ! & & & = * * * * & = * * & & = , = & = = = = & & = = & ~ & & & & = ~ & & & & - = , = = & = ; ; & & * * * * & & & * & & & & - - & = & - < & = ~ = - - , = = & & & = & & & = , , , ! & & & - - & - - & - - & & & & - & & - - = - - - & = , , - - - & & = - & & = = & & & & & & & = = = , , , = & & & , , & & * ; * * * ; ; ; , & & & & & & & & & & - * * * * , , & & & * * & & * & & & & & & $ $ $   ",
"  . $ % % $ $ $ % % * * * ; ; ; * * & * & = * & % & & & & * * * & & & & & ; * * * * * * * * * = = ; & * * * & & & * * * * * * ; * * ; & & * * & = * * * & , = & & = = = = & = = = & = & & & & = , = & & & & = , = = & & ; ; ; & = * * & & & & & & & & = - & & = & % % % % , = - = = = & & & & = & - & = , , , & % % & & - & & - & & - - & & - - & & - - = % - - & = = = - - = & & = - = & = = & & & & & & & = = = & , , = & & = , & & & * * * ; * * & & & _ & & & & & & & & , * * * * * ! , & & & * & = * * & & & & & = $ $ $   ",
"  . $ $ % % % % % % % ; ; ; ; ; ; * * * * * * ; % & & & & * * * * * * ; * ; * * * * * * * * ; * = = = & * & & & & * * & * * * ; * & & * * & = & & * * * = & = & & & & = = & & = = & = & * - & & & ! & & & = , ) % % % & ; ; ; & & % % % % % % % % % % % % % % % % % % % % % % % % % % % % % % % % % % % % % % % % % % % % % % % % % % % % % % % % % % % % % % % - = , = - = % % & = & = & = = & = & & & & ; = = = & * ) * * ; & & & & ; * * * * * & & & & & , & & & & & & & * * * * * * * * & & * * * = * * & & & & & = $ $ $   ",
"  . $ $ % % % % % % % ; ; ; ; ; ; * * * % % % % $ $ % % % % % % % % % % % % * * * * * * = * * * ; & = & % % % % % % % % % % $ $ % % % % % & = & & & & * * * = & = & & & = & = & & & = & % % % % % % % % % % % % % % % % % % $ % % % % % % % % % % % % % % % % % % % % % % % % % % % % % % % % % % % % $ $ % % % % % % % % % % % % % % % % % % % % % % % % % % % = = - = % % % % % = = = % % % % % % & & & ; ; & & & * & * * & = & ; ; ; * * ; * * & * & & & & , & & & = & & * * * * * % % % % & * * * * * * * % % % % % $ $ $   ",
"  . $ $ % % % % % % % ; ; * * * * * * * % % % % $ % % % % % $ $ $ $ $ $ $ $ $ * * * * * * * * * ; ; * * * $ $ $ $ $ $ $ $ $ $ $ $ $ $ $ $ $ $ $ $ $ $ $ $ * & & & & - & = & = & & & = & $ % $ $ $ $ $ $ $ $ $ $ $ $ $ $ $ $ $ $ $ $ $ % % % $ $ $ $ $ $ $ $ $ $ $ $ $ $ $ $ $ $ $ $ $ $ $ $ $ $ $ $ $ $ $ $ $ $ $ $ $ $ $ $ $ $ $ $ $ $ $ $ $ % % % % % % % % % % % % % % % % % % % % % % % % % % % % % % % % % % % & * * % % % % ; * & & * % % = & * ; * * & & & & * * & * * * $ $ $ $ $ $ $ * * * * * * * * & $ $ $ $ $ $ $   ",
"  . $ $ $ $ $ $ $ $ $ ; ; * * * * * * ; % % % % $ $ $ $ $ $ $ $ $ $ $ $ $ $ $ $ $ $ * * * * * * ; * * * * $ $ $ $ $ $ $ $ $ $ $ $ $ $ $ $ $ $ $ $ $ $ $ $ $ $ $ $ $ $ $ $ $ $ $ $ $ $ $ $ $ $ $ $ $ $ $ $ $ $ $ $ $ $ $ $ $ $ $ $ $ $ $ $ $ $ $ $ $ $ $ $ $ $ $ $ $ $ $ $ $ $ $ $ $ $ $ $ $ $ $ $ $ $ $ $ $ $ $ $ $ $ $ $ $ $ $ $ $ $ $ $ $ $ $ $ $ $ $ $ $ % % % % % % % % % % % % % % % % $ $ $ $ $ $ $ $ $ $ $ $ $ $ $ $ $ $ $ $ $ $ $ $ $ $ $ $ $ $ $ $ $ $ $ $ $ $ $ $ $ $ $ $ $ $ $ $ $ * * * * * * * & & $ $ $ $ $ $ $   ",
"  . $ $ $ $ $ $ $ $ $ $ $ $ $ $ $ $ $ $ $ $ $ $ $ $ $ $ $ $ $ $ $ $ $ $ $ $ $ $ $ $ $ $ $ $ $ $ $ $ $ $ $ $ $ $ $ $ $ $ $ $ $ $ $ $ $ $ $ $ $ $ $ $ $ $ $ $ $ $ $ $ $ $ $ $ $ $ $ $ $ $ $ $ $ $ $ $ $ $ $ $ $ $ $ $ $ $ $ $ $ $ $ $ $ $ $ $ $ $ $ $ $ $ $ $ $ $ $ $ $ $ $ $ $ $ $ $ $ $ $ $ $ $ $ $ $ $ $ $ $ $ $ $ $ $ $ $ $ $ $ $ $ $ $ $ $ $ $ $ $ $ $ $ $ $ $ $ $ $ $ $ $ $ $ $ $ $ $ $ $ $ $ $ $ $ $ $ $ $ $ $ $ $ $ $ $ $ $ $ $ $ $ $ $ $ $ $ $ $ $ $ $ $ $ $ $ $ $ $ $ $ $ $ $ $ $ $ $ $ $ $ $ $ $ $ $ $ $ $ $ $ $ $ $   ",
"                                                                                                                                                                                                                                                                                                                                                                                                                                                                                                                                "};
