/* XPM */
static char * Wall_East_xpm[] = {
"256 256 141 2",
"  	c #304F65",
". 	c #315065",
"+ 	c #335363",
"@ 	c #345363",
"# 	c #335264",
"$ 	c #325164",
"% 	c #35586E",
"& 	c #537389",
"* 	c #527289",
"= 	c #567787",
"- 	c #577B93",
"; 	c #547488",
"> 	c #557687",
", 	c #537388",
"' 	c #56788C",
") 	c #557688",
"! 	c #547588",
"~ 	c #395E78",
"{ 	c #3A5F78",
"] 	c #3D6276",
"^ 	c #3F6883",
"/ 	c #3E6376",
"( 	c #3F6781",
"_ 	c #3A5F77",
": 	c #3C6177",
"< 	c #3B6077",
"[ 	c #3F667D",
"} 	c #3D6277",
"| 	c #3E6377",
"1 	c #3F6882",
"2 	c #3F6780",
"3 	c #3E657B",
"4 	c #3E6479",
"5 	c #3F667E",
"6 	c #3F677F",
"7 	c #3E657C",
"8 	c #53738A",
"9 	c #375B74",
"0 	c #0B1218",
"a 	c #0B1318",
"b 	c #0C141A",
"c 	c #0C1317",
"d 	c #0C1419",
"e 	c #0E181F",
"f 	c #121D26",
"g 	c #15222C",
"h 	c #192A35",
"i 	c #192935",
"j 	c #1B2B34",
"k 	c #1B2D3A",
"l 	c #1B2C34",
"m 	c #1B2C36",
"n 	c #1B2D38",
"o 	c #1B2D37",
"p 	c #15232C",
"q 	c #476071",
"r 	c #182732",
"s 	c #1D303E",
"t 	c #253D4E",
"u 	c #253E4E",
"v 	c #294353",
"w 	c #294251",
"x 	c #294355",
"y 	c #294354",
"z 	c #28404C",
"A 	c #28414F",
"B 	c #273F4C",
"C 	c #273F4D",
"D 	c #294252",
"E 	c #284150",
"F 	c #192831",
"G 	c #54748A",
"H 	c #597C94",
"I 	c #597B92",
"J 	c #597A8E",
"K 	c #587A8C",
"L 	c #587A8D",
"M 	c #587888",
"N 	c #58798B",
"O 	c #597C93",
"P 	c #597B91",
"Q 	c #3E6478",
"R 	c #3E657A",
"S 	c #3F667F",
"T 	c #3E647A",
"U 	c #233A49",
"V 	c #1A2A35",
"W 	c #263D48",
"X 	c #1C2E3A",
"Y 	c #517189",
"Z 	c #466881",
"` 	c #16242C",
" .	c #16232C",
"..	c #3F6782",
"+.	c #36444E",
"@.	c #4C728B",
"#.	c #283842",
"$.	c #3F637C",
"%.	c #293035",
"&.	c #2E4656",
"*.	c #284254",
"=.	c #496B83",
"-.	c #405461",
";.	c #375062",
">.	c #2A4557",
",.	c #3A5162",
"'.	c #354C5B",
").	c #486272",
"!.	c #294457",
"~.	c #314755",
"{.	c #395366",
"].	c #243A49",
"^.	c #253D4D",
"/.	c #324755",
"(.	c #375568",
"_.	c #243C4D",
":.	c #203543",
"<.	c #182730",
"[.	c #3E6477",
"}.	c #345466",
"|.	c #35576C",
"1.	c #345465",
"2.	c #476981",
"3.	c #293842",
"4.	c #4A6C83",
"5.	c #415461",
"6.	c #385162",
"7.	c #3A5466",
"8.	c #40647C",
"9.	c #213543",
"0.	c #0C1418",
"a.	c #17242B",
"b.	c #192A34",
"c.	c #1A2A34",
"d.	c #263E4D",
"e.	c #253E4D",
"f.	c #28414E",
"g.	c #1D313E",
"h.	c #557589",
"i.	c #567689",
"j.	c #345569",
"  . . . + @   .               # #   .     .               .                         .   .                 $ @ @ @ @ .               .             .     . .       .     .       .     @ + % %   @   + @ @ .   . . .   .               .             .       . .         % % % + + . .                       @ @ @     % %   .     . %   % % %   .   % % % %       . %   .       . . .     .   .             .                         @ @ # .                                 .   .                       .   . @ @ . @ . . . . ",
"  & & & * = * & * * * * * * * * * * * * * * * - * * * * * & * * * * * * * * * * * * & * * * * * * * * * * * * * * * * * * * * * * * * * * * * * * * * * & & * * * * * * & * & * & * * * * - - * * * = ; > * * & & & * & * * * * * * * * * * * * * * & * * * & * * * * * & * * , ; * * * * * * * * * * * * * = = > * * * * * & * - - - * * - - & & - - - - - - ' ' & - * & & * * & & & * * & * & * * * * * * & * * * * * * * * * * * & = = = = * * * * * * * * * * * * * * * , * * = = = = * * * * & * * * & ) ; ! = & & & & & . ",
"  & ~ ~ ~ ~ ~ { ~ ~ ~ ~ ~ ~ ~ ~ ~ ~ ~ ~ ~ ~ ~ ~ ~ ~ ~ ~ ~ ~ ~ ~ ~ ~ ~ ~ ~ ~ ~ ~ ~ ~ ~ ~ ~ ~ ] ~ ~ ~ ~ ~ ~ { ~ ~ ~ ~ ~ ~ ~ ~ ~ ~ ~ ~ ~ ~ ~ ~ ~ ~ ~ ~ ~ ~ ~ { ^ ^ ~ ~ ~ ~ { ~ ~ ~ { ~ ~ ~ ~ ~ ^ ~ { ^ ~ { ~ ~ ~ { { { ~ ~ ~ ~ ~ ~ ~ ~ ~ ~ ~ ~ ~ { ~ ~ { ~ ~ ~ ~ ~ ] ~ / / { ^ ~ ~ ~ { ~ ~ ^ ^ ~ ~ { ^ { ^ ^ ^ ^ ~ ~ ~ ~ ~ ~ ~ / ~ ^ ^ ^ ~ ~ ^ ~ { ~ ~ ^ ^ ^ ^ ( / { { / ~ { { ^ ~ { { { ~ ~ { ^ ^ ~ ~ ^ ^ ^ ^ { ^ ^ ^ ^ ^ ^ ^ ^ { ~ _ : / / ] ~ ~ ~ ~ { ~ ~ ~ ~ ~ ~ ~ ~ ~ ~ ~ ~ ~ ~ ~ ~ / { ~ ~ ~ ~ { { { < { / : { / { { { { { . ",
"  & ~ ~ ~ ~ ~ { ~ ~ ~ ~ ~ ~ ~ ~ ~ ~ ~ ~ ~ ~ ~ ~ ~ ~ ~ ~ ~ ~ ~ ~ ~ ~ ~ ~ ~ ~ ~ ~ ~ ~ { ~ ~ ~ ~ ~ ~ ~ ~ ~ ~ ~ ~ : / ~ ~ ~ ~ ~ ~ ~ ~ ~ ~ ~ { ~ ~ ~ ~ ~ ~ ~ ~ { ^ ^ ~ ~ ~ { { ~ { ~ { ~ ~ ~ ~ ~ ~ ~ { { ~ ~ ~ ~ ^ { ^ ~ ~ ~ ~ ~ ~ ~ ~ ~ ~ ~ ~ ~ ~ { ~ { { ~ ~ ~ ~ ^ / / / / { ~ / { / { / : ~ ^ ^ ~ { ~ { ^ ^ ^ ^ ~ ~ ~ ^ ^ / / / ~ ~ ^ ^ ^ ^ { ^ { ~ ~ ~ ~ ~ ~ < ] / { / ~ { { ~ ~ { { { ~ ~ { ^ ^ ~ ~ ^ ^ ^ ^ { { ^ ^ ^ ^ ^ ^ ~ { ~ { ( [ ^ ^ ^ ^ ^ ~ ~ ~ ~ ~ ~ ~ ~ ~ ~ ~ ~ ~ ~ ~ ^ ~ ~ ~ ~ ~ ~ ~ ~ { { { ~ { / / { ~ { ~ { { { . ",
"  & ~ ~ ~ ~ ~ { ~ ~ ~ ~ ~ ~ ~ ~ ~ ~ ~ ~ ~ } ~ ~ ~ ~ ~ ~ ~ ~ ~ ~ ~ ~ ~ ~ ~ ~ ~ { ~ ~ { ~ { ~ ~ < ~ ~ ~ ~ ~ ~ / ~ ~ ~ ~ ~ ~ ~ ~ ~ ~ ~ ~ ~ { ~ ~ ~ ~ ~ ~ ~ ~ ~ ^ ~ ~ ~ ~ ~ { ~ ~ ~ ~ ~ ~ ~ ~ ~ ~ ^ ~ ~ ~ ~ ~ ~ ^ ^ ~ ~ ~ ~ ~ ~ ~ ~ ~ ~ ~ ~ ~ ~ ~ ~ ~ ~ { ~ ~ ^ ~ | / / / / { { / / ~ ~ { / ~ ~ ^ ^ ~ ~ { ~ ~ ^ ^ ~ ~ ~ ^ ^ < / { ~ ~ ^ ~ ^ ~ { ~ { ~ ~ ~ ~ ~ ~ ~ ~ { ~ ~ ~ ~ { ~ ~ { { / : ^ { ^ ~ ~ ^ ^ ^ ^ ^ ^ { ^ ^ ^ ^ ^ ^ ~ { ~ 1 ^ ^ ^ 2 ^ ^ ^ { ^ ^ ~ ~ ~ ~ ~ ~ ~ ~ ~ ~ ~ ~ ^ ~ ~ ~ ~ ~ ~ ~ { { { ~ ~ { / < ~ ~ ~ ~ { { { . ",
"  & ~ ~ { ~ ~ { ~ ~ ~ ~ ~ ~ ~ ~ { ~ ~ ~ ~ { ^ ~ ~ ~ ~ ~ ~ ~ ~ ~ ~ ~ ^ ^ ^ ^ ^ ^ ( ^ { ^ { ^ ^ ~ ^ ^ ^ ^ ^ ^ ^ [ ^ ~ ~ ~ ~ ~ ~ ~ ~ ~ ~ ~ { ~ ~ ~ ~ ~ ~ ^ ^ { ^ ^ ~ { ~ ~ { ~ ~ ~ ~ ~ ~ ~ ~ ~ ~ ^ ^ ~ ~ ^ ^ ^ ^ ^ ~ ~ ^ ~ ~ ~ ~ ~ ~ ~ ~ ~ ~ ~ ~ ~ ~ ~ { ~ ^ ^ ^ ^ / / / 3 ^ { ^ / ~ ~ { { ~ ~ ^ ^ ^ ^ { ^ ^ ^ ^ ^ ^ ^ ^ ~ ~ ~ ^ { ^ { ~ ~ ~ { ~ { ~ ~ ~ ~ ~ ~ ~ ~ { ~ ~ ~ { { ] { { { ~ ~ ^ { ^ ~ ~ ^ ^ ^ ^ { ^ { ^ ^ ^ { ^ ^ ~ ~ ^ ^ ^ ^ ^ 1 ^ ^ ~ ^ ^ ^ ^ { ~ ~ ~ ~ ~ ~ ~ ~ ~ ~ ~ ~ ~ ~ ~ ~ ~ ~ ~ { { ~ ~ ~ ~ ~ ~ ~ { : { { ~ . ",
"  & { ~ { ~ ~ { ~ ~ ~ ~ ~ ~ ~ ~ ~ ~ ~ ~ { { ~ ~ ~ ~ ~ ~ ~ { ^ ~ ~ ~ ^ ^ ^ ^ ^ ^ ^ 2 { ^ { 4 ^ ^ ^ 5 ^ ^ ^ ^ ^ ^ ^ ^ ~ ~ ~ ~ ~ ~ ~ ~ ~ ~ { ~ ~ ~ ~ ~ ~ ~ ~ { ~ ~ { ~ ~ ~ ~ ~ ~ ~ ~ ~ ~ ~ ~ ~ ~ ~ ^ ^ ~ ^ ^ { ^ ^ { ~ ~ ~ ~ ~ ~ ~ ~ ~ ~ ~ ~ ~ ~ ~ ^ ^ ~ ~ ~ { { ^ ^ ^ } ^ ^ { ^ ^ ~ { { ~ ^ ^ ^ ^ ^ ^ { ^ ^ ^ ^ ^ ^ ^ ~ ~ ~ ^ ^ ^ ^ { ~ ~ ~ { ~ { ~ ~ ~ ~ ~ ~ ~ ~ { ~ ~ ~ { { / { { { ~ ~ ^ { ^ ^ ^ ^ ~ ~ ^ { ^ ^ ^ ~ ^ { ^ ^ ^ ^ ^ ^ ~ ~ { { 3 ^ ~ ^ ^ ^ ^ { ^ ~ ~ ~ ~ ~ ~ ~ ~ ~ ~ ~ ~ ~ ~ ~ ~ ~ ~ < { ~ ~ ~ ~ ~ / / / / ] { ~ . ",
"  & { ~ { ~ ~ ~ ~ ~ ~ ~ ~ ~ ~ ~ ~ ~ ~ ~ { { ~ ~ ~ ~ ~ ~ ~ ^ ^ ~ ~ ~ ~ ~ ~ ^ ^ ^ ^ ^ { ^ ^ / [ ^ ^ ^ ^ ^ ^ { { ^ 1 ^ ^ ^ ^ ^ ^ { ~ ~ ~ { ~ { { ~ ~ ~ ~ ~ ~ ~ ~ ^ { ^ ~ ~ ~ { ~ ~ ~ ~ ~ ~ ~ ~ ~ ^ ^ ^ ^ ^ ^ { ^ ^ ^ { ~ ~ ~ ~ ~ ~ ~ ~ ~ ~ ~ ~ ~ ~ ~ ^ ^ ~ ~ ~ { ^ ^ ^ < ~ ^ { ^ { ~ { { ^ ^ ~ ^ { { ^ { ^ ^ ^ < ^ ^ ^ ^ ~ ~ ~ ^ ^ ^ { ~ ~ ~ ~ ~ { ~ ~ ~ ~ ~ ~ ~ : { { ~ ~ { ~ ~ { ~ ~ ~ ^ ^ { ^ ^ ^ ~ ~ ^ ^ ^ ^ ^ ^ ~ ~ ~ ~ ^ ^ ^ ^ ^ ~ ^ { { / [ < ~ ^ ^ ^ ^ ^ ^ ~ ~ ~ ~ ~ ~ ~ ~ ~ ~ { ~ ~ ~ ~ ~ ~ ~ { ^ ~ { ~ ~ : / ~ { { { { . ",
"  & { ~ ~ ~ ~ { ~ ~ ~ ~ ~ ~ ~ ~ ~ ~ ~ ~ { { ~ ~ ~ ~ ~ ~ ~ ~ ~ ~ ~ ~ ~ ^ ^ ^ ^ ^ ^ ^ { ^ / 4 / ^ ^ ^ ^ ^ ^ { { ^ / ^ ^ ^ ^ ^ 1 _ ~ < ~ ~ ~ ~ { ~ ~ ~ ~ ^ { { ^ ^ ^ { ~ { ~ { ~ ~ ~ { ~ ~ ~ { ^ ^ { ^ ^ ^ ^ { { ^ ^ ~ ^ ~ ~ ~ ~ ~ ~ ~ ~ ^ ^ ^ ~ ~ ~ ^ ^ ^ ~ ^ { { ^ ^ / { / / / { { { { ^ ^ 1 ^ { { ^ { ^ ~ ~ ~ ^ ^ ^ ^ ^ ^ ^ ^ ^ ^ ~ ~ ~ ~ ~ ~ { ~ ~ ~ ~ ~ ~ ~ ~ ~ ~ ~ ~ ~ ~ ~ ~ ~ ~ { ^ { { ^ ^ ~ ~ { ^ ^ { ^ ^ ^ ~ ~ ~ ^ ^ ^ ^ ^ ^ ^ ^ { { ^ ~ ~ { ^ ^ ~ ~ ^ ^ ^ ~ ~ ~ ~ ~ ~ ~ ~ ~ { ~ ~ ~ ~ ~ ~ ~ ~ ^ ~ { ~ ~ : ~ { ~ { { ~ . ",
"  & { ~ ~ ~ ~ { ~ ~ ~ ~ ~ ~ ~ ~ ~ ~ ~ ~ ~ ~ ~ ~ ~ ~ ^ ^ ~ ^ ^ ~ ~ ~ ~ ^ ^ ^ ^ ^ ^ { { ^ / / / ^ ^ ^ ^ ^ ^ { { ^ ( 6 ^ ^ ^ ^ ^ ~ ~ { ~ ~ ~ ~ ~ ~ ~ ~ ^ ^ { ^ ^ ^ ^ ^ ~ { ~ { ~ ~ ~ { ^ ^ ^ { ^ { { ^ ^ ^ ^ { ^ { ^ ^ ~ ~ ~ ~ ~ ~ ~ ~ ~ ~ ^ ^ ^ ~ ~ ~ ~ ^ ~ ~ { ^ ^ [ / { / { / { / { { 2 ^ 7 ^ { { ^ { { ^ ^ ^ ^ ~ ^ ^ ^ ^ ^ ^ ~ ~ ~ ~ ~ ^ ~ ~ ~ ~ ~ ~ ~ ~ ~ ~ ~ ~ ~ ~ < : ~ ^ ~ ~ ~ { ^ { { ^ ^ ~ ~ ^ ^ ^ { ^ ^ ^ ~ ~ ~ ^ ^ ^ ^ ^ ^ ^ ^ { { { ~ { { ^ ^ ^ ^ ^ ^ ^ ^ ~ ~ ~ ^ ~ ~ ~ ^ { ~ ~ ~ ~ ~ { ~ { ~ ~ { ~ ~ ~ ~ { { { { ~ . ",
"  & { { ~ ~ ~ { ~ ~ ~ ~ ~ ~ ~ ~ ~ { ~ ^ ~ ~ ~ ~ ~ ~ ^ ^ ^ ^ ^ ~ ~ ~ ~ ~ ^ ^ ^ ^ ^ ^ ^ 2 5 / / ^ ^ ^ ^ ^ ^ ^ ^ ^ ^ ^ ^ ^ ^ ^ ^ ^ ~ ^ ~ ~ { { { { ~ { ^ ^ ^ ^ ^ ^ ~ ^ ^ ^ ~ { { ~ ^ ^ ^ ^ ^ ^ ^ ^ ^ ^ [ ^ ^ { ^ { { ^ ~ ~ ~ ~ ~ ~ ~ ~ ~ ~ ^ ^ ^ ~ ~ ~ ^ ^ ~ ~ { ^ ^ ^ 2 / / { / { { { / / / / ^ { ^ ^ { { { ^ ^ ^ ^ ^ ^ ^ ^ ^ { ~ ~ ~ ~ ^ ^ ~ ~ ~ ~ ~ ~ ~ ~ ~ ~ ~ { { ~ < < ~ / ^ { ^ { ~ ^ { ^ ^ ~ ^ ^ ^ ^ { ~ ^ ^ ^ ~ ^ ^ ^ ^ ^ ^ ^ ^ ^ { } { ~ { { ^ ^ ^ ^ ^ ^ ^ ^ ~ ~ ~ ^ ^ ~ ~ ^ { ~ ~ ~ ~ ~ { ~ { ~ ~ { ~ ~ 8 { { { { { ~ . ",
"  * { { { ~ ~ { ~ ~ ~ ~ ~ ~ ~ ~ ~ ~ ^ ~ ~ ~ ~ ~ ~ ~ ^ ^ ^ ^ ^ ^ ^ ~ ~ ~ ^ ^ ^ ^ ^ ^ ^ ^ ^ 4 / ^ ^ ^ ^ ^ ^ ^ ^ ^ ^ ^ ^ ^ ^ ^ ^ ^ ~ ^ ^ ~ { { { { ^ ^ ^ ^ { { ^ ^ ^ ^ ^ ^ ^ ~ { ^ { ^ ^ ^ ^ { ^ ^ ^ ^ ^ ^ ^ { ^ { { ^ ~ ^ ~ ~ ~ ~ ~ ~ ~ ~ ^ ~ ~ ~ ~ ~ ~ ~ ^ ~ ~ ^ ^ ^ ^ ^ / { { { / ] { / / / ^ { ^ ^ { { { ^ ^ ^ ~ ^ ~ ~ ] / / ~ ~ ~ ~ ^ ~ ~ ~ ~ ~ ~ ^ { ~ { ~ ~ { { ~ { < ^ / < { { { ~ { { ^ ^ ^ ^ ^ ^ ^ { ~ ~ ^ ^ ^ ^ ^ ^ ^ ^ ^ ^ ^ ^ { / { ^ ^ { { ^ ^ ^ ^ ^ ^ ^ ^ ^ ^ ^ ^ ^ ~ ~ ~ ~ ~ ~ ~ ~ { ~ { ~ ~ { ~ ~ 8 ~ { { { { ~ . ",
"  * { { { ~ ~ { 9 0 0 0 a 0 0 0 0 0 0 0 0 0 a 0 0 0 b b b b b b b b 0 0 b b b b b b a b b b b b b b a b b b b b b b b 0 b b b b b b b 0 a a a a b b b a a a b b b b b b b 0 a b a 0 b b b a b a b b b b b a b a a b b 0 0 0 0 0 0 0 0 0 b b b b b b 0 0 b b 0 b b b b b a a a a a c c c c c d b b b a b a b b b 0 b b 0 0 c c c b 0 0 0 0 0 a 0 0 0 b a 0 a 0 0 a a a 0 c c c a a a a a a a c b b b d b b b 0 0 b b b a b b b b b b b 0 a c 0 b b a a b b b b b a b b b b b b b b 0 0 0 0 0 0 0 0 0 a 0 0 0 0 9 8 ~ { { { { ~ . ",
"  & { { ~ ~ ~ ~ ~ e f g h i i h i i i i i i j i i i i k l i j k k k k k k k k k k k k k k k k k k k h k h k k k i k k k k k k k k h k i h h k h k k k h h k k k k k k h k i i k h k k k k k k k k k h h k h k h h k k i i i k k k i i k k k k k k k k k k k k k k k k j h j h j h h j m j j k k k k h k k k k i i k k k k h j n k h k i i i i i i i i h i i i i h h i i j j j k h h h j h h j j j k k k k k k k k k k k k k k k l k i i h m k k h h h m o n k k h k k k k k k k k k k i i i i i h i h i i p g ~ 8 ~ { { { { < . ",
"  & { { ~ ~ ~ ~ q r s t t t t u t t t t t t t t t t t v w t v x x y x t x x x x x x x x x x x x t x x x u w x x x x x x x x x x x x x t t u x x x x x u u x x x x x x u x x x x x u u x x x x x x x x x x u x u u x x t t t x x x t t x x x x x x x x x u x x x u x x u z z u u u u A z z A x x x x u u x x x x x x x x x u x x x u x x x x t t t t t u B C t t t u t t u x D x u u u z u z x x x x u x x x x u x x x x x x x z z E x x u x v z u u x z z x x z x x x x x x x x x x u t t t t t u x u t t s F 8 ~ ~ { ~ { { { . ",
". & { { ~ ~ ~ ~ ~ q 8 8 8 8 8 G 8 8 8 H H 8 8 H H 8 8 8 H H I H H H H 8 H H H H H H H H H H H H H H H H G J K H H H H H H H H H H G H 8 8 H H H H H H G H H H H H H H H H H H H H H G H H H H H H H H H H G H G G 8 H G 8 H H H H 8 8 G H H H H H H H H G I G L H H M G M M G M M G M G N H H H H H G G H H H H H H H H N H H H H G 8 8 H H 8 8 8 8 H G 8 8 8 8 G 8 8 8 G H H H G G I M G O H H H H G H H H H H H H H H H H P M M H H H G H O M M G H H H H H N L H H H H H H H H G H H 8 8 8 8 G H 8 8 8 8 8 ~ ~ ~ { ~ { { { . ",
". * { { ~ ~ { ~ ~ ~ ~ ~ { : : { ~ ~ ~ ~ ^ ^ ] ^ ^ Q ] { ~ ^ ^ ^ ^ ^ ~ ~ ^ ^ ^ ^ ^ { ^ ^ ^ ^ ^ ^ ^ ^ ^ ^ ^ ^ ^ ^ ^ ^ ^ ^ ^ ^ ^ ^ ^ { ^ { { ^ { ^ ^ ^ ^ ^ { ^ ^ ^ ^ ^ ^ ^ ^ ^ ^ ^ ^ ^ { 2 2 ^ ^ ^ ^ ~ ~ ^ ^ { ^ { { ~ ^ ^ { ^ ^ ^ ^ ^ ~ ^ ^ { ^ ^ ^ ( / ^ { / { ^ ^ ^ / { / / / / / { 6 { ~ ^ ^ ^ ^ ^ { { { ^ ^ 3 / ^ ^ 5 / ^ ^ ^ ^ { ~ ^ ^ ^ ~ { ^ ^ ^ { ~ ~ ~ ^ { ~ { : { ^ ^ ^ { ^ ^ 2 { ^ ^ ^ { ^ { ^ ^ { ^ ^ ^ ^ ^ ^ ^ ^ ^ ^ ^ ^ ^ ^ { ^ ^ Q R { / ^ ^ ^ S T ^ ^ ^ ^ ^ ^ ^ ^ ^ ^ { ^ ^ ~ ~ ~ ~ ~ ~ ~ ~ ~ ~ ~ ~ { ~ { { { { . ",
". & { ~ ~ ~ { { ~ ~ ^ ~ ~ / / / { ~ ~ ~ : ~ ~ ~ ~ / / < ~ ^ ^ ^ ^ ^ ~ ~ ~ ^ ^ ^ ^ { ^ ^ ^ ^ ^ ^ ^ ^ ^ ^ { ~ ^ ^ ^ ^ ^ ^ ^ ^ ^ ^ ^ { ^ ~ { { 6 ^ ^ ~ ^ ^ { ^ ^ ^ ^ ^ ^ ^ ^ ^ ^ ^ ^ ^ ^ ^ ^ ^ ^ ^ ^ ^ ~ ~ ^ { { { { ^ ~ ^ ^ ^ ^ ^ ^ ^ ^ ^ ^ ^ ^ S ^ R / / { / { { ^ ^ ~ / / / / 4 { ^ ^ { 3 ^ ^ ^ ^ ^ ^ ^ { ^ ^ { ^ ^ ^ ^ [ ^ ^ ^ T { ^ [ ^ ^ ^ { ^ ^ ~ ~ ~ ~ ~ ^ { < { < { ^ ^ ^ { { ^ ^ { ^ ^ ^ ^ ^ ^ ^ ^ { ^ ^ ^ ^ ^ ^ ^ ^ ^ ^ ^ ^ ^ ^ { ^ ^ ^ ^ { ( 2 ^ ^ ^ ^ ^ ^ ^ ^ ^ ^ ^ ^ ^ ^ { ^ ~ ~ ~ ~ ~ ~ ~ ~ ~ ~ ~ ~ ~ { ~ { { { / . ",
". & { { ~ ~ { { ~ ~ ~ U h V W ] / / / / / { ~ ~ ~ < / } ~ ^ ^ ^ ^ ^ ~ ~ ~ ^ ^ ^ ^ ^ ^ ^ ^ ^ ^ ^ ^ ^ ^ ^ { ~ ^ ^ ^ ^ ^ ^ ^ ^ ^ ^ ^ { ^ ~ { { { ^ ^ ~ ~ ^ ^ ^ ^ ^ ^ ^ ^ ^ ^ ^ ^ ^ ^ ^ ^ ^ ^ ^ ^ ^ ^ ^ { ~ ^ { ^ { { ^ ^ ^ ^ ^ ^ ^ ^ ^ ~ ^ ^ / / ( { / / / / / / { ^ ^ ^ | / / / 4 ^ ^ ^ ^ 2 ^ ^ [ 1 ^ ^ ^ { ^ ^ { ^ 4 ^ ^ ^ ^ ^ ^ / / ~ ~ ^ ^ ~ { ^ / ~ : ~ ~ ^ { { / { ~ ~ ~ ^ ^ { { ^ ^ { ^ ^ ^ { ^ ^ ^ ^ { ^ ^ ^ ^ ^ { ^ ^ ^ ^ ^ ^ ^ ^ { ^ ^ ^ { { { ^ ^ ^ ^ ^ ^ ^ ^ ^ ^ ^ ^ ^ ^ ^ ^ ^ ~ ^ ~ ~ ~ ~ ~ U X h U ~ ~ { ~ ~ ~ { { . ",
"  * ~ { ~ ~ ~ { ~ ~ h h Y Z `  .] ~ ~ / / / ~ ~ ~ ~ ~ ~ ^ ^ ^ ^ ^ ^ ^ ~ ~ ^ ^ ^ ^ ^ ^ ^ ~ ^ ^ ^ ^ ^ ^ ^ { ^ ^ ^ ^ ^ ^ ^ ^ ^ ^ ^ ^ ^ ^ ~ { { { ^ ^ { { ^ ^ ^ ^ ^ ^ ^ ^ ^ ^ ^ ^ ^ ^ ^ ^ { ^ ^ ^ ^ ^ ^ { ^ ^ { ^ { ^ ^ ^ ^ ^ ^ ^ ^ ^ ^ ^ ^ / / / / / / / / / / ^ { ( ^ ^ ^ | 7 ~ ~ { ^ ^ ^ ^ ^ ^ ^ / 7 { ^ ^ ^ ^ { ^ ^ ^ ..{ ^ ^ ^ ~ { ~ ~ ~ ^ ~ ~ } / ~ } / { / / { / { { { ^ ^ ^ { { ^ { { ^ ^ ^ ^ ^ ^ ^ ^ { ^ ^ ^ { { { ^ ^ ^ ^ ^ ^ ^ ^ { ^ ^ ^ ^ ^ ^ ^ ^ ^ ^ ^ ^ ^ ^ ^ ^ ^ ^ ^ ^ ^ ^ ^ ^ ^ ~ ~ ~ ~ h +.@.~ p p ~ ~ ~ ~ ~ { { . ",
". * { { ~ ~ ~ ~ ~ ~ a Y #.U $. ./ ] ~ ~ : ~ ^ ^ ~ ~ ^ ^ ^ ^ ^ ^ ^ ^ ^ ^ ^ ^ ^ ^ ^ ^ ^ ^ ^ ^ ^ ^ ^ ^ ^ ^ { ^ ^ ^ ^ ^ ^ ^ ^ ^ ^ ^ ^ ^ ^ ^ { { ^ { ^ { { { ^ { ^ ^ ^ ^ ^ ^ ^ ^ ^ ^ ^ ^ ^ { { ( 5 ^ ^ ^ ^ ^ ^ { ^ { ^ ^ ^ ^ ^ ^ ^ ^ ^ ^ ^ ^ ^ { / / / / / / / / ^ ^ / { ^ ^ ^ ^ ~ ~ ^ ^ { ^ ^ ^ ^ ^ ( 6 ^ ^ ^ ^ ^ ^ ^ ^ ^ ^ { / ~ ^ ^ ^ ~ ~ ^ ^ ~ ~ ] / / / / / / / { / { { { ^ ^ ^ { { ^ ^ { ^ ^ ^ ^ ^ ^ ^ ^ { ^ ^ ^ { { { ^ ^ ^ ^ ^ ^ ^ ^ { ^ ^ ^ ^ ^ ^ ^ ^ ^ ^ { ^ ^ ^ ^ ^ ^ ^ ^ ^ ^ ^ ^ ^ ^ / ~ ~ ~ %.Z X &.~ p ~ ~ ~ { { { { . ",
". & ~ { ~ ~ ~ ~ ~ ~ *.=.-.;.* >.{ ] } ~ ~ ^ ^ ^ { ^ ^ ^ ^ ^ ^ ^ ^ ^ ^ ^ ^ ^ ^ ^ ^ ^ ^ ^ ^ ^ ^ ^ ^ ^ ^ ~ { ^ ^ ^ ^ ^ ^ ^ ^ ^ ^ ^ ^ ^ ^ ~ ~ ^ { { ^ ^ ^ { ^ { ^ ^ ^ ^ ^ ^ ^ ^ ^ ^ ^ ^ ^ { ^ ^ ^ | ^ ^ ^ ^ ^ { ^ ^ ^ ^ ^ { ^ ^ ^ ^ ^ ^ ^ ^ ^ { / / 3 ^ / / / / ^ ^ | { { { { { < ^ ^ ^ ^ ^ ~ ~ ^ ^ ^ ^ { ^ { ^ ^ ^ ^ ^ ^ ^ ^ ~ ~ ^ ^ ^ ^ ~ { ^ ~ ^ Q / / / / / / { { / { { ^ ^ ^ / 2 { ^ ^ { ^ ^ ^ ^ ^ ^ ^ ^ ^ ^ ^ ^ { ^ ^ ^ ^ ^ ^ ^ ^ ^ ^ { ^ ^ ^ ^ ^ ^ ^ ^ ^ ^ ^ ^ ^ ^ ^ ^ ^ ^ ^ { ^ ^ ^ ^ ^ < ~ ~ ~ ,.8 '.).~ !.~ ~ ~ { { ~ {   ",
". * ~ { ~ ~ { ~ ~ ~ U ~.{.$.].^.~ ~ ~ ~ : ~ ^ ^ { ^ ^ ^ ^ ^ ^ ^ ~ ^ ^ ^ ^ ^ ^ ^ ^ { ^ ^ ^ ^ ^ ^ ^ ^ ^ ^ ^ ^ ^ ^ ^ ^ ^ ^ ^ ^ ^ ^ { ^ ^ ~ ~ ^ { ^ ^ ^ ^ { ^ ^ { ^ ^ ^ ^ ^ ^ { ^ ^ ^ ^ ^ { { ^ ^ / ^ ^ ^ ^ ^ { ^ ^ ^ ^ ^ { ^ ^ ^ ^ ^ ^ ^ ^ ^ { { / ^ ^ ^ / / [ ^ ^ ^ ^ { ^ { 2 { ^ ^ ^ ^ ^ { ~ ^ ^ ^ ^ { ^ { ^ { ^ ^ ^ ^ ^ 7 4 ^ { ^ ^ ^ ^ { ^ S / / / / / { / / { { / { ^ ^ ^ ^ ^ ^ { ^ ^ ^ ^ ^ ^ ^ ^ { ^ ^ ^ ^ ^ ^ ^ ^ ^ ^ ^ ^ ^ ^ ^ ^ ^ { ^ ^ ^ 6 / 5 ^ ^ ^ ^ ^ ^ ^ ^ ^ ^ ^ ^ ^ { ^ ^ ^ ^ ^ ~ ~ { ~ /.~.(.^ U _.~ ~ { { { ~ ~ . ",
"# * { { ~ ~ { ~ ~ { ~ !.:.p >.{ ~ ~ ~ ~ ~ ~ ~ ~ { ~ ^ ^ ^ ^ ^ ~ ~ ^ ^ ^ ^ ^ ^ ^ ^ { ^ ^ ^ ^ ^ ^ ^ ^ ^ ^ ^ ^ ^ ^ ^ ^ ^ ^ ^ ^ ^ ^ ^ ^ ^ ~ ~ ^ ^ { ^ ^ ^ ^ ^ ^ { | ^ ^ ^ { ^ { ^ ^ ^ ^ ^ ^ T ^ ^ / Q Q ^ ^ ^ ^ ^ { ^ ^ ^ ^ ^ ^ ^ ^ ^ ^ ^ ^ ^ { / { ^ ^ ^ ^ ^ ^ [ ^ ^ ^ { 5 ^ ^ { ^ ^ ^ ^ ^ { ^ ^ ^ ^ ^ ^ ^ { ^ { ^ ^ ^ ^ ^ ^ ^ ^ ^ ^ ^ ^ ^ { 4 / / / / / / / / ^ ^ { / { ^ ^ { ^ ^ ^ { ^ ^ ^ ^ ^ ^ ^ ^ ^ ^ { ^ ^ ^ ^ ^ { ^ ^ ^ ^ ^ ^ ^ ^ ^ { ^ ^ ^ { { { ^ ^ ^ ^ ^ ^ ^ ^ ^ ^ ^ ^ ^ ^ ^ ^ ^ ^ ^ ~ ^ { ~ { !.].<.!.~ ~ ~ { ~ { { ~ . ",
". & / { ~ ~ { ~ { { ~ ~ ~ { { { : ~ ~ ~ ~ ~ ~ { { ~ ~ ^ ^ ~ ^ ~ ^ ^ ^ ^ ^ ^ ^ ^ ^ ^ ^ ^ ^ ^ ^ ^ ^ ^ ^ ^ ^ ^ ^ ^ ^ ^ ^ ^ ^ ^ ^ ^ ^ ^ ^ ^ ~ ^ ^ { ^ ^ ^ { ^ ^ ^ / ^ ^ ^ ^ ^ { ^ ^ ^ ^ ^ ^ [ / ^ ^ ^ 1 ^ ^ ^ ^ ^ { ^ ^ ^ ^ ^ ^ ^ ^ Q / ( ^ ^ { [ { ^ ^ ^ ^ ^ ^ ^ ^ ^ ^ { { ^ ~ { ^ { { { ^ ~ ( ^ ^ ^ ^ ^ ^ ^ ^ { ^ ^ ^ ^ ^ { ^ ^ ^ ^ ^ ^ S / / / / 7 / ^ 7 { ^ ^ ^ { / { ^ ^ ^ ^ / / { ^ ^ ^ ^ ^ ^ ^ ^ ^ ^ { ^ ^ ^ ^ ^ { ^ ^ ^ ^ ^ ^ ^ ^ ^ ^ ^ ^ ^ { ^ { ^ ^ ^ ^ ^ ^ ^ ^ ^ ^ ^ ^ ^ ^ ^ ^ ^ ^ ^ ~ ^ ~ ^ { ~ ~ ~ ~ ~ ~ ^ { ~ { { {   ",
". & { ~ ~ ~ { ~ { { ~ ~ ~ ~ < < { ~ ^ { ~ ~ ~ { { ~ ^ ^ ^ ^ ~ ~ ^ ^ ^ ^ ^ ^ ^ ^ ^ ^ ^ ^ ^ ^ ^ ^ ^ ^ ^ ^ ^ ^ ^ ^ ^ ^ ^ ^ ^ ^ ^ ^ ^ ^ ^ ^ ( ^ ^ { ^ ^ ^ ^ ^ ^ ^ 4 | R ^ ^ ^ ^ S ^ ^ ^ ^ ^ ^ R ^ ^ ^ ^ 1 ^ ^ ^ ^ ^ ^ ^ ^ ^ ^ ^ ^ ^ 5 / ^ ^ ^ { ^ { ^ ^ ^ 1 ^ ^ ^ ^ ^ ^ { { { { ^ ^ { { { ^ ~ ^ [ ^ ^ ^ { ^ ^ ^ ^ ^ ^ ^ ^ ^ { ^ ^ ^ ^ ^ ^ [ { / / { { ^ ^ / { ^ ^ ^ { / { / ^ ^ ^ { S { ^ ^ ^ ^ ^ { ^ ^ ^ ^ ^ ^ ^ ^ ^ { { ^ ^ ^ ^ ^ ^ ^ ^ ^ { ^ ^ ^ { ^ ^ ^ ^ { ^ ^ ^ ^ ^ ^ ^ ^ ^ ^ ^ ^ ^ ^ ^ ~ ~ ~ ~ ~ ~ ~ ~ ~ ~ ~ ~ { { { { { {   ",
". ) ] ~ ~ ~ ~ ~ ~ ~ ~ ~ ~ ~ ~ ~ { ~ ~ ~ ~ ~ ~ { ~ ^ ^ ^ ^ ^ ^ ^ ^ ^ ^ ^ ^ ^ ^ ^ ^ ^ ^ ^ ^ ^ ^ ^ ^ ^ ^ ^ ^ ^ ^ ^ ^ ^ ^ ^ ^ ^ ^ ^ ^ ^ S 1 ^ ^ ^ { ^ ^ ^ ^ ^ ^ ^ ^ Q / ^ ^ ^ { 7 ^ ^ { ^ ^ ^ { ^ ^ ^ ^ / ^ ^ { ^ { ^ ^ ^ ^ ^ ^ ^ { ^ ^ ^ ^ ^ { ^ ^ ^ / ^ [ ^ ^ ^ ^ ~ ^ { { { { ^ ^ { ~ { ^ ^ / / ^ ^ ^ { ^ ^ ^ ^ ^ { ^ ^ ^ { ^ ^ ^ ^ ^ ^ ^ { 3 ^ / { ^ ^ / { ^ ^ { { | { ^ ^ ^ ^ { ^ { ^ { ^ ^ ^ ^ ^ ^ ^ ^ ^ ^ ^ ^ ^ { ^ ^ ^ ^ ^ { ^ ^ ^ ^ { ^ ^ ^ { ^ ^ ^ ^ ^ ^ ^ ^ ^ ^ ^ ^ ^ ^ { { ^ ^ ^ ^ ~ ~ ~ ~ ~ ~ ~ ~ ~ ~ ~ { { ~ ~ ~ { {   ",
". = / / { ~ ~ ~ ~ ~ ~ ~ ~ ~ { ~ { ~ ~ ~ ~ ~ ~ ^ ^ ^ ^ ^ ^ ^ ^ ^ ^ ^ ^ ^ ^ ^ ^ ^ ^ ^ ^ ^ ^ ^ ^ ^ S ^ ^ ^ { ^ ~ ~ ^ ^ ^ / 5 1 ^ ^ ^ ^ ^ ^ ^ 1 ^ ^ ^ ^ ^ ^ { ^ ^ ^ { / ^ ^ ^ ^ Q ^ ^ { ^ { ^ ^ ^ ^ 1 / { / ^ { ^ { ^ ^ ^ ^ ^ ^ ^ ^ ^ ^ ^ ^ ^ ^ ^ ^ ^ ^ S 3 ^ ^ 2 ^ ~ ^ { { { { { ^ { ^ { ^ ^ / / ^ ^ { { ^ ^ ^ ^ ^ ^ ^ ^ { { ^ ^ ^ ^ ^ { ^ { ^ ^ 2 | ^ ^ ^ ^ ^ ^ { { / { ^ ^ ^ ^ { ^ { ^ { ^ ^ ^ ^ ^ ^ ^ ^ ^ ^ ^ ^ ^ ^ ^ ^ ^ ^ ^ ^ ^ ^ ^ ^ { ^ ^ { ^ ^ { ^ ^ ^ ^ { ^ { ^ ^ ^ ^ ^ { { ^ ^ ^ ^ ~ ~ ~ ~ ~ ~ ~ ~ ~ ~ ~ { { ~ ^ ~ ~ {   ",
". = { / ~ ~ ~ ~ ~ ~ ~ ~ ~ ~ { ~ ~ ~ ~ { ^ ^ ^ ^ ^ ^ ^ ^ ^ ^ ^ ^ ^ ^ ^ ^ ^ ^ ^ ^ ^ ^ ^ ^ ^ ^ ^ ^ ^ ^ ^ ^ ^ ^ ~ ~ ^ ^ ^ ^ ^ ^ 1 ^ ^ ^ ^ ^ ^ / [ ^ ^ ^ ^ { { ^ ^ ^ / ^ ^ ^ ^ ^ / ^ ^ { ^ ^ { ^ ^ ^ 6 / / / ^ { ^ ^ ^ ^ ^ ^ ^ ^ ^ ^ ^ ^ ^ ^ ^ ^ ^ ^ ^ ^ Q / ^ ^ ^ ^ ^ ^ { { { { { ^ { ^ { ^ ^ ^ 5 ^ ^ { { ^ ^ ^ { ^ ^ ^ ^ { { ^ ^ ^ ^ ^ { ^ { ^ 3 [ ^ ^ ^ ^ ^ ^ ^ { 2 { { ^ ^ ^ / { ^ { ( { ^ ^ ^ { ^ ^ { ^ ^ { ^ ^ ^ ^ ^ ^ ^ { ^ ^ ^ ^ ^ ^ { ^ ^ ^ ^ ^ ^ ^ ^ ^ ^ { ^ ^ ^ ^ ^ ^ ^ ^ { { ^ ^ ^ ^ ^ ~ { ~ ~ ~ ~ ~ ~ ~ { ~ { { { { {   ",
". * { ~ ~ ~ { ~ ~ ~ ~ ~ ~ ~ ~ ~ ~ ~ ~ ~ ~ ^ ^ { ^ ^ ~ ^ ^ ^ ^ ^ ^ ^ ^ ^ ^ ^ ^ ^ ^ ^ ^ ^ ^ ^ ^ 1 ^ ^ ^ ^ ^ ^ ^ ^ ^ ^ ^ ^ ^ ^ ^ ^ ^ ^ ^ ^ ^ { / 7 ^ ^ ^ ^ ^ ^ ^ 1 / ^ ^ ^ ^ / / S ^ { ^ ^ ^ ^ ^ ^ ^ ^ 3 ^ ^ { ^ ^ ^ ^ ^ ^ S ^ ^ 1 ^ ^ ^ ^ ^ ^ ^ ^ ^ | / ^ { ^ ^ { ^ ^ { { { { { ^ { ^ { ^ ^ ^ ^ ^ ^ { { ^ ^ ^ { ^ ^ ^ ^ ^ { ^ ^ ^ ^ ^ ^ ^ ^ ^ ^ { ^ ^ ^ ^ ^ ^ ^ { ^ ^ ^ ^ ^ ( / { ^ { / { { ^ ^ ^ ^ ^ ^ ^ ^ { ^ ^ { ^ ^ ^ ^ { ^ ^ ^ ^ ^ ^ { ^ ^ ^ ^ ^ ^ ^ ^ ^ { { ^ ^ ^ ^ ^ ^ ^ ^ { { ^ ^ { ^ ^ ^ { ~ ^ ~ ~ ~ ~ ~ { ~ { { { { {   ",
". & { ~ ~ ~ { ~ / / { ~ { ~ ~ ~ ~ ~ ~ ~ ~ ^ ~ { ^ ^ ^ ^ ^ ^ ^ ^ ^ ^ ^ ^ ^ ^ ^ ^ ^ ^ ^ ^ ^ ^ ^ 2 ^ { ^ ^ ^ ^ ^ ^ ^ ^ ^ ^ ^ ^ ^ ^ ^ ^ ^ ^ ^ ^ 1 ^ ^ ^ ^ ^ { ^ ^ ^ [ 1 ^ ^ 5 / / ^ ^ { ^ { ^ ^ ^ ^ ^ ^ / ^ ^ ^ ^ { ^ ^ ^ ^ / ^ ^ ^ ^ ^ ^ ^ ^ ^ ^ ^ ^ ^ ^ ^ { ^ { { ^ ^ ^ { { { ^ ^ { ^ { ^ ^ ^ ^ ^ ^ { { ^ ^ ^ { ^ ^ ^ ^ { ^ ^ ^ ^ / 6 ^ ^ ^ ^ ^ { ^ ^ { ^ ^ ^ ^ { ^ { ^ ^ ^ Q / { { { / ^ ^ ^ ^ ^ ^ ^ ^ ^ ^ ^ ^ ^ { { ^ ^ ^ { ^ ^ ^ ^ ^ ^ ^ ^ ^ ^ ^ ^ 5 7 { ^ { { ^ ^ ^ ^ ^ ^ ^ ^ { { ^ ^ { ^ ^ ^ { ^ ^ ~ ~ ~ ~ ~ { ~ { { { ~ {   ",
". & { ~ ~ ~ { { : ~ ~ ~ { ~ ~ ~ ~ ~ ~ ~ ~ ~ ~ { ^ ^ ^ ^ ^ ^ ^ ^ ^ ^ ^ ^ ^ ^ ^ ^ ^ ^ ^ ^ ^ ( 2 ^ ^ { ^ ^ ^ ^ ^ ^ ^ ^ ^ ^ ^ ^ ^ ^ ^ ^ ^ { ^ ^ ^ ^ S ^ ^ ^ { ^ { { 1 R ^ ^ ^ / 4 ^ ^ ^ ^ { ^ ^ ^ ^ ^ S / ^ ^ ^ ^ { ^ ^ ^ ^ / ^ ^ ^ ^ ^ ^ / S ^ ^ ^ ^ ^ ^ ^ ^ ^ ^ { ^ ^ { { { { ^ ^ { ^ { ^ ^ ^ ^ ^ ^ [ { ^ ^ ^ ^ ^ ^ ^ ^ { ^ ^ ^ ^ ^ ^ ^ ^ ^ ^ ^ ^ ^ ^ ^ ^ ^ ^ ^ { { { ^ ^ ^ Q / { { { ^ ^ ^ ^ ^ ^ ^ ^ ^ ^ ^ ^ ^ ^ { { ^ ^ ^ { ^ ^ ^ ^ ^ ^ ^ ^ ^ ^ { ^ ^ ^ { ^ { { ^ ^ ^ ^ ^ ^ ^ ^ ^ ^ ^ ^ { ^ ^ ^ { ^ ^ ~ ~ ~ ~ ~ { ~ { { { { {   ",
". & ~ ~ ~ ~ { ~ ~ ~ ~ ~ { ~ ~ ~ ~ ~ ~ ~ ~ ~ ~ { ^ ^ ^ ^ ^ ^ ^ ^ ^ ^ ^ ^ ^ ^ ^ ^ ^ ^ ^ ^ ^ ^ ^ ^ ^ { ^ ^ ^ ( ^ ^ ^ { ^ ^ ^ ^ ^ { ^ ^ ^ { { ^ ^ ^ ^ ( ^ { { ^ ^ ^ ^ ^ ^ ^ ^ ^ ^ ^ ^ { ^ { ^ { ^ ^ ^ ^ { ^ ^ ^ ^ { ^ ^ ^ { ^ ^ ^ ^ ^ ^ ^ ( / ^ ^ ^ ^ ^ ^ ^ { ^ ^ ^ ^ ^ { { { { ^ ^ ^ ^ { ^ ^ ^ ^ ^ ^ { { ^ ^ ^ ^ ^ ^ ^ ^ ^ ^ ^ ^ ^ ^ ^ ^ ^ { ^ ^ ^ ^ ^ ^ ^ ^ ^ ^ { ^ { ^ ^ ^ ^ ^ { { { ^ { { ^ ^ { ^ ^ { ^ { ^ ^ ^ { ^ ^ ^ ^ { ^ ^ ^ ^ ^ ^ ^ ^ ^ ^ { ^ ^ ^ 7 1 { { ^ ^ ^ ^ ^ ^ ^ ^ ^ ^ ^ ^ { ^ ~ ~ { ~ ~ ~ ~ ~ ~ ~ { ~ { { { { ~   ",
". & ~ ~ ~ ~ { ~ ~ ~ ~ ~ ~ ~ { ~ ~ ~ ~ ~ ^ ^ ^ { ^ ^ ^ ^ ^ ^ ^ ^ ^ ^ ^ ^ ^ ^ ^ ^ ^ ^ ^ ^ ^ ^ ^ ^ ^ 1 1 ^ 2 / ^ ^ ^ ^ ^ ^ ^ ^ ^ { { ^ ^ { { ^ ^ ^ { ^ ^ ^ { ^ ^ ^ ^ ^ ^ ^ { ^ ^ ^ ^ ^ ^ { ^ { ^ ^ ^ ^ ^ ^ ^ ^ ^ { ^ ^ ^ ^ ^ ^ ^ ^ ^ ^ ^ ^ ^ ^ ^ ^ ^ ^ ^ ^ ^ ^ ^ ^ ^ ^ ^ ^ { { ^ ^ ^ ^ ^ ^ ^ ^ ^ ^ ^ { { ^ ^ ^ { ^ ^ ^ ^ ^ ^ ^ ^ ^ ^ ^ ^ ^ { ^ { ^ ^ ^ ^ 1 ^ ^ ^ { ^ { { { ^ ^ ^ { { { ^ { { ^ ^ { ^ ^ { ^ ^ ^ ^ ^ ^ ^ ^ ^ ^ { ^ ^ ^ ^ ^ ^ ^ ^ ^ ^ { ^ ^ ^ / / ^ ^ ^ ^ ^ ^ ^ ^ { ^ { ^ ^ ^ { ^ ^ ~ ~ ~ ~ { ~ ~ ~ ~ { ~ ~ { { { ~   ",
". & ~ ~ ~ ~ { ~ ~ ~ ~ ~ ~ ~ ~ ~ ~ < ~ ~ ~ { ^ { ^ ^ ^ ^ ^ ^ ^ ^ ^ ^ ^ ^ ^ ^ ^ ^ ^ ^ ^ ^ ^ ^ ^ 2 ^ 3 R [ ..^ 2 { ^ ^ ^ ^ ^ ^ ^ ^ ^ ^ ^ { { { ^ ^ { ^ { 1 { ^ ^ ^ ^ ^ { ^ { ^ ^ ^ { ^ { { ^ ^ ^ ^ ^ ^ ^ ^ ^ ^ ^ { ^ ^ ^ ^ ^ ^ ^ ^ ^ ^ ^ ^ ^ ^ ^ { ^ ^ ^ ^ ^ ^ ^ ^ ^ ^ ^ ^ { { ^ ^ 5 ^ ^ ^ ^ ^ ^ ^ ^ ^ ^ ^ ^ ^ ^ ^ ^ ^ ^ ^ ^ ^ ^ ^ ^ ^ ^ ^ ^ ^ { ^ ^ 1 ..2 / ^ ^ { { ^ ^ { ^ ^ ^ { ^ ^ ^ { { ^ { ^ ^ ^ { ^ { ^ ^ ^ ^ { ^ ^ ^ { ^ ^ ^ ^ ^ ^ ^ ^ ^ ^ ^ ^ ^ ^ | [ ^ ^ ^ ^ ^ ^ { ^ { ^ { { ^ ^ { ^ ^ ^ ~ ~ ~ { ~ ~ ~ { { ~ { { ~ { ~   ",
". * ~ ~ ~ ~ ~ ~ ~ ~ ~ ~ ~ ~ ~ ~ ^ ~ ~ ~ ^ ^ ^ ^ ^ ^ ^ ^ ^ ^ ^ ^ ^ ^ ^ ^ ^ ^ ^ ^ ^ ^ ^ ^ ^ 7 2 ^ 5 / [ ^ ^ ^ ^ { ^ ^ ^ ^ ^ ^ ^ ^ ^ ^ ^ { { { ^ ^ { ^ { { { ^ { ^ ^ ^ ^ ^ { ^ ^ ^ { ^ ^ { ^ ^ ^ ^ ^ ^ ^ ^ { ^ ^ { ^ ^ ^ ^ ^ ^ ^ ^ ^ ^ { ^ ^ { ^ { ^ ^ ^ ^ ^ ^ ^ ^ ^ ^ ^ ^ { { ^ ^ / / { ^ ^ ^ ^ T 2 ^ 6 ^ ^ ^ ^ ^ ^ ^ ^ ^ ^ ^ ^ ^ ^ ^ ^ ^ ^ ^ { ^ { / ../ ^ ^ ^ { ^ ^ ^ ^ ^ ^ ^ { ^ ^ ^ { { 1 7 ^ ^ ^ { ^ { ^ ^ ^ ^ { ^ ^ ^ ^ ^ ^ ^ ^ ^ ^ ^ ^ ^ ^ ^ ^ ^ ^ { ^ ^ ^ ^ ^ ^ ^ { ^ { ^ { ^ ^ ^ ^ ^ ^ ^ ~ ~ ~ { ~ ~ ~ { { ~ ~ { ~ { {   ",
". * ~ ~ ~ ~ ~ ~ ~ ~ ~ ~ ~ / ~ ~ ~ ~ ^ ^ ^ ^ ^ ^ ^ ^ ^ ^ ^ ^ ^ ^ ^ ^ ^ ^ ^ ^ ^ ^ ^ ^ ^ ^ ( ^ ^ ^ ^ [ S 1 ( ^ ^ { ^ ^ ^ ^ ^ ^ ^ ^ ^ ^ ^ ^ ^ ^ ^ ^ ^ ^ ^ { { ^ ^ ^ ^ ^ ^ ^ { ^ ^ ^ { ^ ^ { ^ ^ ^ ^ ^ ^ ^ ^ { ^ ^ { ^ ^ ^ ^ ^ 2 ^ ^ ^ ^ { ^ { ^ ^ ^ ^ ^ ^ ^ ^ ^ ^ ^ ^ ^ ^ ^ { { ^ ^ { { / / | 7 ^ ^ ^ ^ ^ ^ ^ ^ ^ ^ ^ ^ ^ ^ ^ ^ ^ ^ ^ ^ ^ ^ ^ ^ { ^ ^ / / | ^ ^ ^ { Q 3 ^ ^ ^ ^ ^ { ^ ^ ^ { ^ ^ ^ ^ ^ ^ ^ ^ { ^ ^ ^ { { 2 / [ ^ ^ ^ ^ ^ ^ ^ ^ ^ ^ ^ ^ ^ ^ ^ { ^ { ^ ^ ^ ^ ^ { ^ { ^ { ^ ^ ^ ^ ^ ^ ~ ~ ^ ~ ~ ~ ~ ~ { { ~ { ~ { { {   ",
". * ~ ~ ~ ~ ~ ~ ~ ~ ~ ~ / { ~ { ~ ~ ^ ^ ^ ^ ^ ^ ^ ^ ^ ^ ^ ^ ^ ^ ^ ^ ^ ^ ^ ^ ^ ^ ^ ^ ^ ^ ^ ^ ^ 2 1 ^ ^ ^ / ^ ^ { ^ ^ ^ ^ ^ ^ ^ ^ ^ ^ ^ ^ ^ ^ ^ ^ ^ ^ ^ ^ { { ^ ^ ^ ^ ^ ^ ^ ^ ^ ^ ^ ^ { { ^ ^ ^ ^ ^ ^ ^ ^ { ^ ^ { ^ ^ ^ ^ ^ [ ^ ^ ^ ^ ^ ^ ^ ^ ^ ^ ^ ^ ^ ^ ^ ^ ^ ^ ^ 1 [ | { { ^ ^ ^ [ / ^ ^ ^ ^ ^ ^ ^ ^ ^ 7 { { ^ ^ ^ ^ ^ ^ ^ ^ ^ ^ ^ ^ ^ ^ ^ { ^ ^ / / 1 { ^ { ^ ^ ^ ^ ^ ^ ^ ^ { ^ ^ ^ { / ^ ^ ^ ^ ^ ^ ^ { ^ ^ ^ ^ { [ ..{ { ^ ^ ^ ^ ^ ^ ^ ^ ^ ^ ^ ^ ^ ^ { ^ { ^ ^ ^ ^ ^ ^ ^ { ^ { { ^ ^ { ^ ~ ^ ~ ^ ^ ^ ^ ^ ~ ~ { ~ { ~ { ~ {   ",
". * ~ ~ ~ ~ ~ ~ { ~ ~ ~ ] { { { ^ ~ ^ ^ ^ ^ ^ ^ ^ ^ ^ ^ ^ ^ ^ ^ ^ ^ ^ ^ ^ ^ ^ ^ ^ ^ ^ ^ ^ 1 6 1 ^ ^ ^ ^ ..^ { { ^ ^ ^ ^ ^ ^ ^ { ^ ^ ^ { ^ ^ ^ ^ ^ ^ { ^ { ^ ^ ^ ^ ^ { ^ { ^ ^ ^ { ^ { { ^ ^ ^ ^ ^ ^ ^ ^ ^ ^ ^ ^ ^ ^ { ^ ^ ^ ^ ^ ^ ^ ^ ^ ^ ^ ^ ^ ^ ^ ^ ^ ^ ^ { ^ ^ / 2 2 { { ^ ^ ^ / { ^ ^ 4 ^ ^ ^ ^ ^ ^ ..{ { ^ ^ ^ ^ ^ ^ ^ ^ ^ ^ ^ ^ ^ { ^ ^ ^ ^ ^ ^ 1 S ^ ^ 5 ^ { { ^ { ^ ^ { ^ / / { { ^ ^ ^ ^ ^ ^ / { 2 ^ ^ ^ { ^ ^ { { ^ ^ ^ ^ ^ ^ ^ ^ ^ ^ ^ ^ ^ ^ { ^ ^ ^ ^ ^ ^ ^ ^ ^ { ^ { ^ ^ ^ { ^ ~ ^ ^ ^ ~ ^ ^ ^ ~ ~ { ~ { ~ ~ ~ {   ",
". & ~ ~ ~ ~ ~ ~ { ~ ~ ~ / { ~ { ^ ^ ^ ^ ^ ^ ^ { ^ ^ ^ ^ ^ ^ ^ ^ ^ ^ ^ ^ ^ ^ ^ ^ ^ ^ ^ ^ ^ ^ ^ ^ ^ ^ Q / { ^ ^ { ^ ^ ^ ^ ^ ^ ^ { ^ ^ ^ { { ^ ^ ^ ^ { { { { { { ^ ^ { { ^ { ^ ^ ^ { { ^ { ^ ^ ^ ^ ^ ^ ^ ^ ^ ^ ^ ^ ^ ^ { ^ ^ ^ ^ ^ ^ ^ ^ ^ { ^ ^ ^ ^ ^ ^ ^ ^ ^ ^ ^ ^ ^ { ^ T { ^ ^ { { ^ 1 { / 2 ^ ^ { ^ ^ ^ ^ ^ ^ ^ ^ ^ ^ ^ { ^ ^ ^ ^ ^ / 6 ^ ^ ^ ^ ^ ^ / { ^ [ { ^ { { 1 { ^ ^ { ^ / ^ { { ^ ^ ^ { ^ ^ / / / 5 ^ 3 | ^ ^ { { ^ ^ ^ ^ ^ ^ ^ ^ ^ ^ ^ ^ ^ ^ { ^ ^ ^ ^ { ^ { ^ ^ { ^ { { ^ ^ { ~ ~ ^ ^ ~ ~ ~ { ^ ~ ~ ~ ~ { ~ ~ { {   ",
". & { ~ ~ ~ ~ ~ { ~ ~ ~ / { : ^ ^ ^ / ^ ^ ^ ^ { ^ ^ ^ ^ ^ ^ ^ ^ ^ ^ ^ ^ ^ ^ ^ ^ ^ ^ ^ ^ ^ ^ 2 ^ S 6 / / ^ ^ ^ { ^ ^ ^ ^ ^ ^ ^ { ^ ^ ^ { { ^ ^ 6 { [.{ ^ ^ ^ ^ ^ ^ ^ { ^ ^ ^ ^ ^ ^ { ^ { ^ ^ ^ ^ ^ ^ ^ ^ ^ ^ ^ { ^ ^ { ^ ^ ^ ^ ^ ^ ^ ^ ^ ^ ^ ^ ^ ^ ^ ^ ^ { ^ ^ ^ ^ ^ ( ^ 2 ^ ^ ^ { { { / { ( 7 ^ ^ { ^ ^ ^ { ^ ^ ^ ^ ^ ^ ^ { ^ ^ ^ { ^ / / 4 { ^ ^ 1 / / { 2 ^ ^ ^ { 3 ^ { ^ ^ ^ ^ Q ^ { { / { 2 { ^ ^ / | ^ ^ ^ / / / 2 ^ ^ ^ ^ ^ ^ ^ ^ ^ ^ ^ ^ ^ ^ ^ ^ { ^ { ^ ^ ^ ^ { ^ ^ { ^ ^ ^ ^ ^ ^ ^ ^ ^ ~ ~ ~ ~ ~ ~ ~ ^ ~ ~ { { ~ { ~   ",
". & / ~ ~ { ~ { ~ ~ : : / { ~ / ^ ^ ( S ^ ^ ^ { ^ ^ ^ ^ ^ ^ ^ ^ ^ ^ ^ ^ ^ ^ ^ ^ ^ ^ ^ ^ ^ 1 ^ ^ { / 4 3 ^ ^ { { ^ ^ ^ ^ ^ ^ ^ ^ ^ ^ ^ { { ^ ^ 1 ^ ^ { ^ ^ ^ ^ ^ ^ ^ { ^ ^ ^ ^ ^ ^ ^ ^ ^ ^ ^ ^ ^ ^ ^ ^ ^ ^ ^ ^ { ^ ^ ^ ^ ^ ^ ^ ^ ^ ^ ^ ^ ^ ^ ^ ^ ^ ^ ^ / { { ^ ^ ^ ^ T 6 R { ^ ^ { { [ ^ { ^ / / / { ^ ^ ^ ^ ^ ^ ^ ^ ^ ^ ^ { { ^ ^ { ( / / ^ { ^ ^ / / / / ^ ^ ^ { { ^ ^ ^ ^ ^ { ^ ^ ^ { / / / / ^ ^ ^ ^ { ^ ^ ( 7 4 [ ^ ^ ^ ^ ^ ^ ^ ^ ^ ^ ^ ^ ^ ^ ^ ^ ^ { ^ { ^ ^ ^ ^ { ^ { ^ ^ ^ ^ ^ ^ ^ ^ ^ ^ ^ ~ { ~ ~ ~ ~ ^ ~ ~ ~ { { { {   ",
". * ~ ] ~ { ~ ~ { : ] / / { { ~ ^ ^ / / 1 ^ ^ { ^ ^ ^ ^ ^ ^ ^ ^ ^ ^ ^ ^ ^ ^ ^ ^ ^ ^ / / ^ 1 ^ ^ / Q | 1 ^ ^ { { ^ ^ ^ ^ ^ ^ ^ ^ ^ ^ ^ { { ^ ^ 1 / ^ ^ ^ ^ ^ ^ ^ ^ ^ { ^ ^ ^ ^ ^ ^ ^ ^ ^ ^ ^ ^ ^ ^ ^ ^ ^ ^ | ^ { ^ ^ ^ ^ ^ ^ ^ ^ ^ ^ ^ ^ ^ ^ ^ { ^ ^ ^ 2 ^ ^ ^ ^ ^ ^ 5 2 1 { ^ ^ / / 5 ^ ^ ^ / 2 ^ { ^ ^ ^ ^ ^ ^ ^ ^ ^ ^ ^ { ^ ^ ^ { [ ^ ( | { ^ ^ ^ ^ ^ / / ^ { 7 ^ ^ ^ ^ ^ ^ { ^ ^ ^ ^ ( / { / ^ ^ ^ ^ { ^ ^ ^ ^ ^ ^ ^ ^ ^ ^ ^ ^ ^ ^ ^ ^ ^ ^ ^ ^ ^ ^ ^ { ^ { ^ ^ ^ ^ { ^ { ^ ^ ^ ^ ^ ^ { ^ ^ ^ ^ ^ { ^ { ~ ~ ~ ~ ~ { { { { ~ . ",
". & ~ ~ ~ { ~ ~ { < < / < { { 2 / S / / ^ ^ ^ { ^ ^ ^ ^ ^ ^ ^ ^ ^ ^ ^ ^ ^ ^ ^ ^ ^ ^ / / ^ ( ^ T / R / ^ ^ ^ { ^ ^ ^ { ^ ^ ^ 2 1 ^ ^ { { { 5 2 ^ / { ^ ^ ^ ^ { ^ ^ ^ { | { ( ^ ^ ^ ^ ^ { ^ ^ ^ ^ ^ ^ / 2 Q 3 ^ { ^ ^ ^ ^ ^ { ^ ^ ^ ^ ^ ^ ^ ^ ^ ^ ^ ^ ^ { ^ ^ { ^ ^ ^ 7 Q 5 { ^ T [./ ^ ^ ^ ^ ^ ^ { { ^ ^ ^ ^ ^ ^ ^ ^ ^ ^ ..{ ^ { ^ { / / 4 ^ { ^ ^ { ^ { / / / { ^ ^ ^ ^ ^ ^ ^ ^ { { ^ ^ ^ ^ 5 7 1 ^ ^ ^ { ^ ^ ^ ^ ^ ^ ^ ^ ^ ^ ^ ^ ^ ^ ^ ^ ^ ^ ^ ^ ^ ^ { { ^ { ^ ^ ^ ^ ^ ^ ^ ^ ^ ^ { ^ { { ^ ^ ~ ~ ^ { ^ ^ ^ ~ ~ ~ ~ ~ { ~ ~ ~ . ",
". & ~ ~ ~ ~ ~ ~ ~ / { / / { { ^ { ^ ^ ^ ^ ^ 2 ^ ^ ^ ^ ^ ^ ^ ^ ^ ^ ^ ^ ^ S ^ ^ ^ ^ ^ ^ / / / / / S ^ ^ ^ ^ ^ { ^ ^ ^ { ^ ^ ^ ^ ^ ^ ^ { { { 7 ( ^ 2 { / | Q / { ^ ^ { { / { ^ ^ ^ ^ ^ { { ^ ^ ^ ^ ^ ^ / R 7 ^ ^ ^ ^ ^ ^ ^ ^ ^ ^ ^ ^ ^ ^ ^ ^ ^ ^ ^ ^ ^ { ^ ^ ^ { ^ ^ | Q R / ^ ( 7 ^ 2 ^ ^ ^ ^ ^ ^ { { ^ ^ ^ ^ ^ ^ ^ ^ ^ R ^ { ^ { ^ ^ / / ^ ^ { ^ ^ { ^ ^ { ^ [ { { ^ ^ ^ ^ ^ ^ ^ { { ^ { ^ ^ ^ ^ ^ ^ ^ ^ ^ ^ ^ ^ ^ { ^ ^ ^ ^ ^ ^ ^ ^ ^ ^ ^ ^ ^ ^ ^ ^ ^ { ^ ^ { ^ { ^ ^ ^ ^ ^ ^ ^ { ^ ^ { { ^ ~ ~ ~ ^ ^ ^ ^ ^ { ~ ~ ~ ~ { ~ ~ ~ . ",
". * ~ ~ ~ ~ ~ ~ ~ ~ ~ ~ ^ { { ^ { ^ ^ ^ ^ ^ ^ ^ ^ ^ ^ ^ ^ ^ ^ ^ ^ ^ ^ ^ / ^ ^ ^ ^ ^ 1 / / / | / / ^ ^ ^ ^ ^ ^ ^ ^ ^ ^ ^ ^ ^ ^ { ^ ^ { { ^ ^ ^ ^ ^ { 2 / ( 1 { ^ { { { / / / ^ ^ ^ ^ { { ^ ^ ^ ^ ^ ^ ^ / ^ ^ ^ ^ ^ ^ ^ ^ ^ ^ ^ ^ ^ ^ ^ ^ ^ ^ ^ ^ ^ ^ { { { ^ { ^ ^ ^ ^ ^ { { ^ ^ ^ ^ ^ { ^ ^ ^ ^ ^ ^ ^ ^ ^ ^ ^ ^ ^ ^ / / ^ { ^ { ^ ^ / / ^ ^ { ^ ^ ^ ^ ^ ^ ^ / { { ^ ^ ^ ^ 2 R { { { ^ { ^ ^ ^ ^ ^ ^ ^ ^ { ^ ^ ^ ^ ^ ^ ^ ^ ^ ^ ^ ^ ^ ^ ^ ^ ^ ^ ^ ^ ^ ^ { ^ ^ ^ ^ ^ ^ ^ ^ ^ ^ ^ ^ { ^ ^ { ^ ^ ~ ~ ~ ~ ~ ^ ^ ^ ~ ~ ~ ~ ~ ~ ~ ~ ~   ",
". * ~ ~ ~ ~ ~ { ~ ~ ~ ^ ^ { { ^ { ^ ^ ^ ^ ^ ^ { ^ ^ ^ ^ ^ ^ ^ ^ ^ ^ ^ ^ 6 7 ^ 5 ^ ^ ^ / / / 1 / { Q ^ ^ ^ ^ ^ ^ ^ ^ ^ ^ ^ ^ ^ { ( 7 { ^ ^ ^ ^ { ^ { { ^ ^ ^ { ^ ^ { { ^ / 4 ^ ^ { { { { ^ ^ / ^ Q / / ^ ^ ^ ^ ^ ^ ^ ^ ^ ^ ^ { ^ ^ ^ ^ ^ ^ ^ ^ { ^ ^ { { { { { ^ { { { ^ ^ ^ ^ ^ { { ^ { ^ { ^ ^ ^ ^ ^ ^ ^ ^ ^ ^ 1 ( 1 [ ^ { ^ ^ ^ ^ / / ^ { { ^ ^ ^ ^ ^ ^ ^ { { { ^ 7 ^ ^ { { { { ^ ^ ^ ^ ^ ^ ^ ^ ^ ^ ^ { ^ ^ ^ ^ ^ ^ ^ ^ ^ ^ ^ ^ ^ ^ ^ ^ ^ ^ { ^ ^ ^ { ^ { { ^ ^ ^ ^ ^ ^ ^ Q 3 { ^ ^ ^ ~ ^ ~ ~ ~ ~ ~ ~ ^ ~ ~ ~ ~ ~ ~ ~ ~ ~ ~   ",
". & ~ ~ ~ ~ ~ ~ ~ { ^ ^ ^ { { ^ ^ ^ ^ ^ ^ ^ ^ ^ ^ ^ ^ ^ ^ ^ ^ ^ ^ ^ ^ ^ ^ / 6 ^ ^ ^ 2 / / 4 S ^ { / ^ ^ ^ ^ ^ ^ ^ ^ ^ ^ ^ ^ ^ { 1 ( 1 ^ ^ ^ ^ { ^ { ^ ^ ^ ^ { ^ ^ ^ ^ ^ / R ^ ^ ^ { { { ^ / ^ ^ 7 ^ { ^ 1 ^ ^ ^ ^ ^ ^ ^ { ^ ^ ^ ^ ^ ^ ^ ^ ^ ^ { ^ { { ^ { ^ { ^ ^ { ^ ^ ^ ^ ^ ^ { { ^ { ^ ^ ^ ^ ^ ^ ^ ^ ^ ^ ^ 1 S ^ ^ ^ ^ { ^ ^ ^ ^ / R ^ { { ^ ^ ^ ^ ^ { 2 { { ^ ^ ^ { ^ { { { { ^ ^ ^ ^ ^ ^ ^ ^ ^ ^ ^ { ^ ^ ^ ^ ^ ^ ^ ^ ^ ^ ^ ^ ^ ^ ^ ^ ^ { { ^ ^ ^ ^ { { ^ ^ ^ ^ ^ ^ ^ ^ / ^ Q ^ ^ ^ ^ ~ ~ ~ ^ ~ ^ { { ~ ~ ~ ~ { ~ { ~ ~ ~   ",
". & ~ ~ ~ { ~ ~ ~ { ^ ^ ^ { { ^ ^ ^ ^ ^ ^ ^ ^ ^ S ^ ^ ^ ^ ^ ^ ^ ^ ^ ^ ^ ^ ( / ( ^ [./ / | / | ^ ^ ^ ^ ^ ^ ^ { 2 ^ ^ ^ ^ ^ ^ ^ Q 4 ^ / ^ ^ ^ ^ { { { ^ ^ ^ ^ ^ ^ ^ { ^ ^ ^ ^ ^ ^ { { { / / / / ^ ^ ^ ^ ^ ^ ^ ^ ^ ^ ^ ^ ^ { ^ ^ ^ ^ ^ ^ ^ ^ ^ ^ { ^ { { ^ ^ ^ ^ ^ ^ ^ ^ ^ ^ ^ ^ ^ { { ^ ^ ^ ^ ^ ^ ^ ^ ^ ^ ^ { ^ ^ ^ ^ ^ ^ ^ { ^ ^ ^ ^ / / ^ { { ^ ^ ^ ^ { { ^ { { ^ R 3 { ^ ^ { { { ^ ^ { ^ ^ ^ ^ { ^ ^ ^ ^ ( ^ ^ ^ ^ ^ ^ ^ ^ ^ ^ ^ ^ ^ ^ ^ ^ { { ^ ^ { { { { ^ ^ ^ ^ ^ ^ ^ ^ ^ ^ ^ ^ ^ ^ ^ ^ ^ ^ ^ ~ ~ ~ { ~ ~ ~ { ~ ~ ~ ~ ~ ~   ",
". & ~ ~ ~ { ~ { ~ ^ ^ ^ ^ { { ^ ^ ^ ^ ^ ^ ^ ^ ^ ^ ^ ^ ^ ^ ^ ^ ^ ^ ^ ^ ^ ^ ^ ( 3 / / / 3 ^ / | ^ { 1 ^ ^ { ^ { ^ ^ ^ 1 ^ ^ ^ ^ ^ 4 / / ^ ^ ^ ^ { { { ^ ^ ^ ^ ^ ^ ^ ^ ^ ^ ^ ^ ^ ^ ^ ^ { { / / Q ^ ^ ^ ^ ^ ^ ^ ^ ^ ^ ^ ^ { { ^ ^ ^ ^ ^ ^ ^ ^ ^ ^ ^ ^ { { ^ { ^ ^ ( S ^ ^ ^ ^ { ^ ^ { { ^ ^ ^ ^ ^ ^ ^ { { ^ ^ { ^ ^ ^ ^ ^ ^ ^ { ^ ^ ^ ^ / / ( { { ^ ^ ^ ^ { { ^ { ^ ^ ^ ^ { ^ ^ { { ^ ^ ^ { ^ ^ { ^ { ^ ^ ^ ^ ^ ^ ^ ^ { ^ ^ ^ ^ ^ ^ ^ ^ ^ ^ ^ ^ { { ^ ^ ^ { { { ^ ^ ^ ^ ^ ^ ^ ^ ^ ^ ^ ^ ^ ^ ^ ^ ^ ^ ~ ~ ~ { { ^ ^ ^ { ~ ~ ~ ~ ~ ~   ",
". & ~ ~ ~ { ~ ~ ^ { ^ { ^ { { ^ ^ ^ ^ ^ ^ ^ ^ ^ ^ ^ ^ ^ ^ ^ ^ ^ ^ ^ ^ ^ ^ ^ ^ ^ ^ / 5 / ( / ( ^ ^ ^ ^ ^ { ^ ^ ^ ^ ^ ^ ^ ^ ^ ^ ^ ^ R ^ ^ ^ ^ { ^ ^ ^ ^ ^ ^ ^ ^ ^ ^ ^ ^ ^ ^ ^ ^ ^ ^ ^ ^ { 4 / 7 ^ ^ { ^ ^ ^ ^ ^ ^ ^ ^ ^ ^ ^ ^ ^ ^ ^ ^ ^ ^ ^ ^ ^ ^ ^ ^ ^ ^ { { ^ ^ ^ ^ ^ ^ ^ ^ ^ ^ ^ ^ ^ ^ ^ ^ ^ ^ ^ ^ { ^ ^ { ^ ^ ^ ^ ^ ^ ^ ^ ^ ^ { ^ ^ ^ ^ ^ ^ ^ ^ ^ ^ { ^ ^ { 2 ^ ^ ^ { ^ ^ { ^ ^ ^ ^ { ^ { { / { T ^ ^ ^ ^ ^ ^ ^ { ^ ^ ^ ^ ^ ^ ^ ^ ^ ^ ^ ^ { { ^ ^ ^ { { { ^ ^ ^ ^ ^ ^ ^ ^ ^ ^ { ^ ^ { ^ ^ ^ ^ ^ ~ ~ ~ ~ ~ ~ ^ { { { { ~ ~ ~ . ",
". * ~ ~ { { ~ ~ ^ { ^ { ^ { ^ ^ ^ ^ ^ ^ ^ ^ ^ ^ ^ ^ ^ ^ ^ ^ ^ 5 ^ ^ ^ ^ ^ ^ ^ ^ 3 4 ^ ^ ^ ^ ^ ^ ^ ^ ^ ^ ^ ^ ^ ^ ^ ^ ^ ^ ^ ^ ^ / / / { { { ^ { { ^ { ^ ^ ^ ^ ^ ^ ^ { ^ ^ ^ ^ ^ ^ { ^ ^ ^ / Q 1 ^ ^ ^ ^ ^ ^ ^ ^ ^ ^ ^ ^ ^ ^ ^ ^ ^ ^ ^ ^ ^ ^ ^ ^ ^ ^ ^ ^ ^ { { ^ ^ ^ ^ ^ ^ ^ ^ ^ ^ { ^ ^ ^ ^ ^ ^ ^ ^ ^ { ^ { { ^ ^ ^ ^ { ^ ^ ^ ^ ^ ^ ^ ^ ^ ^ ^ ^ ^ ^ ^ ^ { ^ / { 6 / ^ ^ ^ ^ ^ { / / | ^ { ^ { { / { | 3 Q ^ ^ ^ ^ ^ ^ ^ ^ ^ ^ ^ ^ ^ ^ ^ ^ ^ ^ { { { ^ ^ ^ ^ { ^ ^ / [.^ { ^ ^ ^ ^ { ^ ^ ^ ^ ^ ^ ^ ^ { ~ ~ ~ ~ ~ ~ ~ ~ { { ~ ~ ~ . ",
"  * ~ ~ { { ~ ~ ^ { ^ ^ { { ^ ^ ^ ^ ^ ^ ^ ^ ^ ^ ^ ^ ^ ^ ^ ^ ^ ( ^ ^ ^ ^ ^ ^ 1 1 Q 7 ^ ^ ^ ^ ^ ^ ^ ^ ^ ^ ^ ^ ^ ^ ^ ^ ^ ^ ^ ^ ^ ^ ^ | { { { { ^ ^ ^ { ^ ^ ^ { { { { { ^ ^ ^ ^ ^ ^ { { ^ ^ ^ ^ ^ / 7 ^ ^ { ^ ^ ^ ^ ^ ^ ^ ^ ^ ^ ^ ^ ^ ^ ^ ^ { ^ ^ ^ ^ ^ ^ ^ ^ { { ^ ^ ^ ^ ^ ^ ^ ^ ^ ^ ^ ^ { ^ ^ { ^ ^ ^ ^ ^ { { ^ ^ ^ ^ ^ ^ ^ ^ ^ ^ ^ ^ ^ ^ ^ ^ ^ ^ ^ ^ ^ ^ S ^ { / / ^ ^ ^ ^ ^ { / / 4 ^ { ^ { 7 / { R ^ ( ^ ^ ^ ^ { ^ ^ ^ ^ ^ ^ ^ ^ ^ ^ ^ ^ ^ { { { ^ ^ ^ { { ^ ^ / ^ { { ^ ^ ^ ^ { ^ ^ ^ ^ ^ ^ ^ ^ ^ ^ ^ ^ ~ ~ ~ ~ ~ { { ~ ~ ~ . ",
"  * ~ ~ { ~ ~ ~ ~ ~ ^ ^ { ^ ^ ^ ^ ^ ^ ^ ^ ^ ^ ^ ^ ^ ^ ^ ^ ^ ^ ( ^ ^ ^ ^ ^ ^ ^ / / ^ ^ ^ ^ ^ ^ ^ ^ ^ ^ ^ [ 2 ^ ^ ^ { ^ ^ ^ ^ ^ ^ ^ 2 / { { { ^ ^ ^ { { { ^ { { ^ ^ { { ^ ^ ^ ^ ^ { ^ ^ ^ ^ ^ ^ / / ^ ^ ^ ^ ^ ^ ^ ^ ^ ^ ^ T ( ^ ^ ^ ^ ^ ^ { ^ ^ ^ ^ ^ { ^ ^ { { ^ ^ ^ ^ ^ ^ ^ ^ ^ ^ ^ ^ ^ { ^ { ^ ^ ^ ^ ^ { ^ ^ ^ ^ ^ ^ ^ ^ ^ ^ ^ ^ ^ ^ ^ ^ { ^ ^ ^ ^ ^ ^ 2 3 { T / ^ ^ ^ ^ ^ 4 { / | 3 { ^ ^ ^ { { / / ^ ^ ^ ^ ^ ^ ^ ^ ^ ^ ^ ^ ^ ^ ^ ^ ^ ^ ^ { ( ^ ^ ^ ^ { { ^ ^ ^ ^ ^ { ^ ^ ^ ^ { ^ ^ ^ ^ ^ ^ ^ ^ ^ ^ ^ ^ ^ ^ ~ { ~ { { ~ ~ ~ . ",
"  * ~ ~ ~ ~ ~ ~ ~ { ^ ^ ^ ^ { ^ ^ ^ ^ ^ ^ ^ ^ ^ ^ ^ ^ ^ ^ ^ ^ ^ ^ ^ ^ ^ ^ ^ ^ [ / ^ ^ ^ ^ ^ ^ ^ ^ ^ ^ { / / ^ ^ ^ { ^ ^ ^ ^ ^ ^ ^ 7 3 / | { ^ ^ ^ { { { ^ { { ^ ^ { { ^ ^ ^ ^ ^ { { ^ { ^ ^ ^ ^ / 2 ^ ^ ^ ^ ^ ^ ^ ^ ^ ^ [ ^ ^ ^ ^ ^ ^ ^ { ^ ^ ^ { ^ { ^ ^ { { ^ ^ ^ ^ ^ ^ { ^ ^ ^ ^ ^ ^ { ^ ^ ^ ^ ^ ^ ^ { ^ ^ ^ ^ ^ ^ ^ { ^ ^ ^ ^ ^ ^ ^ ^ { ^ ^ ^ ^ ^ ^ 3 / / / 3 ^ ^ ^ ^ ^ ^ / / / / { / ^ ^ { { ^ ^ ^ ^ ^ ^ ^ { ^ ^ ^ ^ ^ ^ ^ ^ ^ ^ ^ ^ ^ { ^ ^ ^ ^ ^ ^ { ^ ^ ^ 6 ^ { ^ ^ ^ ^ { ^ ^ ^ ^ ^ ^ ^ ^ ^ ^ ^ ^ ^ ^ ^ { { { { { { { . ",
"  * ~ ~ { ~ ~ { ^ { ~ ~ { ^ ^ ^ ^ ^ ^ ^ ^ ^ ^ ^ ^ ^ ^ ^ ^ ^ ^ ^ ^ ^ ^ ^ ^ ^ ^ ^ 2 ^ ^ ^ ^ ^ ^ ^ ^ ^ ^ { ^ ^ ^ ^ ^ ^ ^ ^ ^ ^ ^ { ^ [.^ / { ^ ^ ^ { ^ ^ { ^ { ^ ^ ^ { ^ ^ ^ ^ ^ ^ { { ^ { { ^ ^ ^ ^ ^ ^ ^ ^ ^ ^ ^ ^ ^ ^ ^ ^ ^ ^ ^ ^ ^ ^ ^ ^ ^ ^ ^ { ^ { ^ ^ { ^ { ^ { ^ ^ ^ ^ ^ ^ ^ ^ ^ ^ ^ ^ ^ ^ ^ ^ ^ ^ { ^ ^ ^ ^ ^ ^ ^ { { ^ ^ ^ ^ ^ ^ ^ ^ ^ ^ ^ ^ ^ ^ ^ ^ Q Q { ^ ^ ^ 2 ^ ^ / | / / / / / 3 ^ ^ ^ ^ ^ ^ ^ 3 5 { ^ ^ ^ ^ ^ ^ ^ ^ ^ ^ ^ { ^ { { ^ ^ ^ ^ ^ { ^ ^ { 1 ^ { ^ ^ ^ ^ ^ ^ ^ { ^ ^ ^ ^ ^ ^ ^ ^ ^ ^ ^ ^ ^ { { { { { { . ",
"  * ~ ~ { ~ ~ { ^ { ~ ~ { ^ ^ ^ ^ ^ ~ ^ ^ ^ ^ ^ ^ ^ ^ ^ ^ ^ ^ ^ ^ ^ ^ ^ ^ ^ ^ ^ ^ ^ ^ ^ ^ ^ ^ ^ { ^ ^ { ^ ^ ^ ^ ^ ^ ^ ^ ^ ^ ^ ^ 4 3 ^ { { / ^ ^ ^ ^ ^ { { { ( { ^ ^ ^ ^ ^ ^ ^ { { ^ ^ ^ ^ ^ ^ ^ ^ ^ ^ ^ ^ ^ ^ ^ ^ ^ ^ ^ ^ ^ ^ ^ ^ ^ ^ ^ ^ ^ ^ ^ { ^ { ^ ^ { ^ { { { ^ ^ ^ { ^ ^ ^ ^ ^ ^ ^ ^ ^ ^ ^ ^ ^ ^ ^ ^ ^ ^ ^ ^ ^ ^ { ^ ^ ^ / / 1 ^ ^ ^ ^ ^ ^ ^ ^ ^ ^ ^ ^ Q { ^ { { ^ ^ 4 5 ^ 2 { / / Q ^ ^ ^ ^ [ 1 2 / / / ^ ^ ^ ^ ^ ^ ^ ^ ^ ^ ^ ^ { ^ ^ ^ ^ ^ ^ ^ ^ ^ ^ ^ { ^ ^ ^ ^ ^ ^ ^ ^ ^ ^ { ^ ~ ^ ^ ^ ^ ^ ^ ^ ^ ^ ^ ^ { { { ~ ~ ~ . ",
". & ~ ~ { ~ ~ { ~ { { ~ { ^ ^ ^ ^ ^ ^ ~ ^ ^ ^ ^ ^ ^ ^ ^ ^ ^ ^ ^ ^ ^ ^ ^ ^ ^ ^ ^ ^ ^ ^ ^ ^ ( ^ ^ { ^ ^ { ^ ^ ^ 5 ^ ^ ^ ^ ^ ^ ^ 2 5 ^ { { { { ^ ^ { ^ ^ { 4 { / { ^ ^ { ^ ^ ^ ^ { { ^ ^ ^ ^ ^ 1 ( ^ ^ ^ ^ ^ ^ { 4 ^ 6 ^ { ^ ^ ^ ^ { ^ ^ ^ { ^ ^ ^ { ^ ^ ^ ^ { ^ { ^ ^ ^ ^ ^ ^ ^ ^ ^ ^ { { { ^ ^ ^ ^ ^ ^ ^ ^ ^ ^ ^ ^ ^ ^ ^ ^ 1 ^ 7 [./ ^ ^ ^ ^ ^ ^ ^ ^ ^ { ^ { ^ ^ ^ ^ { { / | ( ^ ^ ^ { ( 6 [ ^ ^ { ^ ^ 2 ^ / 2 ^ ^ ^ ^ ^ ^ ^ ^ 5 ^ ^ ^ ^ ^ ^ ^ ^ ^ ^ ^ { ^ { ^ { { 1 ^ ^ ^ ^ ^ ^ ^ ^ ^ ^ ~ ~ ~ ~ ~ ~ ^ ^ ^ ^ ^ ^ ^ { ~ { ~ { ~   ",
". & ~ ~ ~ ~ ~ ~ ~ { ^ ^ { { { ^ ^ ^ ^ ^ ^ ^ ^ ^ ^ ^ ^ ^ ^ ^ ^ ^ ^ ^ ^ ^ ^ ^ ^ ^ ^ ^ ^ ^ ^ 7 [ 2 { ^ ^ ^ ^ ^ ^ R R { ^ ^ ^ ^ ^ ^ ^ ^ ^ { { { ^ { ^ ^ ^ ^ { ^ ( ^ { ^ { ^ ^ ^ ^ ^ ^ ^ ^ ^ ..1 / ..^ ^ ^ ^ ^ / { Q ^ ^ 2 { ^ ^ ^ ^ ^ ^ ^ ^ { ^ ^ ^ { ^ ^ ^ ^ { ^ { ^ ^ ^ ^ ^ ^ ^ ^ { ^ { { { ^ ^ ^ ^ ^ ^ ^ ^ ^ ^ ^ ^ ^ ^ ( ^ ^ ^ / / / ( ^ ^ ^ ^ ^ ^ ^ ^ { ^ { ^ ^ ^ ^ { { ^ ^ ^ ^ ^ ^ { { / / ^ ^ { ^ ^ ^ ^ ^ 1 ^ ^ ^ ^ ^ ^ ^ ^ ^ ^ ^ ^ ^ ^ ^ ^ { ^ ^ ^ { ^ { ^ { { ^ ^ ^ ^ ^ ^ ^ ^ ^ ^ { ^ ~ ~ ~ ~ ~ ^ ^ ^ ^ ^ ^ ^ { ~ { ~ ~ ~   ",
". * ~ ~ { ~ ~ ~ ~ { ^ ^ { { ^ ^ ^ ^ ^ ^ ^ ^ ^ ^ ^ ^ ^ ^ ^ ^ ^ ^ ^ ^ ^ ^ ^ ^ ^ ^ ^ ^ ^ ^ ^ ^ ^ ^ { ^ ^ ^ ^ ^ ^ ^ ^ ^ ^ ^ ^ ^ ^ ^ ^ ^ ^ ^ { ^ ^ ^ ^ ^ ^ ^ ^ ^ 4 / { ^ { ^ ^ { ^ ^ ^ ^ ^ / ( [ / 2 ^ ^ ^ ^ ^ 7 { ^ ^ ^ ( 2 ^ ^ ^ ^ ^ ^ ^ ^ { ^ ^ ^ { ^ ^ ^ ^ ^ ^ { ^ ^ ^ ^ ^ ^ ^ ^ { ^ { { ^ ^ ^ ^ { ^ ^ ^ ^ ^ ^ ^ ^ ^ / / ( ^ ^ ^ ^ ^ 3 ^ ^ ^ ^ ^ ^ ^ ^ { ^ { ^ ^ ^ ^ { ^ ^ ^ ^ { ^ ^ ^ { ^ { 2 ^ { ^ ^ ^ ^ ^ / ^ ^ ^ ^ ^ ^ ^ ^ ^ ^ ^ ^ ^ ^ 1 ^ ^ ^ ^ { { ^ { ^ ^ ( 5 { ^ ^ { ^ ^ ^ ^ ^ ^ ^ ^ ^ ~ ^ ^ ^ ^ ~ ~ ^ ~ ^ ~ ~ ~ ~ ~ {   ",
"  * ~ ~ { ~ ~ ~ { { ^ ^ { { ^ [ ^ ^ ^ ^ ^ ^ ^ ^ ^ ^ ^ ^ ^ ^ ^ ^ ^ ^ ^ ^ ^ ^ ^ ^ ^ ^ ^ ^ ^ ^ ^ ^ { ^ ^ ^ ^ ^ ^ ^ { ^ ^ ^ ^ ^ ^ ^ ^ { ^ { { { ^ ^ ^ ^ { ^ ^ { 7 7 ^ ^ ^ ^ ^ ^ ^ ^ ^ { ^ { ^ / / ^ ^ ^ ^ ^ ^ ^ { { { { 1 / ^ ^ ^ ^ { ^ ^ ^ { ^ ^ ^ ^ ^ ^ ^ ^ { ^ { ^ { ^ ^ ^ ^ ^ ^ { ^ { { { ^ ^ ^ { ^ 4 ^ ^ ^ ^ ^ ^ ^ ^ ^ ^ ^ ^ ^ ^ ^ ^ ^ ^ ^ ^ ^ ^ ^ ^ { ^ { ^ ^ { ^ ^ ^ ^ ^ ^ { ^ ^ { ^ T { { ^ { ^ ^ ^ ^ ^ T ^ ^ ^ ^ ^ ^ ^ ^ ^ ^ ^ ^ ^ ^ ^ ^ ^ ^ ^ ^ ^ { { ^ ^ ^ ^ { ^ { { ^ ^ ^ ^ ^ ^ ^ ^ ^ ^ ^ ^ ^ ^ ^ ^ ^ ~ ~ ~ ~ ~ ~ ~ { . ",
"  & ~ ~ { ~ ~ ~ { { ^ ^ { { 7 / 1 ^ ^ ^ ^ ~ ^ ^ ^ ^ ^ ^ ^ ^ ^ ^ ^ ^ ^ ^ ^ ^ ^ ^ ^ ^ ^ ^ ^ ^ ^ ^ ^ ^ ^ ^ ^ ^ ^ ^ { ^ ^ ^ ^ ^ ^ ^ ^ ^ { { { { ^ ^ ^ ^ { ^ ^ { ^ ^ ^ ^ ^ ^ { { ^ ^ ^ { ^ ( / ^ ^ ^ ^ ^ ^ ^ ^ ^ Q / { { / { ^ ^ ^ ^ { ^ ^ ^ { ^ ^ ^ ^ ^ { ^ ^ { ^ { ^ ^ ^ ^ ^ ^ ^ ^ { ^ ^ ^ { ^ ^ ^ { ^ 1 ^ ^ ^ ^ ^ ^ ^ ^ ^ ^ ^ ^ ^ ^ ^ ^ ^ ^ { ^ ^ ^ ^ ^ { ^ { ^ ^ ^ ^ { ^ ^ ^ ^ { ^ ^ { ^ ^ ^ { ^ { ^ ^ ^ ^ ^ 5 ^ ^ ^ ^ ^ ^ ^ ^ ^ ^ ^ ^ ^ ^ ^ ^ ^ ^ ^ ^ ^ { { ^ ^ ^ ^ ^ ^ ^ ^ ^ ^ ^ ^ ^ ^ ^ ^ ^ ^ ^ ^ Q / ^ ^ ~ ~ { { ~ { ~ ~ { . ",
"  & ~ ~ { ~ ~ ~ { { ^ ^ / { / / T ^ ^ ^ ^ ~ ~ ^ ^ ^ ^ ^ ^ ^ ^ ^ ^ ^ ^ ^ ^ ^ ^ ^ ^ ^ ^ ^ ^ ^ ^ ^ ^ ^ ^ ^ ^ ^ ^ ^ { ^ ^ ^ ^ ^ ^ ^ ^ ^ ^ { { { { ^ { ^ { ^ ^ { { ^ ^ ^ ^ ^ 6 ^ { ^ ^ { ^ ^ ^ ^ ^ ^ ^ ^ ^ ^ ^ 1 3 2 ^ ^ { { ^ ^ ^ ^ ^ ^ ^ ^ { ^ ^ ^ ^ ^ ^ ^ ^ { ^ { ^ ^ ^ ^ ^ ^ ^ ^ { ^ { ^ { ^ ^ ^ { ^ ^ ^ { ^ ^ ^ ^ ^ { ^ ^ ^ ^ ^ ^ ^ ^ ^ ^ { ^ ^ ^ ^ ^ { ^ { ^ { { ^ { ^ ^ ^ ^ { ^ ^ { [ ^ ^ { ^ { ^ ^ ^ ^ 4 2 ^ { ^ ^ ^ ^ ^ ^ ^ ^ ^ ^ ^ ^ ^ ^ ^ ^ ^ ^ ^ ^ { { { ^ ^ ^ ^ ^ ^ ^ ^ ^ ^ { ^ ^ ^ ^ ^ ^ R 5 / / ^ ^ ^ { { ~ { ~ ~ {   ",
"  & ~ ~ { ~ } ~ { { ^ ^ { { / ^ ^ ^ ^ ^ ^ ^ ^ ^ ^ ^ ^ ^ ^ ^ ^ ^ ^ ^ ^ ^ ^ ^ ^ ^ ^ ^ ^ ^ ^ ^ ^ ^ { ^ ^ ^ ^ ^ ^ ^ ^ ^ ^ ^ ^ ^ ^ ^ ^ { ^ { { ^ { ^ { ^ { { ^ { { T { ^ ^ ^ ^ ^ ^ ^ { { ^ ^ ^ ^ ^ ^ { ^ ^ ^ ^ ^ ^ ^ ^ ^ { { ^ ^ ^ ^ ^ ^ ^ ^ ^ ^ ^ ^ { ^ ^ ^ ^ { ^ { ^ { ^ ^ ^ ^ ^ ^ ^ ^ { { { ^ ^ ^ { ^ ^ ^ { ^ { ^ ^ ^ { ^ { ^ ^ ^ ^ ^ ^ ^ ^ { ^ ^ ^ ^ ^ { ^ ^ ^ { { ^ { 3 ^ ^ ^ { { ^ ^ ^ ^ ^ { ^ ^ ^ ^ ^ ^ ^ ^ ^ { ^ ^ ^ ^ ^ ^ ^ ^ ^ ^ { ^ { { { ^ ^ ^ ^ ^ ^ { { ^ ^ ^ ^ ^ ^ ^ ^ ^ ^ { ^ ^ ^ ^ ^ ^ ^ ^ ^ R ^ ^ ^ ^ ~ ~ { ~ ~ ~   ",
"  & ~ ~ { ~ / / ~ ^ ^ { { { ^ ^ ^ ^ { ^ ^ ^ ^ ^ ^ ^ ^ ^ ^ ^ ^ ^ ^ ^ ^ ^ ^ ^ ^ ^ ^ ^ ^ ^ ^ ^ ^ ^ { ^ ^ ^ ^ ^ ^ ^ ^ ^ ^ ^ ^ ^ ^ ^ ^ { { { { ^ { ^ { ^ { ^ ^ { { ( { ^ ^ ^ ^ ^ ^ ^ { { ^ ^ ^ ^ ^ ^ { ^ 2 2 ^ ^ ^ ^ ^ ^ [ { ^ ^ ^ ^ ^ ^ ^ ^ ^ ^ ^ ^ ^ ^ { ^ ^ { { { { { ^ ^ ^ ^ ^ ^ { ^ { { { ^ ^ ^ { ^ ^ ^ { ^ { ^ ^ ^ { ^ { ^ ^ ^ ^ ^ ^ ^ ^ ^ ^ ^ ^ ^ ^ { ^ { ^ { { { { ^ ^ ^ ^ { { ^ ^ ^ ^ ^ ^ ^ 5 ^ ^ ^ ^ ^ ^ ^ { ^ ^ { ^ ^ ^ ^ ^ ^ ^ ^ ^ { ^ ^ ^ ^ ^ ^ ^ { { ^ ^ ^ ^ ^ ^ ^ ^ ^ ^ ^ { ^ ^ ^ ^ ^ ^ { ^ ^ ^ ^ ^ ^ { ~ ~ { ~ ~ ~   ",
"  & ~ ~ { ~ / / { { 2 { { { ^ ^ ^ ^ ^ ^ ^ ^ ^ ^ ^ ^ ^ ^ ^ ^ ^ ^ ^ ^ ^ ^ ^ ^ ^ ^ ^ ^ ^ ^ ^ ^ ^ ^ ^ ^ ^ { 5 / ^ ^ ^ ^ ^ ^ ^ ^ ^ ^ ^ { ^ ^ { { { ^ { ^ { R / { { { { ^ ^ ^ ^ ^ { ^ ^ ^ ^ ^ ^ ^ ^ ^ { { 7 Q ^ { ^ ^ ^ { ^ ^ ^ ^ ^ ^ ^ ^ ^ ^ ^ ^ ^ { { ^ { ^ ^ { { { { ^ ^ ^ ^ ^ ^ ^ { ^ { { { ^ ^ ^ { ^ ^ ^ { ^ { ^ ^ ^ ^ ^ ^ ^ ^ ^ ^ ^ ^ ^ ^ ^ ^ ^ ^ ^ { { ^ { ^ { { { ^ ^ ^ ^ | { { { ^ ^ ^ ^ ^ ^ S ^ ^ ^ ^ ^ ^ ^ { ^ / { ^ 6 5 4 ^ ^ ^ ^ ^ ^ ^ ^ ^ ^ { ^ ^ ^ ^ ^ ^ ^ ^ ^ ^ ^ ^ ^ ^ ^ ^ ^ ^ ^ ^ ^ ^ { { ^ ^ ^ ^ ^ ^ ~ ~ { ~ ~ ~   ",
"  & ~ ~ { ~ / / { { ^ ^ { ^ ^ ^ ^ ^ ~ ~ ~ ~ ~ ^ ^ ^ ^ ^ ^ ^ ^ ^ ^ ^ ^ ^ ^ ^ ^ ^ ^ ^ ^ ^ ^ ^ ^ ^ ^ ^ { { ^ ^ 1 ^ ^ ^ ^ ^ ^ ^ ^ ^ ^ { { ^ { { { ^ { ^ { { { / { { { ..^ ^ ^ ^ ^ ^ { ^ ^ ^ ^ ^ ^ ^ { { ^ ^ ^ { ^ ^ ^ ^ ^ ^ ^ ^ ^ ^ ^ ^ ^ ^ ^ ^ ^ { { ^ { ^ ^ { { { { ^ ^ ^ ^ ^ ^ ^ { ^ ^ { { ^ ^ ^ ^ ^ ^ ^ { ^ ^ ^ ^ ^ ^ ^ { ^ ^ ^ ^ ^ ^ ^ { ^ ^ ^ ^ ^ { ^ ^ { { ^ { ^ ^ ^ ^ ^ ^ { { { ^ ^ ^ ^ [ 6 ( ^ ^ ^ ^ ^ ^ ^ { ^ / { ^ 1 ^ ^ ^ ^ S { ^ { { ^ ^ ^ { { ^ ^ ^ ^ ^ ^ ^ ^ ^ ^ ^ ^ ^ ^ ^ ^ ~ ^ ^ ^ ^ ^ { ^ ^ ^ ^ ^ { ~ ~ { ~ { {   ",
"  & ~ ~ { ~ ~ ~ { { ^ ^ { ^ ^ ^ ^ ^ ~ ~ ^ ^ ^ ^ ^ ^ ^ ^ ^ ^ ^ ^ ^ ^ ^ ^ ^ ^ ^ ^ ^ ^ ^ ^ ^ ^ ^ ^ ^ ^ { ^ ^ ^ ^ ^ ^ ^ ^ ^ ^ ^ ^ ^ ^ { { { { { ^ ^ { ^ { ^ { 7 { ^ { ^ ^ ^ ^ ^ ^ ^ ^ ^ ^ ^ ^ 1 Q ^ ^ ^ ^ ^ ^ { ^ ^ ^ { ^ ^ ^ ^ ^ ^ ^ ^ ^ ^ ^ ^ ^ { { ^ { ^ ^ ^ { { { { ^ ^ ^ ^ ^ ^ ^ ^ ^ ^ ^ ^ ^ ^ { ^ ^ ^ { ^ ^ ^ ^ ^ ^ ^ { ^ ^ ^ ^ ^ ^ ^ { ^ ^ ^ ^ ^ { { ^ { ^ ^ { ^ ^ ^ ^ ^ ^ { ^ { ^ { ^ ^ 7 3 { ^ ^ ^ ^ ^ ^ ^ { ^ / { ^ ^ ^ ^ ^ ^ ^ ^ ^ { { ^ ^ ^ { { { { ^ ^ ^ ^ ^ ^ ^ ^ ^ ^ ^ ^ ~ ^ ~ ^ ^ ^ ^ ^ { ^ ^ ^ ^ ^ { ~ ~ { ~ ~ {   ",
"  * { ~ { ~ ~ ~ { { ^ ^ { ^ ^ / ^ ^ { / ^ ^ ^ ^ ^ ^ ^ ^ ^ ^ ^ ^ ^ ^ ^ ^ ^ ^ ^ ^ ^ ^ ^ ^ ^ ^ ^ ^ { ^ { ( / { ^ ^ { ^ 3 ^ ^ ^ ^ ^ ^ ^ { ^ { { ^ ^ { ^ { ^ { { { { ^ ^ ^ ^ ^ ^ ^ ^ { { ^ ^ ^ ^ ^ ^ ^ ^ ^ ^ ^ { ^ ^ ^ ^ ^ ^ ^ ^ ^ ^ ^ ^ ^ ^ ^ ^ ^ { { ^ { ^ ^ ^ ^ { { { ^ ^ ^ ^ ^ ^ ^ ^ ^ { ^ ^ ^ ^ { ^ ^ Q ^ ^ ^ ^ ^ ^ ^ ^ ^ ^ ^ ^ ^ ^ ^ ^ { ^ ^ ^ ^ ^ ^ ^ ^ { ^ ^ { ^ ^ ^ ^ ^ ^ { ^ { ^ { ^ ^ { 5 { ^ ^ S ^ { { ^ ^ T | ^ ^ ^ ^ ^ ^ ^ ( ^ ^ ^ ^ ^ ^ ^ { ^ { ^ ^ ^ ^ ^ ^ 1 2 1 ^ ^ ^ ^ ~ ~ ^ ^ ^ ^ ^ ^ { ^ ^ ^ ^ ^ ^ ~ ~ ~ ~ ~ {   ",
"  * { ~ ~ ~ ~ ~ ^ { ^ ^ { { ^ ^ ^ ^ ^ / ^ 1 ^ ^ ^ ^ ^ ^ ^ ^ ^ ^ ^ ^ ^ ^ ^ ^ ^ ^ ^ ^ ^ ^ ^ ^ ^ ^ { ^ { 2 ^ { ^ ^ ^ ^ ^ ^ ^ ^ ^ ^ ^ ^ { { { { { { { ^ { ^ { { { { { ^ ^ ^ ^ { ^ ^ ^ ^ ^ ^ ^ ^ ^ ^ ^ ^ ^ ^ ^ ^ ^ ^ ^ ^ ^ ^ ^ ^ ^ ^ ^ ^ ^ ^ ^ ^ ^ ^ ^ ^ { ^ ^ { ^ ^ ^ { ^ ^ ^ ^ ^ ^ ^ ^ ^ { ^ ^ ^ ^ { ^ ^ ^ ^ ^ ^ ^ ^ ^ ^ ^ ^ ^ ^ ^ ^ ^ ^ ^ ^ ^ ^ ^ ^ ^ ^ ^ ^ ^ ^ ^ { ^ ^ ^ ^ ^ ^ { ^ { ^ ^ ^ ^ { ^ ^ ^ ^ ^ ^ ^ ^ ^ ^ / ^ { ^ ^ ^ ^ ^ ^ ^ ^ ^ ^ { ^ ^ ^ { ^ { ^ ^ ^ ^ { ^ 2 / ^ ^ ^ ^ ^ { ^ ^ ^ ^ ~ ~ ^ { ^ ^ ^ ^ ^ ^ / ~ ~ ~ ~ ~   ",
"  * { ~ ~ ~ ~ ~ ^ { ^ ^ { { ^ ^ ^ ^ ^ ^ S 1 ^ ^ ^ ^ ^ ^ ^ ^ ^ ^ ^ ^ ^ ^ ^ ^ ^ ^ ( / / ^ ^ ^ ^ ^ ^ / { ^ ^ ^ ^ ^ ^ ^ ^ ^ ^ ^ ^ ^ ^ { ^ { { { { ^ { ^ { ^ { { { { ^ ^ ^ ^ ^ ^ { { { { ^ ^ ^ ^ ^ ^ ^ ^ ^ ^ ^ ^ ^ ^ ^ ^ ^ ^ ^ ^ ^ ^ ^ ^ ^ ^ ^ ^ ^ ^ ^ ^ { ^ { { { ^ ^ { ^ ^ ^ ^ ^ ^ ^ ^ { { ^ ^ ^ ^ { 1 ^ ^ ^ ^ ^ ^ ^ ^ ^ { { ^ ^ ^ ^ ^ ^ ^ { ^ ^ ^ ^ ^ ^ ^ ^ ^ ^ ^ ^ ^ ^ ^ ^ ^ ^ { ^ { ^ ^ ^ ^ { ^ ^ ^ ^ 1 ^ ^ ^ ^ { Q ( { ^ ^ ^ ^ ^ ^ ^ { ^ ^ ^ ^ ^ ^ { ^ ^ ^ ^ ^ ^ ^ ^ ^ { ^ ^ ^ ^ ^ { ^ ^ ^ ^ ^ ^ ^ { ^ ^ ^ ^ ^ ^ ~ ~ ~ ~ { {   ",
". * ~ ~ ~ ~ ~ ~ ^ { ^ ^ { { ^ ^ ^ ^ ^ [ / [ ^ ^ ^ ^ ^ ^ ^ ^ ^ ^ ^ ^ ^ ^ ^ ^ [ ^ 5 Q / ^ ^ ^ ^ ^ ^ / / ( ^ ^ ^ ^ ^ S ^ ^ ^ ^ ^ ^ ^ { ( 2 R [ { ^ { ^ { ^ { { { { { ^ ^ ^ ^ ^ { { { ^ { ^ ^ ^ ^ ^ ^ ^ ^ ^ ^ ^ ^ ^ ^ ^ ^ ^ ^ ^ ^ ^ { ^ ^ ^ ^ ^ ^ ^ ^ ^ ^ ^ { { { ^ ^ { ^ ^ ^ ^ ^ ^ ^ ^ { { ^ ^ ^ ^ { ^ ^ ^ { ^ ^ ^ ^ ^ ^ { { ^ ^ ^ ^ ^ ^ ^ { ^ ^ ^ ^ ^ ^ ^ ^ ^ ^ ^ ^ ^ ^ ^ 5 ^ ^ { ^ { { ^ ^ { { ^ ^ ^ ^ ^ ^ ^ ^ ^ { ^ ^ { ^ ^ ^ ^ ^ ^ ^ ^ { ^ ^ ^ ^ ^ ^ ^ ^ { ^ ^ ^ ^ ^ ^ ^ ^ ^ ^ ^ ^ { ^ ^ ^ ^ ^ ^ ^ { ^ ^ ~ ~ ~ ^ { ~ ~ ~ { {   ",
". * ~ ~ ~ ~ ~ ~ ^ { ^ ^ { { ^ ^ ^ ^ 7 / { ^ ^ ^ ^ ^ ^ ^ ^ ^ ^ ^ ^ ^ ^ ^ ^ ^ ^ / / | 4 ^ 1 ^ ^ ^ ^ S ^ ^ ^ ^ ^ ^ / ^ ^ ^ ^ ^ ^ ^ ^ { T { { ^ { ^ { ^ { ^ { ^ { ^ ^ ^ ^ { ^ ^ { { { ^ { ^ ^ ^ ^ ^ ^ ^ ^ ^ ^ ^ ^ ^ ^ ^ ^ ^ ^ ^ ^ ^ { ^ ^ ^ ^ ^ ^ ^ ^ ^ ^ ^ { { { ^ ^ { ^ ( ^ ^ ^ ^ { ^ { ^ ^ ^ ^ 2 { ^ ^ ^ ^ ^ ^ ^ ^ ^ ^ { { ^ ^ ^ ^ ^ ^ ^ { ^ ^ ^ ^ ^ ^ ^ ^ ^ ^ { ^ ^ ^ ^ ^ ^ ^ { 6 { { ^ ^ { { ^ ^ ^ ^ 5 ^ ^ ^ ^ 3 ^ ^ { ^ ^ ^ ^ ^ ^ ^ ^ { ^ { ^ ^ ^ { ^ { { ^ { ^ ^ ^ ^ { ^ ^ ^ ^ ^ ^ ^ ^ ^ ^ ^ { ^ ^ ^ ^ ~ ~ ^ { { ~ ~ ~ { {   ",
"  * ~ ~ { ~ ~ ~ { ^ ^ ^ { ~ ^ ^ ^ ^ 7 ^ / ^ ^ ^ ^ ^ ^ ^ ^ ^ ^ ^ ^ ^ ^ ^ ^ ^ ^ ^ ^ ^ ^ ^ ^ ^ ^ 5 5 ^ 1 ^ ^ ^ ^ ^ ^ ^ ^ ^ ^ ^ ^ ^ ^ { ( / { ^ ^ ^ { ^ { ^ ^ ^ { ^ ^ ^ ^ { ^ ^ { { { ^ { ^ [ 2 ^ ^ ^ ^ ^ ^ ^ ^ ^ ^ ^ ^ ^ ^ ^ ^ ^ ^ { ^ ^ ^ ^ ^ ^ ^ ^ ^ ^ [ { { ^ ^ ^ { 1 ( ^ ^ ^ ^ { { { ^ ^ ^ ^ 4 { ^ S S ^ ^ ^ ^ ^ ^ ^ { { ^ ^ ^ ^ ^ ^ ^ { ^ ^ ^ ^ ^ ^ ^ ^ { ^ { ^ { { ^ ^ ^ ^ { ^ { { ^ ^ { { ^ ^ ^ 5 7 ^ ^ ^ { ^ ^ ^ ^ ^ ^ ^ ^ ^ ^ ^ ^ ^ ^ { ^ ^ ^ { { { { { { ^ ^ ^ ^ { ^ ^ ^ ^ ^ ^ ^ ^ ^ ^ ^ { ^ { ^ ^ ~ ^ ^ { { ~ ~ ~ { {   ",
". * ~ ~ { ~ { ~ { ~ ^ ^ { ^ ^ ^ ^ { 2 ^ / ^ ^ ^ ^ ^ ^ ^ ^ ^ ^ ^ ^ ^ ^ ^ ^ ^ ^ ^ ^ ^ ^ ^ ^ ^ ^ 1 / 7 Q ^ ^ ^ ^ ^ ^ 3 ( ^ ^ ^ ^ ^ ^ { { ^ { ^ ^ ^ { ^ { ^ ^ ^ { ^ ^ ^ ^ ^ ^ ^ ^ ^ { ^ { / / ^ ^ ^ ^ ^ ^ ^ ^ ^ ^ ^ ^ ^ ^ ^ ^ ^ ^ ^ ^ ^ ^ ^ ^ ^ ^ ^ ^ ^ 5 ^ ^ ^ ^ { ^ ^ ^ ^ ^ ^ ^ ^ { { { ^ ^ ^ ^ ^ { ^ ^ { ^ ^ ^ ^ ^ ^ { { ^ ^ ^ { ^ ^ ^ ^ { ^ ^ ^ { ^ ^ ^ ^ { { { ^ ^ ^ ^ { { ^ { ^ { 4 { ^ { { ^ ^ ^ ^ ^ ^ ^ ^ { ^ ^ ^ ^ ^ ^ ^ ^ ^ ^ ^ { { ^ { ^ ^ ^ { ^ { ^ { { ^ { ^ ^ { ^ ^ ^ { ^ ^ ^ ^ ^ ^ ^ { ^ { ^ ^ ~ ^ { { ~ ~ ~ ~ { ~   ",
". * ~ ~ { ~ { ~ { { ^ ^ { ^ ^ ^ ^ { ^ ^ / ^ ^ ^ ^ ^ ^ ^ ^ ^ ^ ^ [ 2 ^ ^ ^ ^ ^ ^ ^ ^ ^ ^ 2 1 ^ ^ / 7 { ^ ^ ^ ^ ^ { / / ..^ ^ ^ ^ ^ { { ^ { 3 ( ^ { ^ ^ ^ { ^ { ^ ^ ^ ^ ^ ^ { { ^ { / / [ ^ ^ ^ ^ ^ ^ ^ ^ ^ ^ ^ ^ ^ ^ ^ ^ ^ ^ ^ ^ ^ ^ ^ ^ ^ ^ ^ ^ ^ 5 7 ^ ^ ^ ^ { ^ ^ ^ ^ ^ ^ ^ ^ { { ^ ^ ^ ^ ^ ^ { ^ ^ { ^ ^ ^ ^ ^ ^ { { ^ ^ ^ { ^ ^ ^ ^ { ^ ^ ^ { { ^ ^ ^ { { { ^ ^ ^ ^ { { ^ { ^ { / { ^ { ^ ^ ^ ^ ^ ^ ^ ^ ^ { { ^ ^ { ^ ^ ^ ^ ^ ^ { { { ^ { ^ ^ { ^ ^ { ^ { ^ ^ { ^ ^ { ^ ^ ^ ^ ^ { ^ ^ ^ ^ ^ { ^ { _ ~ ^ ^ { { ~ ~ ~ ~ { ~   ",
". * ~ ~ { ~ { ~ { ^ ^ ^ { ^ ^ ^ ^ { ^ ^ / ^ ^ ^ ^ ^ ^ ^ ^ ^ ^ ^ [ / / ^ ^ ^ ^ ^ ^ ^ ( 7 [ 2 ^ ^ ^ ^ { 5 ^ ^ ^ { { / | 2 ^ ^ ^ ^ ^ { { ^ { 6 / ^ ^ ^ { ^ { ^ { ^ ^ ^ ^ ^ ^ { { / / / [ ^ { ^ ^ ^ ^ ^ ^ ^ ^ ^ ^ ^ ^ ^ ^ ^ ^ ^ ^ ^ ^ ^ ^ ^ ^ ^ ^ ^ ^ ( 1 ^ ^ ^ ^ { ^ ^ ^ ^ ^ ^ ^ ^ { { ^ { ^ ^ ^ 4 { ^ 1 { { ^ ^ ^ ^ ^ { { { ^ ^ { { ^ ^ ^ { { ^ ^ ^ ^ [ ^ ^ { ^ { ^ { ^ ^ { { ^ { ^ { ^ { ^ ^ ^ ^ ^ ^ ^ ^ ^ ^ ^ { ^ ^ ^ { ^ ^ ^ ^ ^ ^ { ^ ^ ^ { ^ ^ { ^ ^ { ^ { ^ ^ { ^ ^ { ^ ^ ^ ^ ^ { ^ ^ ^ ^ ^ { ^ 7 | : ^ ^ { ^ ~ ~ ~ ~ { {   ",
". * ~ ~ { ~ ~ { { ^ ^ ^ { ^ ^ ^ ^ ^ ^ ^ / ^ ^ ^ ^ ^ ^ ^ ^ ^ ^ ^ ^ ^ ^ ^ ^ ^ ^ ^ ^ ^ / 5 ^ ^ ^ ^ ^ ^ { ^ / ^ ^ { { / / R ^ ^ ^ ^ ^ { { ^ ^ { / S ^ ^ { ^ { ^ { ^ ^ ^ ^ ^ ^ { ( / / / ^ ^ { ^ ^ ^ ^ ^ ^ ^ ^ ^ { ^ ^ ^ ^ ^ ^ ^ ^ ^ ^ ^ ^ ^ ^ ^ ^ ^ ^ ^ ^ ^ ^ ^ ^ { ^ ^ ^ ^ ^ ^ ^ ^ { { ^ { ^ ^ ^ ( ^ ^ 1 ^ ^ ( ^ ^ ^ ^ ^ { { ^ ^ { { ^ ^ ^ { { ^ ^ ^ ^ / ^ { { ^ { ^ { ^ ^ { { ^ { ^ { ^ ^ ^ { ^ ^ ^ ^ ^ ^ ^ ^ ^ ^ ^ ^ ^ { ^ ^ ^ ^ ^ ^ ^ ^ ^ { { ^ ^ { ^ ^ ^ ^ { ^ ^ { ^ ^ { ^ ^ ^ ^ ~ ^ ^ ^ ^ ^ ~ { ^ Q / / / ~ ~ ^ ~ ~ ~ ~ { {   ",
". * ~ ~ { ~ ~ { ~ ^ ^ ^ { ^ ^ ^ ^ ^ ^ ^ ^ ~ ^ ^ ^ ^ ^ ^ ^ ^ ^ ^ ^ ^ ^ ^ ^ ^ ^ ^ ^ ^ / / ^ ^ ^ ^ ^ ^ ^ ^ / 2 ^ { ^ 3 / [.^ ^ ^ ^ ^ { { ^ ^ { ^ ^ { { { ^ { ^ { ^ ^ ^ ^ { ^ ^ ^ ^ ^ ^ ^ ^ ^ ^ ^ ^ ^ ^ ^ ^ ^ ^ { ^ ^ ^ ^ ^ ^ ^ ^ ^ ^ ^ ^ ^ ^ ^ ^ { ^ ^ ^ ^ ^ ^ ^ { ^ ^ ^ ^ ^ ^ ^ ^ ^ { ^ { ^ ^ ^ ^ ^ ^ S ^ / 6 ^ ^ ^ ^ ^ { ^ ^ ^ { { ^ ^ ^ { { ^ ^ ^ 7 / ^ { { { { ^ { ^ ^ ^ ^ ^ { ^ { ^ ^ ^ { ^ ^ ^ ^ ^ ^ ^ ^ ^ ^ ^ ^ ^ { ^ ^ ^ ^ ^ ^ ^ ^ ^ { { ^ ^ ^ ^ ^ ^ ^ { ^ ^ { ^ ^ { ^ ^ ^ ^ ^ ^ ^ ^ ^ ^ ~ ~ ^ ^ Q [ T < ~ ~ ~ ~ ~ { { {   ",
". * ~ ~ { ~ { { ~ ^ ^ ^ { ^ ^ ^ ^ ^ ^ ^ ^ ^ ^ ^ ^ ^ ^ ^ ^ ^ ^ ^ ^ ^ ^ ^ ^ ^ ^ ^ ^ ^ | ^ ^ ^ ^ ^ ^ ^ ^ ^ ^ ^ ^ { ^ S / ^ ^ ^ ^ ^ ^ { ^ ^ ^ { ^ ^ { { ^ ^ { ^ { ^ ^ ^ ^ { ^ ^ ^ ^ ^ ^ { ^ ^ ^ ^ ^ ^ ^ ^ ^ ^ ^ { ^ ^ ^ ^ ^ ^ ^ ^ ^ ^ ^ ^ ^ ^ ^ ^ { ^ ^ ^ ^ ^ ^ ^ { ^ ^ ^ ^ ^ ^ ^ ^ ^ { { { ^ ^ ^ ^ ^ ^ ^ { { 1 2 ^ ^ ^ ^ { { ^ ^ ^ ^ ^ ^ ^ { ^ ^ ^ ^ ^ ^ ^ { ^ { { ^ { ^ ^ ^ ^ ^ ^ { { ^ ^ ^ { ^ ^ ^ ^ ^ ^ ^ ^ ^ { ^ ^ ^ { ^ ^ ^ ^ ^ ^ ^ ^ { { ^ { ^ { { { ^ ^ { ^ ^ ^ ^ ^ ^ ..^ ^ ~ ^ ^ 1 [ ~ ^ ^ ^ ^ ^ ^ ^ ^ ^ ^ ^ ~ ~ ~ { { { . ",
". * ~ ~ ~ ~ { { ~ ^ ^ ^ { ^ ^ ^ ^ ^ ^ ^ ^ ^ ^ ^ ^ ^ ^ ^ ^ ^ ^ ^ ^ ^ ^ ^ ^ ^ ^ ^ ^ ^ ( ^ ^ ^ ^ ^ ^ ^ ^ ^ ^ ^ ^ { ^ ^ Q ^ ^ ^ ^ ^ ^ ^ ^ ^ { { ^ ^ { ^ ^ ^ { ^ ^ ^ ^ ^ { { ^ ^ ^ ^ ^ ^ ^ { ^ ^ ^ ^ ^ ^ ^ ^ ^ ^ ^ ^ { ^ ^ ^ ^ ^ ^ ^ ^ ^ ^ ^ ^ ^ ^ { ^ ^ ^ ^ ^ ^ ^ { ^ ^ ^ ^ ^ ^ ^ ^ ^ { { { ^ ^ ^ ^ ^ ^ ^ { ^ ^ [ 2 ^ ^ ^ { { ^ { ^ ^ ^ ^ ^ { ^ ^ ^ ^ ^ ^ ^ { ^ { { ^ { ^ ^ ^ { ^ { ^ { { ^ ^ ^ ^ ^ ^ ^ ^ ^ ^ ^ ^ { ^ ^ ^ { ^ ^ ^ ^ ^ 2 ^ ^ { { ^ { ^ { { { ^ ^ { ^ ^ ^ 3 ( / / | ^ ^ ^ ^ ^ 1 ~ ~ ^ ^ ^ ^ ^ ~ ^ ^ ^ ^ ~ ~ ~ { { {   ",
". * ~ ~ ~ ~ ~ { { ~ ^ ^ ^ ^ ^ ^ ^ ^ ^ ^ ^ ^ ^ ^ ^ ^ ^ ^ ^ ^ ^ ^ ^ ^ ^ ^ ^ ^ ^ ^ ^ ^ ^ 5 | ^ ^ ^ ^ ^ { ^ ^ ^ ^ { ^ ^ 4 ^ ^ ^ ^ ^ ^ ^ ^ { { ^ ^ { { ^ ^ ^ { 3 ^ ^ ^ ^ { { ^ ^ ^ ^ ^ ^ ^ { ^ ^ ^ ^ ^ ^ ^ ^ ^ ^ ^ ^ { ^ ^ ^ ^ ^ ^ ^ ^ ^ ^ ^ ^ ^ ^ ^ ^ ^ ^ ^ ^ ^ ^ { ^ ^ ^ ^ ^ ^ ^ ^ ^ { { ^ ^ ^ ^ ^ ^ ^ ^ { ^ ^ { ^ 1 | ..{ ^ ^ ^ ^ ^ { ^ ^ { ^ ^ ^ ^ { { ^ { ^ { { ^ { ^ ^ ^ { { { ^ { { ^ { ^ ^ ^ ^ ^ ^ ^ ^ ^ ^ ^ ^ ^ ^ { ^ ^ ^ ^ ^ ^ ^ ^ { { ^ { ^ { { { ^ ^ { ^ ^ ^ R [ / / / / / Q ^ ^ ^ ^ ^ ^ ^ ^ ^ ~ ~ ~ ^ ^ ^ ~ ~ ~ ~ { { . ",
". * ~ ~ ~ ~ ~ { { ~ ^ ^ ^ ^ ^ ^ ^ ^ ^ ~ ^ ^ ^ ^ ^ ^ ^ ^ ^ ^ ^ ^ ^ ^ ^ ^ ^ ^ ^ ^ ^ ^ ^ Q / ^ ^ ^ ^ ^ { ^ ^ ^ ^ { ^ ^ ^ ^ ^ ^ ^ ^ ^ ^ { { { ^ / { ^ ^ { ^ { [.{ ^ ^ ^ ^ ^ ^ ^ ^ ^ ^ ^ ^ ^ ^ ^ ^ ^ ^ ^ ^ ^ ^ ^ ^ { { ^ ^ ^ { ^ ^ ^ ^ ^ ^ ^ ^ ^ ^ { ^ ^ ^ ^ ^ ^ ^ { ^ ^ ^ ^ ^ ^ ^ ^ ^ { { ^ ^ ^ ^ ^ ^ ^ ^ ^ 3 2 { ^ ^ 7 ^ { ^ ^ ^ ^ ^ { ( ^ ^ ^ ^ ^ { { { ^ ^ ^ { { 5 ^ ^ ^ { ^ ^ { ^ ^ ^ ^ { ^ ^ ^ ^ ^ ^ ^ ^ ^ ^ ^ ^ ^ ^ ^ ^ ^ ^ ^ ^ ^ ^ ^ { { ^ ^ ^ ^ ^ ^ ^ ^ { ^ ^ Q 4 ^ / / / / / { { ^ ^ ^ ^ ^ ^ ~ ~ ~ ~ ~ ^ ^ ^ ~ ~ ~ ~ { ~ . ",
"  * ~ ~ ~ ~ ~ ~ ~ ~ ^ ^ { ^ ^ ^ ~ ~ ~ ~ ^ ^ ^ ^ ^ ^ ^ ^ ^ ^ ^ ^ ^ ^ ^ ^ ^ ^ ^ ^ ^ ^ ^ / 3 ^ ^ ^ ^ ^ ^ ^ ^ ^ ^ { ^ ^ ^ ^ ^ ^ ^ ^ ^ ^ { ^ ^ / / { / / { ^ Q / { ^ ^ ^ { ^ ^ { { ^ ^ ^ ^ ^ ^ ^ ^ ^ ^ ^ ^ ^ ^ ^ ^ ^ { ^ ^ ^ { ^ ^ ^ ^ ^ ^ ^ 5 [ ^ ^ ^ ^ ^ ^ { ^ ^ { ^ ^ ^ ^ ^ ^ ^ ^ ^ ^ { ^ ^ ^ ^ ^ ^ ^ ^ ^ ^ ^ { ^ ^ ^ ^ { ^ ^ ^ ^ 5 { ^ ^ ^ ^ ^ { { ^ ^ ^ { ^ { { ^ ^ ^ ^ { ^ ^ { { ^ ^ ^ { ^ ^ ^ ^ ^ ^ ^ ^ ^ ^ ^ ^ ^ ^ ^ ^ ^ ^ ^ ^ ^ ^ ^ { { ^ ^ ^ ^ ^ ^ ^ ^ { ^ ^ ^ ^ ^ 5 ^ / 2 ^ { { ^ ^ ^ ^ ^ { ~ ~ ~ ^ ^ ^ ^ ~ ~ ~ { ~ { ~   ",
"  * ~ ~ ~ ~ ~ ~ ~ ~ ~ ^ ^ ^ ^ ^ ~ ~ ~ ^ ^ ^ ^ ^ ^ ^ ^ ^ ^ ^ ^ ^ ^ ^ ^ ^ ^ ^ ^ ^ 4 1 ( 4 7 ^ ^ ^ ^ ^ ^ ^ ^ ^ ^ { ^ ^ ^ ^ ^ ^ ^ ^ ^ { { { { { / / / / / ^ ^ { ^ ^ ^ { { { ^ ^ ^ ^ ^ ^ { ^ ^ ^ ^ ^ ^ ^ ^ ^ ^ ^ ^ { ^ ^ ^ ^ { ^ ^ ^ ^ ^ ^ ^ ^ ^ ^ ^ ^ ^ ^ ^ { { ^ { ^ ^ ^ ^ ^ ^ ^ ^ ^ ^ { ^ ^ ^ ^ ^ ^ ^ ^ ^ ^ ^ ^ ^ ^ ^ ^ { ^ ^ ^ { ^ { ^ ^ { ^ { ^ { ^ ^ ^ { ^ { { ^ ^ ^ 1 { { ^ { { ^ ^ ^ ^ ^ ^ ^ ^ ^ ^ ^ ^ ^ ^ ^ ^ ^ ^ ^ ^ ^ ^ ^ ^ ^ ^ { { { ^ ^ ^ { { ^ ^ ^ { ^ ^ ^ ^ ^ ^ ^ ^ ^ ^ ^ { ^ ^ ^ ^ ^ ~ ~ ^ ^ ^ ^ ^ { ~ ~ ~ { ~ { ~ . ",
"  * ~ ~ ~ ~ ~ { ~ ~ < ^ ^ ^ ^ ^ ^ ^ ^ ^ ^ ^ ^ ^ ^ ^ ^ ^ ^ ^ ^ ^ ^ ^ ^ ^ ^ ^ ^ ^ | 7 1 2 ^ ^ ^ ^ ^ ^ ^ ^ ^ ^ 7 { ^ ^ ^ ^ ^ ^ ^ ^ ^ { { { / { / / / / / ^ ^ ^ ^ ^ ^ { { ^ ^ ^ ^ ^ ^ ^ ^ ^ ^ ^ ^ { ^ ^ ^ ^ ^ ^ ^ ^ ^ ^ ^ ^ { ^ ^ ^ ^ ^ ^ ^ ^ ^ ^ R ^ ^ ^ ^ { { ^ { ^ ^ ^ ^ ^ ^ ^ ^ ^ ^ ^ ^ ^ ^ ^ ^ ^ ^ ^ ^ ^ ^ ^ ^ ^ ^ ^ { ^ ^ ^ { ^ { ^ ^ { ^ { 7 { ^ ^ ^ { T { { ^ ^ 3 / ^ { { { { { ^ ^ ^ { ^ ^ ^ ^ ^ ^ ^ [ ^ ^ ^ ^ ^ ^ ^ ^ ^ ^ ^ ^ ^ { { { ^ ^ { { { ^ ^ ^ { ^ ^ { ^ ^ ^ ^ ^ ^ ^ { { ~ ^ ^ ^ ^ ~ ~ ^ ^ ^ ^ ^ { ^ ~ ~ { ~ { ~ . ",
"  * ~ ~ ~ ~ ~ { ~ ~ / ^ ^ ^ ^ ^ ^ ^ ^ { ^ ^ ^ ^ ^ ^ ^ ^ ^ ^ ^ ^ ^ ^ ^ ^ ^ ^ ^ ^ 7 ^ 2 ( ^ ^ ^ ^ ^ ^ ^ ^ ^ ^ / { 7 ^ ^ ^ ^ ^ ^ ^ ^ { { { / / / { / { / ^ 3 ^ ^ ^ ^ { { { ^ ^ { ^ ^ ^ ^ { ^ ^ ^ { ^ ^ ^ ^ ^ ^ ^ ^ { ^ ^ ^ { ^ ^ ^ ^ ^ ^ ^ ^ ^ ^ / ^ ^ ^ { ^ ^ ^ { ^ ^ ^ ^ ^ ^ ^ ^ ^ ^ ^ ^ ^ ^ ^ ^ ^ ^ ^ ^ ^ { ^ ^ ^ ^ ^ { ^ ^ ^ ^ ^ { ^ ^ { ^ { ^ ^ ^ ^ 7 { { { ^ ^ ^ R / { { { { { ^ ^ ^ ^ ^ ^ ^ ^ ^ ^ ^ ^ / 1 ^ ^ ^ ^ ^ ^ ^ ^ ^ ^ ^ { { { { ^ { { { { { ^ ^ { ^ ^ { ^ ^ ~ ^ ^ ^ ^ { { ~ ~ ^ ^ ^ { ~ ^ ^ ^ ~ ^ { ^ ~ ~ { ~ ~ ~ . ",
"  * ~ ~ ~ ~ ~ ~ { ~ < ^ ^ ^ ^ ^ ^ ^ ^ { ^ ^ ^ ^ ^ ^ ^ ^ ^ ^ ^ ^ ^ ^ ^ ^ ^ ^ ^ ^ ^ / ^ ^ ^ ^ ^ ^ ^ ^ ^ ^ ^ ^ ^ { ^ ^ ^ ^ ^ ^ ^ ^ ^ { { ^ / / 2 { ^ { ^ ^ / ^ ^ ^ 2 { ^ { | / { ^ ^ ^ ^ ^ ^ ^ ^ ^ ^ ^ ^ ^ ^ ^ ^ ^ { ^ 1 ^ ^ ^ ^ ^ ^ ^ ^ ^ ^ ^ ^ ^ ^ ^ ^ { ^ ^ 2 ^ ^ ^ ^ ^ ^ ^ ^ ^ ^ ^ ^ ^ ^ ^ ^ ^ ^ ^ ^ ^ ^ { ^ ^ ^ ^ 7 { 1 ^ ^ ^ ^ { ^ ^ { ^ ^ ^ ^ ^ ^ ^ { { { 5 ^ ^ ( 6 ^ ^ { { ^ ^ { { ^ ^ ^ ^ ^ ^ ^ ^ ^ ^ ^ ^ ^ ^ ^ ^ ^ ^ ^ ^ ^ ^ { { { ^ ^ ^ ^ { { { ^ { { ^ ^ { ^ ~ ^ ^ ^ ~ ~ { ~ ~ ~ ^ ^ ^ ~ ^ ^ ^ ^ ~ ~ { ^ ~ ~ { ~ ~ ~ . ",
"  * ~ ~ ~ ~ ~ ~ { ~ ~ ~ ~ ~ ^ ~ ~ ^ ^ ^ ^ ^ ^ ^ ^ ^ ^ ^ ^ ^ ^ ^ ^ ^ ^ ^ ^ ^ ^ ^ ^ ( 1 ^ ^ ^ ^ ^ ^ ^ ^ ^ ^ ^ ^ ^ ^ ^ ^ ^ ^ ^ ^ ^ ^ { { ^ ^ ^ ^ { ^ { ^ ^ ^ ^ ^ ^ ^ / ^ { ^ / / ^ ^ { { ^ ^ ^ ^ ^ ^ ^ ^ ^ ^ ^ ^ ^ { ^ ^ ^ ^ ^ ^ ^ ^ 1 ^ ^ ^ ^ ^ ^ ^ ^ ^ ^ ^ ^ ^ ^ 2 ^ ^ ^ ^ ^ ^ ^ ^ { { ^ ^ ^ ^ ^ ^ ^ ^ ^ ^ ^ ^ ^ ^ ^ | { ^ ^ { ^ ^ ^ ^ ^ { ^ ^ { ^ 3 [ 2 { { { ( ^ { ^ ^ ^ ^ { { ^ ^ ^ { { { ^ ^ ^ ^ ^ ^ ^ ^ ^ ^ ^ ^ ^ ^ ^ ^ ^ ^ ^ ^ { ^ ^ ^ ^ ^ ^ { { { ^ { { ^ ^ ^ ^ ^ ^ ^ ~ ~ ~ ~ ~ ~ ^ ^ ^ ^ ^ ^ { ^ ~ ~ ~ { ^ ~ ~ ~ ~ ~ ~   ",
"  * ~ ~ ~ ~ ~ ~ { ~ ~ ~ ~ ~ ~ ~ ~ ~ ^ ^ ^ ^ ^ ^ ^ ^ ^ ^ 1 ^ ^ ^ ^ ^ ^ ^ ^ ^ ^ ^ ^ ^ ^ ^ ^ ^ ^ ^ ^ ^ ^ ^ ^ ^ ^ ^ ^ ^ ^ ^ ^ ^ ^ ^ ^ ^ { ^ ^ { ^ { { { ^ ^ ^ ^ { ^ ^ R ^ ^ ^ ^ / Q ^ { ^ { ^ ^ | / / [ ^ ^ { ^ ( ^ { ^ ^ ^ ^ ^ ^ ^ [ ^ ^ ^ ^ ^ { ^ ^ ^ ^ { ^ ^ ^ ^ / ^ ^ ^ ^ ^ ^ ^ ^ { { ^ ^ ^ ^ ^ ^ ^ ^ ^ ^ ^ ^ { ^ S 4 { ^ ^ { { ^ ^ ^ ^ { ^ ^ { ^ ^ / 7 { { { ^ ^ { ^ ^ ^ ^ { ^ ^ ^ ^ { { ^ ^ ^ ^ ^ ^ ^ ^ ^ ^ ^ ^ ^ ^ ^ ^ ^ ^ ^ ^ { { { ^ ^ ^ ^ { { { { ^ { { { ^ ^ ^ ^ ^ ^ ~ ~ ~ ~ ~ ^ ^ ^ ^ ^ ^ ^ { ~ ~ ~ ~ ^ ^ ~ ~ ~ ~ ~ ~   ",
"  * ~ ~ ~ ~ ~ { { ~ ~ ^ ~ ^ ~ ~ ~ ^ ^ ^ ^ ^ ^ ^ ^ ^ ^ ^ R ^ ^ ^ ^ ^ ^ ^ ^ ^ ^ ^ ^ ^ ^ ^ ^ ^ ^ ^ ^ ^ ^ ^ ^ ^ ^ ^ ^ ^ ^ ^ ^ ^ ^ ^ ^ ^ ^ ^ ^ ^ ^ { { { ^ ^ { ^ ^ ^ ^ { ^ { ( { { ^ ^ { ^ { ^ / Q / / / 3 6 { ^ ^ ^ ^ ^ ^ ^ ^ ^ ^ ^ 1 / ^ ^ ^ ^ { ^ ^ ^ ^ { ^ { ^ ^ ^ ^ ^ ^ ^ ^ ^ ^ ^ { { ^ ^ ^ ^ ^ ^ ^ ^ ^ ^ { ^ { ^ ^ ^ ^ ^ ^ { { { ^ ^ ^ { ^ ^ { { { / { { ( { ^ ^ { ^ ^ ^ ^ { ^ ^ { ^ ^ { ^ ^ ^ ^ ^ ^ ^ ^ ^ ^ ^ ^ ^ { ^ ^ ^ ^ ^ ^ { { { ^ ^ ^ ^ { { { { ^ ^ { { ^ { ^ ^ ^ ~ ^ ^ ~ { ~ ^ ^ ^ ^ ^ ^ ^ ^ ~ ~ ~ ~ ^ ^ ~ ~ ~ ~ ] / @ ",
"@ , ~ ~ ~ ~ ~ { { ~ ~ ~ ~ ~ ~ ~ ~ ^ ^ ^ ^ ^ ^ ^ ~ ^ ^ ^ / ( ^ ^ ^ ^ ^ ^ ^ ^ ^ ^ ^ ^ ^ ^ ^ ^ ^ ^ ^ ^ ^ ^ ^ ^ ^ ^ ^ ^ ^ ^ ^ ^ ^ S | { ^ { ^ { ^ ^ ^ ^ { { ^ ^ ^ ^ ^ { { { [ { ^ ^ ^ { ^ ^ | / / / 4 / ( ^ ^ ^ { ^ { ^ ^ ^ ^ ^ ^ ^ ^ ^ ^ ^ ^ ^ { ^ ^ ^ ^ ^ ^ { ^ 1 ^ ^ ^ ^ ^ ^ ^ ^ ^ { { ^ ^ ^ ^ ^ ^ ^ ^ ^ ^ { ^ ^ ^ ^ ^ ^ ^ ^ ^ ^ ^ ^ ^ ^ ^ ^ ^ { { { 2 { { ^ { ^ ^ { ^ ^ ^ ^ { { ^ { { ^ { ^ ^ ^ ^ ^ ^ ^ ^ ^ ^ ^ ^ ^ { ^ ^ ^ ^ ^ ^ { ^ { ^ ^ ^ { { { { ^ ^ ^ { { 4 { ^ ^ 6 ^ ^ ^ ^ ^ ~ ^ ^ ^ ^ ^ { ^ ^ ~ ~ ~ ~ { ^ ~ : { / { / @ ",
"@ = ~ ~ ~ ~ ~ { ~ ^ ^ ^ ^ ^ ~ ~ ^ ^ ~ ^ ^ ~ ^ ~ ~ ^ ^ ^ ^ S ^ ^ ^ ^ ^ ^ ^ ^ ^ ^ ^ ^ ^ ^ ^ ^ ^ ^ ^ ^ ^ ^ ^ ^ ^ ^ ^ ^ ^ ^ ^ ^ / / / { ^ { ^ { ^ ^ { ^ { ^ { ^ ^ ^ ^ { ^ { / { ^ ^ ^ { ^ ^ ^ ^ ^ 2 [ ^ ^ ^ { ^ ^ ^ ( / ^ ^ ^ ^ ^ ^ ^ ^ ^ ^ ^ ^ { ^ ^ ^ ^ ^ ^ { 1 { ^ ^ ^ ^ ^ ^ ^ ^ ^ ^ ^ ^ ^ ^ ^ ^ ^ ^ ^ ^ ^ { ^ ^ ^ { ^ ^ ^ ^ ^ { { ^ ^ ^ ^ ^ ^ { { { ^ { { ^ { ^ ^ ^ ^ ^ ^ ^ { { ^ { { ^ { ^ ^ ^ ^ ^ ^ ^ ^ ^ ^ ^ ^ ^ { ^ ^ ^ ^ ^ ^ { ^ { ^ ^ ^ ^ { ^ { ^ ^ ^ ^ ^ 7 { ^ ^ ~ ^ ^ ^ ^ ~ ^ ~ ~ ~ ~ ~ { ^ ~ ~ ~ ~ ~ ~ ^ ~ / { / { / @ ",
"  * ~ ~ ~ ~ ~ ~ ~ ^ ^ ^ ^ ^ ~ ~ ^ ~ ~ ~ ^ ~ ~ ~ ~ ^ ^ ^ ^ ^ ^ ^ ^ ^ ^ ^ ^ ^ ^ ^ ^ ^ ^ ^ ^ ^ ^ ^ ^ ^ ^ ^ ^ ^ ^ ^ ^ ^ ^ ^ ^ ^ / / / { { { { ^ ^ ^ { ^ { ^ { ^ { ^ ^ { { { / 7 ^ ^ ^ { ^ ^ ^ ^ ^ ^ ^ ^ ^ ^ { ^ ^ ^ / / ^ ^ ^ ^ ^ ^ ^ ^ ^ ^ ^ ^ { ^ ^ ^ ^ ^ ^ { ^ ^ ^ ^ ^ ^ ^ ^ ^ ^ ^ ^ ^ ^ ^ ^ ^ ^ ^ ^ ^ ^ ^ { ^ ^ { { ^ ^ { ^ ^ { { ^ ^ { ^ ^ ^ { { { ^ { { ^ { ^ ^ { ^ 1 ^ ^ { { ^ { { ^ { ^ ^ ^ ^ ^ ^ ^ ^ ^ ^ ^ ^ ^ ^ ^ ^ ^ ^ ^ ^ { ^ ^ ^ ^ ^ ^ { ^ { ^ ^ { ^ ^ 2 { ^ ^ ^ ^ ^ ^ ^ ^ ~ ~ ~ ~ ~ ^ { ~ ~ ~ ~ ~ ~ { ^ ~ / { / { / . ",
"  * ~ ~ ~ ~ ~ { ~ ^ ^ ~ ~ ~ ~ ~ ~ ~ ~ { ~ ~ ~ ~ ~ ^ ^ ^ ^ ^ ^ ^ ^ ^ ^ ^ ^ ^ ^ ^ ^ ^ ^ ^ 5 ( ^ ^ ^ ^ ^ ^ ^ ^ ^ ^ ^ ^ ^ ^ ^ 1 ^ ^ 7 / ^ { { ^ ^ ^ { ^ ^ { ^ ^ { ^ ^ { { { / ( ^ ^ ^ { { { ^ ^ ^ ^ ^ ^ ^ ^ ^ ^ ^ ^ ^ 5 ^ ^ ^ ^ ^ ^ ^ ^ ^ ^ ^ ^ { ^ ^ ^ ^ { ^ { ^ ^ ^ ^ ^ ^ ^ ^ ^ ^ ^ ^ { ^ ^ ^ ^ ^ ^ ^ ^ ^ ^ ^ ^ ^ ^ { ^ ^ ^ ^ { { { ^ ^ { ^ ^ ^ { { ^ ^ 5 { ^ ^ ^ ^ { ^ ^ ^ ^ { { ^ { ^ ^ { ^ ^ ^ ^ ^ ^ ^ ^ ^ ^ ^ ^ ^ ^ ^ ^ ^ ^ ^ ^ { ^ ^ ^ ^ ^ ^ { ^ ^ { ^ { ^ ^ ^ { ^ ^ ^ ^ ^ ^ ^ ^ ^ ^ ~ ~ ^ ^ ~ ~ ~ ~ ~ ~ ^ { ^ ~ ~ { { { / . ",
"  * ~ ~ ~ ~ ~ { ~ ^ ^ ~ ~ ~ ~ ~ ^ ~ ~ { ~ ~ ^ ~ ~ ~ ^ ^ ^ ^ ^ ^ ^ ^ ^ ^ ^ ^ ^ ^ ^ ^ ^ ^ ^ ^ ^ ^ ^ ^ ^ ^ ^ ^ ^ ^ ^ ^ ^ ^ ^ ^ ^ ^ ^ / ^ { ^ ^ ^ ^ { ^ ^ ^ ^ ^ ^ ^ ^ { ^ ^ { T ^ ^ ^ { { { ^ ^ ^ ^ ^ ^ ^ ^ ^ ^ ^ ^ ^ { ^ ^ ^ ^ ^ ^ ^ ^ ^ ^ ^ ^ ^ ^ ^ ^ ^ { ^ ^ ^ ^ ^ ^ ^ ^ ^ ^ ^ ^ ^ { { ^ ^ ^ ^ ^ ^ ^ ^ ^ ^ ^ ^ ^ { ^ ^ ^ ^ ^ { { { ^ ^ { ^ { ^ { ^ ^ ^ { ^ ^ ^ ^ ^ { ^ ^ ^ ^ { { ^ ^ { ^ { ^ ^ ^ ^ ^ ^ ^ ^ { ^ ^ ^ ^ ^ 5 ^ ^ ^ ^ ^ { ^ ^ { ^ 5 { { ^ { ^ ^ { { 4 ^ { ^ ^ ^ ^ ^ ~ ~ ~ ^ ^ ~ ~ ^ ^ ^ ~ ~ ~ ~ ~ ^ ^ ^ ~ ~ ~ { { { . ",
"  * ~ ~ ~ ~ ~ { ~ ^ ~ ~ ~ ^ ^ ~ ^ ^ ^ { ^ ^ ^ ^ ^ ^ ^ ^ ^ ^ ^ ^ ^ ^ ^ ^ ^ ^ ^ ^ ^ ^ ^ ^ ^ ^ ^ ^ ^ ^ ^ ^ ^ ^ ^ ^ ^ ^ ^ ^ ^ ^ 2 T 1 / / { { { ^ ^ ^ ^ ^ ^ ^ ^ ^ ^ ^ { ^ ^ { ^ { ^ ^ ^ ^ ^ ^ ^ ^ ^ ^ ^ ^ ^ ^ ^ ^ ^ ^ ^ ^ ^ ^ ^ ^ ^ ^ ^ ^ ^ ^ ^ { ^ ^ ^ ^ { ^ ^ ^ ^ ^ ^ ^ ^ ^ ^ ^ ^ ^ ^ ^ ^ ^ ^ ^ ^ ^ ^ ^ ^ ^ ^ ^ ^ ^ ^ ^ ^ ^ ^ { { { ^ ^ ^ ^ { ^ { { ^ ^ ^ ^ ^ ^ ^ ^ { ^ ^ ^ ^ { { ^ ^ { ^ { ^ ^ ^ ^ ^ ^ ^ ^ { ^ ^ ^ ^ ^ ^ ^ ^ ^ ^ ^ { ^ / { ^ ^ { { ^ { ^ ^ { { ^ ^ ^ ^ ^ ^ ^ ^ ~ ~ ~ / ( < ~ ^ ^ ^ ^ ~ ~ ~ ~ ^ ^ ^ ~ ~ ~ { ~ ~   ",
"  * ~ ~ ~ ~ ~ { ~ ~ ~ ~ ^ ^ ^ ^ ^ ^ ^ { ^ ^ ^ ^ ^ ^ ^ ^ ^ ^ ^ ^ ^ ^ ^ ^ ^ ^ ^ ^ ^ ^ ^ R T ^ ^ ^ ^ ^ ^ ^ ^ ^ ^ ^ ^ ^ ^ ^ ^ 2 / / / / / { { ^ ^ ^ ^ ^ ^ ^ ^ ^ ^ / { { ^ S { ^ { ^ ^ ^ ^ ^ ^ ^ ^ ^ ^ ^ ^ ^ ^ ^ ^ ^ ^ ^ ^ ^ ^ ^ ^ ^ ^ ^ ^ ^ ^ ^ { ^ ^ ^ ^ { ^ { ^ ^ ^ ^ ^ ^ ^ ^ ^ ^ ^ ^ ^ ^ ^ ^ ^ ^ ^ ^ ^ ^ ^ ^ ^ ^ { ^ ^ ^ ^ ^ { ^ { ^ ^ { ^ { ^ { { ^ ^ { { ^ ^ ^ ^ { ^ ^ ^ ^ { { ^ { { ^ { ^ ^ ^ ^ ^ ^ ^ ^ ^ ^ ^ ^ ^ ^ ^ ^ { ^ ^ ^ { S { { ^ ^ { { ^ { ^ ^ { { ^ ^ ^ ^ ^ ..^ ~ ~ / / / 7 / ~ ~ : ~ ^ ~ ~ ~ ~ ~ ~ ~ ~ ~ ~ { ~ ~   ",
"  * ~ ~ ~ ~ ~ { ~ ~ ^ ^ ^ ^ ~ ~ ^ ~ ^ { ^ ^ ^ ^ ^ ^ ^ ^ ^ ^ ^ ^ ^ ^ ^ ^ ^ ^ ^ ^ ^ ^ / / ^ ^ ^ ^ ^ ^ ^ ^ ^ ^ ^ ^ ^ ^ ^ ^ ^ ^ / / / / / { { { / / ^ ^ ^ ^ ^ ^ ^ ^ { { ^ ^ { ^ { ^ ^ ^ ^ ^ ^ ^ ^ ^ ^ ^ ^ ^ ^ ^ ^ ^ ^ ^ ^ ^ ^ ^ ^ ^ ^ ^ ^ ^ ^ ^ { ^ ^ ^ ^ { ^ { ^ ^ ^ ^ ^ ^ ^ ^ ^ ^ ^ ^ 1 ( ^ ^ ^ ^ ^ ^ ^ ^ ^ ^ ^ { { ^ ^ ^ ^ ^ ^ ^ { ^ ^ ^ ^ ^ ^ ^ { ^ { { { ^ ^ ^ ^ { ^ ^ ^ ^ { { { { { { { ^ ^ ^ ^ { ^ ^ ^ ^ ^ ^ ^ ^ ^ ^ ^ { ^ ^ ^ ^ S { { ^ ^ { { ^ { ^ ^ { { R ^ ^ ^ ^ ^ ^ { < 5 < ^ ~ ~ ~ ~ ~ ~ ~ ~ ~ ~ ~ ~ ~ ~ ~ ~ ~ { ~ ~   ",
"  * ~ ~ ~ ~ ~ { ~ ~ ^ ^ ^ ~ ~ ~ ~ ~ ~ { ^ ^ ^ ^ ^ ^ ^ ^ ^ ^ ^ ^ ^ ^ ^ ^ ^ ^ ^ ^ ^ 7 / | ^ 2 ^ ^ / / ^ ^ ^ ^ ^ ^ ^ ^ ^ ^ ^ ^ ^ / / / { / { { / / { { ^ { ^ ^ ^ ^ { { ^ / { ^ { ^ ^ { ^ ^ ^ ^ ^ ^ ^ ^ ^ ^ ^ ^ ^ ^ ^ ^ ^ ^ ^ ^ ^ ^ ^ ^ ^ ^ ^ ^ { ^ ^ ^ ^ ^ ^ { ^ ^ ^ ^ ^ ^ ^ ^ ^ ^ ^ ^ ( ^ ^ ^ ^ 1 ^ ^ ^ ^ ^ ^ ^ { ^ ^ ^ ^ ^ ^ { ^ { ^ ^ { ^ ^ ^ ^ ^ ^ ^ ^ { ^ ^ ^ { { ^ ^ ^ ^ { { { { { { { ^ ^ ^ ^ { ^ ^ ^ ^ ^ ^ ^ ^ ^ ^ ^ { ^ ^ ^ ^ ^ / ^ ^ ^ { { ^ { ^ { ^ { ^ S ^ ^ ^ 1 ^ ^ [.: ~ ~ ~ ~ ~ ~ ~ ~ ~ ~ ~ ~ ~ ~ ~ ~ ~ { { { ~ ~   ",
"  * ~ ~ ~ ~ ~ ~ ~ ~ ^ ^ ~ ~ ~ ~ ~ ~ { { ^ ^ ~ ~ ~ ^ ^ ^ ^ ^ ^ ^ ^ ^ ^ ^ ^ ^ ^ ^ ^ / / ^ ^ ^ ^ / / / Q ^ ^ ^ ^ ^ ^ ^ ^ ^ ^ ^ ^ ^ ^ { { / { { S / ^ { ^ { ^ ^ ^ ^ { { ^ S ^ ^ { ^ ^ { ^ ^ ^ ^ ^ ^ ^ ^ ^ ^ ^ ^ ^ ^ ^ ^ ^ ^ ^ ^ ^ ^ ^ ^ ^ ^ ^ ^ { ^ ^ ^ ^ ^ ^ ^ ( ^ ^ ^ ^ ^ ^ ^ ^ ^ ^ ^ ^ ^ ^ ^ ^ ^ ^ ^ ^ ^ ^ ^ ^ ^ ^ { ^ { ^ ^ { ^ { ^ ^ { ^ ^ ^ { ^ ^ ^ ^ ^ ^ { ^ { { { ^ ^ ^ { { { { { { { ^ ^ ^ ^ { ^ ^ ^ ^ ^ ^ ^ ^ ^ ^ ^ ^ ^ ^ ^ ^ 6 / ^ ^ ^ { { ^ { ^ { { { ^ ^ ^ ^ ^ ~ ^ ..~ ~ ~ ~ ~ ^ ~ ~ ~ ~ ~ ~ ~ ^ ~ ~ ~ ~ ~ ~ ~ ~ ~ ~   ",
"  * ~ ~ ~ ~ ~ ~ ~ ^ ~ ~ ~ ~ ~ ~ ~ ~ { { ~ ~ ~ ~ ^ ^ ^ ^ ^ ^ ^ ^ ^ ^ ^ ^ ^ ^ ^ ^ ^ ^ ^ ^ ^ ^ / / / / ^ ^ ^ ^ ^ ^ ^ ^ ^ ^ ^ ^ ^ ^ ^ { { ^ { { ^ 6 ^ { ^ { ^ ^ ^ ^ ^ { ^ ^ { ^ ^ ^ ^ ^ ^ ^ ^ ^ ^ ^ ^ ^ ^ ^ ^ ^ ^ ^ ^ ^ ^ ^ ^ ^ ^ ^ ^ ^ ^ ^ ^ ^ ^ ^ ^ ^ ^ 5 ^ ^ ^ ^ ^ ^ ^ ^ ^ ^ ^ ^ ^ ^ ^ ^ ^ ^ ^ ^ ^ ^ ^ ^ ^ ^ ^ ^ ^ ^ { ^ ^ ^ { ^ { ^ ^ { ^ ^ ^ ^ ^ ^ ^ ^ { ^ ^ ^ { ^ { ^ ^ ^ { { { { { ^ ^ ^ ^ ^ ^ ^ ^ ^ ^ ^ ^ ^ ^ ^ ^ ^ ^ ^ ^ ^ ^ { 5 7 ^ ^ ^ { { ^ { ^ { { { ^ ^ ^ ^ ~ ~ ~ ~ ~ ~ ^ ^ ~ ~ ^ ^ ~ ~ ~ ~ ~ ^ ~ ~ ~ ~ ~ ~ ~ ~ ~ {   ",
"  * ~ ~ ~ ~ ~ ~ ~ ~ ~ ~ ~ ~ ~ ~ ~ ~ { ^ ~ ~ ~ ^ / ( / | ^ ^ ^ ^ ^ ^ ^ ^ ^ ^ ^ ^ ^ ^ ^ ^ ^ ^ / / / / ^ ^ ^ ^ ^ ^ ^ ^ ^ ^ ^ ^ ^ ^ ^ { { ^ { ^ ^ ^ ^ { ^ { ^ ^ ^ ^ ^ { ^ ^ ^ ^ ^ ^ ^ ^ ^ ^ ^ ^ ^ ^ ^ ^ ^ ^ ^ ^ ^ ^ ^ ^ ^ ^ ^ ^ ^ ^ ^ ^ ^ ^ ^ ^ ^ 1 ^ ^ ^ ( ^ ^ ^ ^ ^ ^ ^ ^ ^ ^ ^ ^ ^ ^ ^ ^ ^ ^ ^ ^ ^ ^ ^ ^ ^ { ^ ^ ^ ^ ^ ^ ^ ^ { ^ { ^ ^ { ^ ^ ^ ^ ^ ^ ^ ^ ^ ^ ^ ^ { ^ { ^ ^ ^ { { ^ { { ^ { ^ ^ ^ ^ ^ ^ ^ ^ ^ ^ ^ ^ ^ ^ ^ { ^ ^ ^ ^ { { ^ ^ ^ ^ ^ { ^ { ^ { { ^ ^ ^ ^ ^ ~ ~ ~ ~ ~ ~ ~ ~ ~ ~ ~ ~ ~ ~ ~ ~ ~ ~ ~ ~ ~ ~ ~ { ~ { ~ {   ",
"  * ~ ~ ~ ~ ~ { ~ ~ ~ ~ ~ ^ ^ ^ ^ ^ ^ ^ ~ ^ ^ / / / / / ^ ^ ^ ^ ^ ^ ^ ^ ^ ^ ^ ^ ^ ^ ^ ^ ^ ^ / / / / / ^ ^ ^ ^ ^ ^ ^ ^ ^ ^ { ^ ^ ^ { ^ ^ { ^ { ^ ^ { ^ ^ ^ ^ { ^ ^ ^ { ^ ^ ^ ^ ^ ^ ^ ^ ^ ^ ^ ^ ^ ^ ^ ^ ^ ^ ^ ^ ^ ^ { ^ ^ ^ ^ ^ ^ ^ ^ ^ ^ ^ ^ ^ ^ ^ ^ ^ ^ ^ ^ ^ ^ ^ ^ ^ ^ ^ ^ ^ ^ ^ ^ ^ ^ ^ ^ ^ ^ ^ ^ ^ ^ ^ ^ 1 ^ ^ ^ ^ ^ ^ ^ ^ { { ^ { ^ ^ ^ ^ ^ ^ ^ ^ ^ { ^ ^ ^ ^ ^ ^ ^ ^ { { ^ ^ { ^ ^ { ^ ^ ^ ^ ^ ^ ^ ^ ^ ^ ^ ^ ^ ^ ^ { ^ ^ ^ ^ { { ^ { ^ ^ { { ^ { ^ { ^ ^ ^ ^ ^ ^ ^ ~ ~ ~ ~ ~ ~ ~ ~ ~ ~ ~ ~ ~ ~ ~ ~ ~ ~ ~ < ~ ~ { ~ { ~ {   ",
"  * ~ ~ ~ ~ ~ ~ ~ ^ ~ ~ ~ ^ ^ ^ ^ ^ ^ ^ ^ ^ ^ / / / / / ^ ^ ^ ^ ^ ^ ^ ^ ^ ^ ^ ^ ^ ^ ^ ^ ^ ^ / / / / / ^ ^ ^ ^ ^ ^ ^ ^ ^ ^ { ^ ^ ^ ^ ^ ^ { ^ ^ ^ ^ { { ^ ^ ^ ^ ^ ^ ^ { ^ ^ ^ ^ ^ ^ ^ ^ ^ ^ ^ ^ ^ ^ ^ ^ ^ ^ ^ { ^ ^ { ^ ^ ^ ^ ^ ^ ^ ^ ^ ^ S [ ^ ^ ^ ^ ^ ^ ^ ^ ^ ^ ^ ^ ^ ^ ^ ^ ^ ^ ^ ^ ^ ^ ^ ^ ^ ^ ^ ^ [ ^ ^ ^ ^ { ^ ^ ^ ^ ^ ^ ^ { { 1 [ { ^ 4 ^ ^ ^ ^ ^ ^ { ^ ^ ^ ^ ^ ^ ^ ^ { { ^ ^ ^ { ^ { ^ ^ ^ ^ ^ ^ ^ ^ ^ ^ ^ ^ ^ ^ ^ { ^ { ^ ^ { { ^ { ^ ^ { { ^ { ^ ^ ^ ^ ^ ^ ^ ^ ^ ~ ~ ~ ~ ~ ~ ~ ~ ~ ~ ~ ~ ~ ~ ~ ~ ~ ~ ~ ~ ~ ~ ~ ~ { ~ {   ",
"  * ~ ~ ~ ~ ~ ~ ~ ~ ~ ~ ~ ^ ^ ^ ^ ^ ^ ^ ^ ^ ^ ^ 5 _ | S ^ ^ ^ ^ ^ ^ ^ ^ ^ ^ ^ ^ ^ ^ ^ ^ ^ ^ ^ 2 / / / ^ ^ ^ ^ ^ ^ ^ ^ ^ ^ { ^ ^ ^ { { ^ { { ^ ^ ^ ^ ^ ^ ^ ^ ^ ^ ^ ^ { ^ ^ ^ ^ ^ ^ { ^ ^ ^ ^ ^ ^ ^ ^ ^ ^ ^ ^ ^ ^ ^ ^ ^ 6 ^ ^ ^ ^ ^ ^ 7 ( ( 1 { ^ ^ ^ ..2 ^ ^ ^ ^ ^ ^ ^ ^ ^ ^ ^ ^ ^ ^ ^ ^ ^ ^ ^ ^ ^ ^ 2 ^ { ^ ^ { { ^ ^ { ^ ^ ^ { { ^ ..^ ^ ^ ^ ^ ^ ^ ^ ^ ^ ^ ^ ^ ^ ^ ^ ^ ^ { ^ ^ ^ { { ^ { ^ ^ ^ ^ ^ ^ ^ { ^ ^ ^ ^ ^ ^ ^ { ^ { ^ ^ { { ^ ^ ^ ^ { { ^ { { { ^ ^ ^ ^ ^ ^ ^ ^ ~ ~ ~ ~ ~ ^ ~ ~ ~ ~ ~ ~ ~ ~ ~ ~ ~ ~ ~ ~ ~ ~ ~ { ~ {   ",
"  * ~ ~ ~ ~ ~ ~ ~ ~ ~ ~ ~ ^ ^ ^ ^ ^ ^ ^ ^ ^ ^ ^ / / 4 1 ^ ^ ^ ^ ^ ^ ^ ^ ^ ^ ^ ^ ^ ^ ^ ^ ^ ^ ^ ^ / / / ^ ^ ^ ^ ^ ^ ^ ^ ^ ^ { { ^ ^ ^ { ^ { { ^ ^ ^ ^ ^ ^ ^ ^ { ^ ^ ^ ^ ^ ^ ^ ^ ^ ^ { { ^ ^ ^ ^ ^ ^ ^ ^ ^ ^ ^ ^ ^ ^ ^ ^ ^ ^ ^ ^ ^ ^ ^ ^ 5 1 ( { ^ ^ ^ ^ ( ^ ^ ^ ^ ^ ^ ^ ^ ^ ^ ^ ^ ^ ^ ^ ^ ^ ^ ^ ^ ^ ^ ^ ^ { ^ ^ { { ^ ^ { ^ ^ ^ { { ^ ^ ^ ^ ^ { ^ ^ ^ ^ ^ ^ ^ ^ ^ { ^ ^ { ^ { { ^ { { { ^ { ^ ^ ^ ^ ^ ^ ^ { ^ ^ ^ ^ ^ ^ ^ { ^ { ^ ^ ^ ^ { ^ ^ ^ { { ^ { { { 3 ^ ^ ^ ^ ^ ^ ~ ~ ~ ~ { ~ ~ ~ ~ ~ ~ ~ ~ ~ ~ / ~ ~ ~ ~ ~ ~ ~ ~ { ~ {   ",
"  * ~ ~ ~ ~ ~ ~ ~ ~ ~ ~ ~ ^ ^ ^ ^ ^ ^ ^ ^ ^ ^ ^ 5 / | ^ ^ ^ ^ ^ ^ ^ ^ ^ ^ ^ ^ ^ ^ ^ ^ ^ ^ ^ { ^ ^ / ^ ^ ^ ^ ^ ^ ^ ^ ^ ^ ^ ^ ^ ^ ^ ^ { { { { ^ ^ ^ ^ ^ ^ 3 ^ { ^ ^ { ^ ^ ^ ^ ^ ^ ^ ^ { ^ ^ ^ ^ ^ ^ ^ ^ ^ ^ { ^ ^ ^ ^ ^ ^ ^ ^ ^ ^ ^ ^ 7 2 1 ^ { 5 ^ ^ ^ ^ ^ ^ ^ ^ ^ ^ ^ ^ ^ ^ ^ ^ ^ ^ ^ ^ ^ ^ ^ ^ ^ ^ ^ ^ ^ ^ ^ ^ ^ ^ ^ { ^ ^ { ^ ^ ^ ^ ^ ^ ^ { { ^ ^ ^ ^ ^ ^ ^ ^ { ^ ^ ^ ^ { { { ^ { { ^ ^ ^ ^ ^ ^ ^ ^ ^ { ^ ^ ^ ^ ^ ^ ^ { ^ ^ ^ ^ ^ ^ { { ^ ^ { { ^ { { { 1 ^ ^ 4 ^ ^ ^ ~ ~ ~ ~ { ~ ~ ~ ~ ~ ~ ~ ~ ~ ~ ~ ~ ~ ~ ~ ~ ~ ~ ~ { ~ {   ",
"  * ~ ~ ~ ~ ~ ~ ~ ~ ~ ~ ~ ^ ^ ^ ^ ^ ^ ^ ^ ^ ^ ^ ^ / ^ ^ ^ ^ ^ ^ ^ ^ ^ ^ ^ ^ ^ ^ ^ ^ ^ ^ ^ ^ ^ ^ 4 ^ ^ ^ ^ ^ ^ ^ ^ ^ ^ ^ ^ ^ ^ ^ ^ ^ { { ^ ^ ^ ^ ^ ^ ^ { ^ ^ { ^ ^ { ^ ^ ^ ^ ^ ^ ^ ^ { ^ ^ ^ ^ ^ ^ ^ ^ ^ { ^ ^ ^ ^ ^ ^ ^ ^ ^ ^ ^ ^ ( S 3 ^ ^ ^ ^ ^ ^ ^ ^ ^ ^ ^ ^ ^ ^ ^ ^ ^ ^ ^ ^ ^ ^ ^ ^ ^ ^ ^ ^ ^ ^ ^ ^ ^ ^ ^ ^ ^ ^ ^ ^ ^ ^ ^ ^ ^ ^ { { ^ ^ { ^ ^ ^ ^ ^ ^ ^ ^ ^ { ^ ^ ^ ^ { ^ { { { { ^ ^ ^ ^ ^ ^ ^ ^ ^ ^ ^ ^ ^ ^ ^ ^ ^ { ^ ^ ^ ^ ^ { ^ ^ ^ ^ { { ^ ^ ^ { ^ ^ ^ ( ^ ^ ^ ~ ~ ~ ~ { ~ ~ ~ ~ ~ ~ ~ ~ ~ ~ ~ ~ ~ ~ ~ ~ ~ ~ ~ { ~ {   ",
"  * ~ ~ ~ ~ ~ ~ ~ ~ ~ ~ ~ ^ ^ ^ ^ ^ ^ ^ ^ ^ ^ ^ ~ ^ ^ ^ ^ ^ ^ ^ ^ ^ ^ ^ ^ ^ ^ ^ ^ ^ ^ ^ ^ ^ ^ ^ ^ ^ ^ ^ ^ ^ ^ ^ ^ ^ ^ ^ ^ ^ ^ ^ ^ ^ { ^ ^ ^ ^ ^ ^ { ^ ^ ^ ^ ^ ^ ^ ^ ^ ^ ^ ^ ^ ^ ^ ^ ^ ^ ^ ^ ^ ^ ^ ^ ^ ^ { ^ ^ ^ ^ ^ ^ ^ ^ ^ ^ ^ ^ ^ ^ [ Q [.^ ^ ^ ^ ^ ^ ^ ^ ^ ^ ^ ^ ^ ^ ^ 1 1 ^ ^ ^ ^ ^ ^ ^ ^ ^ ^ ^ ^ ^ ^ ^ ^ ^ { ^ ^ ^ ^ ^ ^ ^ ^ ^ ^ { ^ ^ { { { ^ ^ ^ ^ ^ ^ ^ { ^ { ^ ^ { ^ ^ { { ^ ^ ^ ^ ^ ^ ^ ^ ^ ^ ^ ^ ^ ^ ^ ^ ^ ^ { ^ ^ ^ ^ ^ { ^ ^ ^ ^ { { ^ { ^ ^ ^ ^ ^ ^ ^ ^ ^ ~ ~ ~ ~ ~ ~ ~ ~ ~ ~ ~ ~ ~ ~ ~ ~ ~ ~ / ~ ~ ~ { ~ { ~ {   ",
"  * ~ ~ ~ ~ ~ ~ ~ ~ ~ ~ ~ ~ ^ ^ ^ ^ ^ ^ ^ ^ ^ ^ ^ ^ ^ ^ ^ ^ ^ ^ ^ ^ ^ ^ ^ ^ ^ ^ ^ ^ ^ ^ ^ ^ ^ ^ ^ ^ ^ ^ ^ ^ ^ ^ ^ ^ ^ ^ ^ ^ ^ ^ ^ ^ ^ { ^ { ^ ^ ^ { ^ ^ ^ ^ ^ ^ ^ ^ ^ ^ { ^ ^ ^ { ^ ^ ^ ^ ^ ^ ^ ^ ^ ^ ^ { ^ ^ ^ ^ ^ ^ ^ ^ ^ ^ ^ ^ ^ 2 3 / / [ ^ ^ ^ ^ ^ ^ ^ ^ { ^ ^ ^ ^ ^ ^ ^ ^ ^ ^ { ^ { ^ ^ ....^ ^ ^ ^ ^ ^ ^ ^ ^ ^ ^ ^ ^ ^ ^ { ^ { ^ ^ ^ ^ { { { { { ^ ^ ^ ^ { ^ { ^ ^ { ^ ^ { { ^ ^ ^ ^ ^ ^ ^ ^ ^ { ^ ^ ^ ^ ^ ^ ^ ^ { ^ ^ ^ ^ ^ ^ ^ ^ ^ ^ { { { { ^ ^ ^ ^ ^ ^ ^ ^ ^ ~ ~ ~ { { ~ ~ ~ ~ ~ ~ ~ ~ ~ ~ ~ / : / ~ ~ ~ { ~ { ~ ~   ",
"  * ~ ~ ~ ~ ~ ~ ~ ~ ~ ~ ~ ^ ^ ^ ^ ^ ^ ^ ^ ^ ^ ^ ^ ^ ^ ^ ^ ^ ^ ^ ^ ^ ^ ^ ^ ^ ^ ^ ^ ^ ^ ^ ^ ^ ^ ^ ^ ^ ^ ^ ^ ^ ^ ^ ^ ^ ^ ^ ^ ^ ^ ^ ^ ^ ^ { ^ { ^ ^ ^ ^ ^ ^ ^ ^ ^ ^ ^ { ^ ^ ^ ^ ^ ^ ^ ^ ^ ^ ^ ^ ^ ^ ^ ^ ^ ^ ^ ^ ^ ^ ^ ^ ^ ^ ^ ^ ^ ^ ^ ^ ^ Q / / ^ ^ ^ ^ ^ ^ ^ ^ ^ { ^ ^ ^ ( ^ ^ ^ ^ ^ ^ { ^ { ^ ^ ^ { ^ ^ ^ ^ ^ ^ ^ ^ ^ ^ ^ ^ ^ ^ ^ { ^ { ^ ^ ^ ^ ^ ^ { { ^ ^ ^ ^ ^ { ^ { ^ ^ { ^ ^ { { ^ ^ ^ ^ ^ ^ ^ ^ ^ ^ ^ ^ ^ ^ ^ ^ ^ ^ ^ ^ ^ ^ ^ { ^ ^ ^ ^ ^ { { { { ^ ^ ^ ^ ^ ^ ^ ^ ^ ^ ^ ~ { ~ ~ ~ ~ ~ ~ ~ ~ ~ ~ ~ ~ ~ ~ ~ ~ ~ ~ { ~ { ~ ~   ",
"% * ~ ~ ~ ~ ~ { ~ ~ ~ ~ ~ ^ ^ ^ ^ ^ ^ ^ ^ ^ ^ ^ ^ ^ ^ ^ ^ ^ ^ ^ ^ ^ ^ ^ ^ ^ ^ ^ ^ ^ ^ ^ ^ ^ ^ ^ ^ ^ ^ ^ ^ ^ ^ ^ ^ ^ { ^ ^ ^ ^ ^ ^ ^ ^ ^ { { ^ ^ { { ^ ^ ^ ^ ^ ^ ^ { ^ ^ ^ ^ ^ ^ ^ ^ ^ ^ ^ ^ ^ ^ ^ ^ ^ ^ { ^ ^ ^ ^ ^ ^ ^ ^ ^ ^ ^ ^ ^ ^ ^ ^ 1 ^ ^ ^ ^ ^ ^ ^ ^ ^ ^ ^ ^ ^ ^ ^ ^ ^ ^ ^ ^ ^ ^ ^ ^ ^ ^ { ^ ^ ^ ^ ^ ^ ^ { ^ ^ ^ ^ ^ ^ ^ { ^ ^ ^ ^ ^ ^ ^ ^ { { ^ { ^ ^ ^ { ^ { ^ ^ { ^ ^ { { ^ ^ ^ ^ ^ ^ ^ ^ ^ { ^ { ^ ^ ^ ^ ^ ^ ^ ^ ^ ^ ^ { { ^ ^ ^ ^ { ^ { { ^ ^ ^ { ^ ^ ^ ^ ^ ~ ~ ~ { ~ ~ ~ ~ ~ ~ _ ~ ~ ~ ~ ~ ~ ~ ~ ~ ~ ~ { ~ { ~ ~   ",
"% * ~ ~ ~ ~ ~ { ~ ~ ~ ~ ~ ~ ^ ^ ^ ^ ^ ^ ^ ^ ^ ^ ^ ^ ^ ^ ^ ^ ^ ^ ^ ^ ^ ^ ^ ^ ^ ^ ^ ^ ^ ^ ^ ^ ^ ^ ^ { ^ ^ ^ ^ ^ ^ ^ ^ { ^ ^ ^ ^ ^ ^ ^ ^ ^ ^ ^ ^ ^ { ^ { ^ ^ ^ ^ ^ { { ^ ^ ^ ^ ^ ^ ^ ^ ^ ^ ^ ^ ^ ^ ^ ^ ^ ^ { ^ ^ ^ ^ ^ ^ ^ ^ ^ ^ ^ ^ ^ ^ ^ ^ ^ ^ ^ ^ ^ ^ ^ ^ ^ ^ { ^ ^ ^ ^ ^ ^ ^ ^ ^ ^ ^ ^ ^ ^ ^ { { ^ ^ ^ { ^ ^ ^ ^ ^ ^ ^ ^ ^ ^ ^ { ^ ^ ^ ^ ^ ^ ^ ^ { { ^ { ^ ^ ^ { ^ { ^ ^ { ^ ^ ^ { ^ ^ ^ ^ ^ ^ ^ ^ ^ { ^ { ^ ^ ^ ^ ^ ^ ^ ^ ^ ^ ^ { { ^ ^ ^ ^ { ^ { { ^ { ^ { ^ ^ ^ ^ ^ ^ ^ ~ { ~ ~ ~ ~ ~ ~ ~ ~ ~ ~ ~ ~ ~ ~ ~ ~ ~ ~ { ~ { ~ ~ % ",
"% * ~ ~ ~ ~ ~ ~ ~ ~ ~ ~ ~ ~ ^ ^ ^ ^ { ^ ^ ^ ^ ^ ^ ^ ^ ^ ^ ^ ^ ^ ^ ^ ^ ^ ^ ^ ^ ^ ^ ^ ^ ^ ^ ^ ^ ^ { { ^ ^ ^ ^ ^ ^ ^ ^ { ^ ^ ^ ^ ^ ^ ^ ^ ^ ^ ^ ^ ^ { { { ^ ^ ^ ^ { { ^ ^ ^ ^ ^ ^ ^ ^ ^ ^ ^ ^ ^ ^ ^ ^ ^ ^ [ { ^ ^ ^ ^ ^ ^ ^ ^ ^ ^ ^ ^ ^ ^ ^ ^ ^ ^ ^ ^ ^ ^ ^ ^ ^ ^ { ^ ^ ^ ^ ^ ^ ^ ^ | ^ ^ ^ ^ ^ ^ ^ { ^ ^ ^ { ^ ^ ^ ^ ^ ^ ^ ^ ^ ^ { ^ ^ ^ ^ ^ ^ { { { { { ^ { ^ ^ ^ { { { ^ ^ { ^ { { ^ ^ ^ ^ ^ ^ ^ ^ ^ ^ ^ ^ { ^ ^ ^ ^ ^ ^ ^ ^ ^ ^ ^ { { ^ ^ ^ { { { ^ { ^ { ^ { ^ ^ ^ ^ ~ ^ ^ ~ { ~ ~ ~ ~ ~ ~ ~ ~ ~ ~ ~ ~ ~ ~ ~ ~ ~ ~ ~ ~ ~ ~ ~ % ",
"% * ~ ~ ~ ~ ~ ~ ~ ~ ~ ~ ~ ~ ^ ^ ^ ^ ^ ^ ^ ^ ^ ^ ^ ^ ^ ^ ^ ^ ^ ^ ^ ^ ^ ^ ^ ^ ^ ^ ^ ^ ^ ^ ^ ^ ^ ^ ^ { ^ ^ ^ ^ ^ ^ ^ ^ ^ ^ ^ ^ ^ ^ ^ ^ ^ ^ ^ ^ ^ ^ { ^ { ^ ^ ^ ^ { ^ ^ ^ ^ ^ ^ ^ ^ ^ ^ ^ ^ ^ ^ ^ ^ ^ ^ ^ / { ^ ^ ^ ^ ^ ^ ^ ^ ^ ^ ^ ^ ^ ^ ^ ^ ^ ^ ^ ^ ^ ^ ^ ^ ^ ^ { ^ ^ ^ ^ ^ ^ ^ ^ ( ^ ^ ^ { ^ ^ ^ { ^ ^ ^ ^ ^ ^ ^ { ^ ^ ^ ^ ^ ^ { { ^ ^ ^ ^ ^ { { { { ^ ^ ^ ^ ^ ^ ^ ^ ^ ^ { { ^ { { ^ ^ ^ { ^ ^ ^ ^ ^ ^ { ^ ^ ^ ^ ^ ^ ^ ^ ^ ^ ^ ^ ^ { { { ^ ^ { { { { ^ ^ { ^ ^ ^ ^ ^ ^ ~ ~ ^ ~ { ~ ~ ~ ~ ~ ~ ~ ~ ~ ~ ~ ~ ~ ~ ~ ~ ~ ~ ~ ~ ~ ~ ~ % ",
"% * ~ ~ ~ ~ ~ ~ ~ ~ ~ ~ ~ ^ ^ ^ ^ ~ ^ ^ ^ ^ ^ ^ ^ ^ ^ ^ ^ ^ ^ ^ ^ ^ ^ ^ ^ ^ ^ ^ ^ ^ ^ ^ ^ ^ ^ ^ ^ ^ ^ ^ ^ ^ ^ ^ ^ ^ ^ ^ ^ ^ ^ ^ ^ ^ ^ ^ ^ ^ ^ ^ ^ { { ^ ^ ^ ^ { ^ { ^ ^ ^ ^ ^ ^ 2 [ 5 4 / ^ ^ ^ ^ ^ ^ / { 5 ^ ^ ^ ^ ^ ^ ^ ^ ^ ^ ^ ^ ^ ^ ^ ^ ^ ^ ^ ^ ^ ^ ^ ^ { { ^ ^ { ^ ^ ^ ^ ^ ^ ^ ^ ^ ^ ^ { ^ { ^ ^ ^ ^ ^ ^ ^ { ^ ^ ^ ^ ^ ^ ^ { ^ ^ ^ ^ ^ ^ ^ { { { ^ ^ ^ ^ ^ ^ ^ ^ ^ ^ { ^ ^ { ^ ^ ^ ^ ^ ^ ^ ^ ^ ^ { ^ ^ ^ ^ ^ ^ ^ ^ ^ ^ ^ ^ ^ { { { ^ ^ { { { { { { { ^ ^ ^ ^ ^ ^ ~ ~ ~ ^ { ~ ~ ~ ~ ~ ~ ~ ~ ~ ~ ~ ~ ~ ~ ~ ~ ~ ~ ~ ^ { ~ ~ % ",
"% * ~ ~ ~ ~ ~ ~ ~ / ~ ~ ~ ^ ^ ^ ^ ^ ^ ^ ^ ^ ^ ^ ^ ^ ^ ^ ^ ^ ^ ^ ^ ^ ^ ^ ^ ^ ^ ^ ^ ^ ^ ^ ^ ^ ^ ^ ^ ^ ^ ^ ^ { ^ ^ ^ ^ ^ ^ ^ ^ ^ ^ ^ ^ ^ ^ { ^ ^ ^ ^ { { ^ ^ ^ ^ { ^ { ^ ^ ^ ^ ^ / 5 / / 7 / { ^ ^ ^ ^ ^ ^ { / 1 ^ ^ ^ ^ ( ( 2 ^ ^ ^ ^ ^ ^ ^ ^ ^ ^ ^ ^ ^ ^ ^ ^ { ^ ^ ^ { ^ ^ ^ ^ ^ ^ ^ ^ ^ ^ { { { { ^ ^ ^ ^ ^ ^ ^ [ [ ^ ^ ^ ^ ^ ^ ^ ^ ^ { ^ ^ ^ ^ { { { { ^ { ^ { ^ { ^ ^ ^ ^ ^ ^ { ^ ^ ^ ^ ^ ^ ^ ^ ^ ^ ^ S ^ ^ ^ ^ ^ ^ ^ { ^ ^ ^ ^ { { { ^ ^ { { { { { { { { ^ ^ ^ ^ ^ ~ ~ ~ ^ { ~ ~ ~ ~ ~ ~ ~ ~ ~ ~ ~ ~ ~ ~ ~ ~ ~ ~ ~ ^ { ^ {   ",
"% * ~ ~ ~ ~ ~ ~ ^ / ~ ~ ~ ~ ~ ~ ^ ^ ^ ^ ^ ^ ^ ^ ^ ^ ^ ^ ^ ^ ^ ^ ^ ^ ^ ^ ^ ^ ^ ^ ^ ^ ^ ^ ^ ^ ^ ^ ^ ^ ^ ^ ^ ^ ^ ^ ^ ^ ^ ^ ^ ^ ^ ^ ^ ^ { ^ ^ ^ { ^ ^ { ^ ^ ^ ^ ^ { ^ { ^ ^ ^ ^ ^ ^ / / / / 3 { ^ ^ ^ ^ ^ ^ { [ ^ [ ^ ^ ^ ^ ^ ^ ^ ^ ^ ^ ^ ^ ^ ^ ^ ^ ^ ^ ^ ^ ^ ^ ^ ^ ^ ^ { ^ ^ ^ ^ ^ ^ ^ ^ ^ ^ { { { { ^ ^ ^ ^ ^ ^ 5 | 1 ^ ^ ^ ^ ^ ^ ^ ^ ^ { ^ ^ ^ ^ { { { { ^ ^ ^ ^ ^ { ^ ^ ^ { ^ ^ ^ ^ ^ ^ 3 ^ ^ ^ ^ ^ ^ ^ ^ ^ ^ ^ ^ ^ ^ ^ ^ ^ ^ ^ ^ ^ { { ^ ^ { { { { ^ { ^ { ^ ^ ^ ^ ^ ~ ~ ~ ^ { ~ ~ ~ ~ ~ ~ ~ ~ ~ ~ ~ ~ ~ ~ ~ ~ ~ { ~ ^ { ^ {   ",
"% * ~ ~ ~ ~ ~ ~ ~ ^ ~ ~ ~ ~ ~ ^ ^ ^ ^ ^ ^ ^ ^ ^ ^ ^ ^ ^ ^ ^ ^ ^ ^ ^ ^ ^ ^ ^ ^ ^ ^ ^ ^ ^ ^ ^ ^ ^ ^ ^ ^ ^ ^ ^ ^ ^ ^ ^ ^ ^ ^ ^ ^ ^ ^ ^ { ^ ^ { { ^ ^ { ^ ^ ^ ^ ^ ^ ^ ^ ^ ^ ^ ^ ^ ^ 6 / / / / { ^ ^ ^ ^ ^ ^ ^ ^ 5 ^ ^ R ^ ^ ^ ^ ^ ^ ^ ^ ^ ^ ^ ^ ^ ^ ^ ^ ^ ^ ^ ^ ^ ^ ^ ^ ^ ^ ^ ^ ^ { { ^ ^ { ^ { { { ^ ^ ^ ^ ^ ^ ^ ^ ^ ^ ^ ^ ^ ^ ^ ^ ^ ^ { { ^ ^ ^ ^ { { { { ^ { ^ ^ ^ ^ { ^ ^ { ^ ^ ^ ^ ^ ( ^ / 5 ^ ^ { { { ^ ^ ^ ^ ^ ^ ^ ^ ^ ^ ^ ^ ^ ^ { { ^ ^ { { { ^ ^ { ^ { ^ { ^ ^ ^ ^ ^ ^ ^ { ~ ~ ~ ~ ~ ~ ~ ~ ~ ~ ~ ~ ~ ~ ~ ~ ~ { ~ ^ { ^ ^ % ",
"% * ~ ~ ~ ~ ~ ~ ~ ^ ~ ~ ~ ~ ^ ^ ^ ^ ^ ^ ^ ^ ^ ^ ^ ^ ^ ^ ^ ^ ^ ^ ^ ^ ^ ^ ^ ^ ^ ^ ^ ^ ^ ^ ^ ^ ^ ^ ^ ^ { ^ { ^ ^ ^ ^ ^ ^ ^ { ^ ^ ^ ^ ^ ^ ^ { { { ^ ^ ^ ^ ^ ^ ^ ^ ^ ^ ^ ^ ^ ^ ^ ^ ^ ^ / / ^ ^ 7 ^ 6 ^ ^ ^ ^ ^ ^ ^ ^ ^ 7 R S ^ ^ ^ ^ ^ ^ ^ ^ ^ ^ ^ ^ ^ ^ ^ ^ ^ ^ ^ ^ ^ ^ ^ ^ ^ ^ ^ ^ { ^ ^ { ^ ^ { { { ^ ^ ^ ^ ^ ^ ^ ^ ^ ^ ^ ^ { { { ^ { ^ ^ ^ ^ ^ ^ ^ ^ { { ^ ^ ^ ^ ^ ^ ^ ^ ^ { ^ ^ ^ { / / 1 / 6 ^ ^ ^ { { ^ ^ ^ ^ ^ ^ ^ ^ ^ ^ ^ ^ ^ ^ ^ { ^ ^ { { { ^ ^ { ^ { ^ { ^ ^ ^ ~ { ~ ~ { ~ ~ ~ ~ ~ ~ ~ ~ ~ ~ ^ ^ ^ ^ ~ ~ ^ { ^ ^ { ^ ^ % ",
"% * ~ ~ ~ ~ ~ ~ ~ ~ ~ ~ ~ ~ ^ ^ ^ ^ ^ ^ ^ ^ ^ ^ ^ ^ ^ ^ ^ ^ ^ ^ ^ ^ ^ ^ ^ ^ ^ ^ ^ ^ ^ ^ ^ ^ ^ ^ ^ ^ ^ ^ { ^ ^ ^ ^ ^ ^ ^ { ^ ^ ^ ^ ^ { ^ ^ ^ ^ ^ ^ ^ ^ ^ ^ ^ ^ ^ ^ ^ ^ ^ ^ ^ ^ ^ ^ [ / / [ [ ^ [ ^ ^ ^ ^ ^ ^ ^ ^ ^ ^ ^ / ^ ^ ^ ^ ^ ^ ^ ^ ^ ^ ^ ^ ^ ^ ^ ^ ^ ^ ^ ^ ^ { ^ ^ ^ ^ ^ { ^ ^ ^ ^ ^ ^ { { ^ ^ ^ ^ ^ ^ ^ ^ ^ ^ ^ ^ ^ { { ^ ^ { { ^ ^ ^ ^ ^ ^ { { ^ ^ ^ ^ ^ ^ ^ ^ ^ ^ { ^ { / { 4 / / 2 ^ ^ ^ ^ ^ { ^ ^ ^ ^ ^ ^ ^ { ^ ^ ^ ^ ^ ^ ^ { ^ ^ { { ^ ^ ^ { ^ { ^ { ^ ^ ^ ~ ~ ~ ~ { ~ ~ ~ ~ ~ ~ ~ ~ ~ ~ ^ ^ ^ ^ ~ ~ ~ { ^ ^ { ^ { % ",
"% * ~ ~ ~ ~ ~ ~ ~ ~ ~ ~ ~ ~ ^ ^ ^ { ^ ^ ^ ^ ^ ^ ^ ^ ^ ^ ^ ^ ^ ^ ^ ^ ^ ^ ^ ^ ^ ^ ^ ^ ^ ^ ^ ^ ^ ^ ^ ^ ^ ^ ^ ^ { ^ ^ ^ ^ ^ ^ ^ ^ ^ ^ ^ ^ ^ ^ ^ ^ ^ { ^ ^ ^ ^ ^ ^ ^ ^ ^ ^ ^ ^ ^ ^ ^ ^ / / / 2 R ^ ^ ^ ^ ^ ^ ^ ^ ^ ^ ^ ^ ^ ^ ^ ^ ^ ^ ^ ^ ^ ^ ^ ^ ^ ^ ^ ^ ^ ^ ^ ^ ^ ^ ^ ^ { ^ ^ ^ ^ { ^ ^ ^ ^ ^ ^ ^ ^ 1 ( ^ { ^ ^ ^ ^ ^ ^ ^ ^ ^ { S [ ^ { ^ ^ ^ ^ ^ ^ ^ { { { { ^ ^ ^ ^ { ^ ^ ^ { 7 { { { ^ R Q ^ ^ ^ ^ ^ ^ { ^ ^ ^ ^ ^ ^ ^ { ^ ^ ^ ^ ^ ^ { { ^ ^ { { ^ ^ ^ { ^ { ^ ^ ^ ^ ^ ~ ~ ~ ~ { ~ ~ ~ ~ ~ ~ ~ ~ ~ ~ ~ ~ ^ ^ ^ ^ ~ { ~ ^ { ^ ^ % ",
"% * ~ ~ ~ ~ ~ ^ ~ ~ ~ ~ ~ ^ ^ ^ ^ ^ ^ ^ ^ ^ ^ ^ ^ ^ ^ ^ ^ ^ ^ ^ ^ ^ ^ ^ ^ ^ ^ ^ ^ ^ ^ ^ ^ ^ ^ ^ ^ ^ ^ ^ ^ ^ { ^ ^ ^ ^ ^ ^ ^ ^ ^ ^ { ^ ^ ^ ^ ^ ^ ^ ^ ^ ^ ^ ^ ^ ^ ^ ^ ^ ^ ^ ^ ^ ^ ^ { ^ 7 3 ( ^ { ^ ^ [ ^ ^ ^ ^ ^ ^ ^ ^ ^ ^ ^ ^ ( ^ ^ ^ ^ ^ ^ ^ ^ ^ ^ ^ ^ ^ ^ ^ ^ ^ ^ { { ^ ^ { { ^ ^ ^ ^ ^ ^ ^ ^ ^ ^ ^ ^ ^ ^ ^ ^ ^ ^ ^ ^ ^ { / S ^ { ^ ^ ^ { ^ { { { { { { ^ ^ ^ ^ { { ^ ^ { ^ { { ^ R / / ^ ^ ^ ^ ^ { { ^ ^ ^ ^ ^ ^ ^ { ^ ^ ^ ^ ^ ^ { { ^ ^ ^ ^ ^ { ^ { ^ { ^ ^ ^ ^ ^ ~ ~ ~ ^ { ~ ~ ~ ~ ~ ~ ~ < ~ ~ ~ ~ ^ ^ ^ ^ ^ { ~ ^ ^ ^ ^ % ",
"% * ~ ~ ~ ~ ~ ~ ~ ~ ~ ~ ~ ^ ^ ^ ^ ^ ^ ^ ^ ^ ^ ^ ^ ^ ^ ^ ^ ^ ^ ^ ^ ^ ^ ^ ^ ^ ^ ^ ^ ^ ^ ^ ^ ^ ^ ^ ^ ^ ^ ^ ^ ^ ^ ^ ^ ^ ^ ^ ^ ^ ^ ^ ^ ^ ^ 5 / ^ ^ 1 ^ ^ ^ ^ ^ ^ ^ ^ ^ ^ ^ ^ ^ ^ ^ ^ ^ { ^ ^ ^ ^ { ^ ^ ^ ^ ^ / / / ^ ^ ^ ^ ^ ^ ^ ^ 2 ^ ^ ^ ^ ^ ^ ^ ^ ^ ^ ^ ^ ^ ^ ^ ^ ^ | { { ^ ^ { { ^ ^ ^ { { ^ { ^ { ^ ^ ^ ^ ^ ^ ^ ^ ^ ( ^ ^ { ^ ^ ^ { ^ ^ ^ { ^ { { { ^ ^ { ^ ^ ^ ^ { { ^ ^ { ^ { { ^ / / / / ^ ^ ^ ^ { { { ^ ^ ^ ^ ^ ^ ^ ^ ^ ^ ^ ^ ^ { { ^ ^ ^ ^ ^ { ^ { ^ ^ ^ ^ ^ ^ ^ ^ ~ ^ ^ { ~ ~ ~ ~ ~ ~ ~ ~ ~ ~ ~ ~ ~ ^ ~ ^ ^ ~ ~ ~ ~ ^ ^ % ",
"% * ~ ~ ~ ~ ~ ~ ~ ~ ~ ~ ^ ^ ^ ^ ^ ^ ^ ^ ^ ^ ^ ^ ^ ^ ^ ^ ^ ^ ^ ^ ^ ^ ^ ^ ^ ^ ^ ^ ^ ^ ^ ^ ^ ^ ^ ^ ^ ^ ^ ^ ^ ^ ^ ^ ^ ^ ^ ^ ^ ^ ^ ^ ^ ^ ^ ^ / Q ^ { { ^ ^ ^ ^ ^ ^ { ^ ^ ^ ^ ^ ^ ^ ^ ^ ^ ^ ^ ^ ^ ^ ^ ^ ^ ^ ^ / / | ^ ^ ^ ^ ^ ^ ^ ^ ^ 2 1 ^ ^ ^ ^ ^ ^ ^ ^ ^ ^ ^ ^ ^ ^ ^ { ^ { 1 ^ { ^ ^ ^ ^ ^ { ^ { ^ { ^ ^ ^ ^ ^ ^ ^ ^ ^ ^ ^ ^ { ..^ ^ { ^ ^ ^ { { { ^ { { ^ ^ ^ { { ^ { { ^ ^ { ^ { { ^ 4 / / 7 S ^ ^ ^ { { { ^ ^ ^ ^ ^ ^ ^ ^ ^ ^ ^ ^ ^ { { ^ ^ { ^ ^ { ^ { ^ ^ ^ ^ ^ ^ ^ ~ ~ ^ ^ { ^ ~ ^ ^ ~ ~ ~ ~ ~ ~ ~ ^ ~ ~ ~ ~ ~ ~ ~ ~ ^ ^ ^ % ",
"  * ~ ~ ~ ~ ~ ~ ~ ~ ~ ~ ~ ^ ^ ^ ^ ^ ^ ^ ^ ^ ^ ^ ^ ^ ^ ^ ^ ^ ^ ^ ^ ^ ^ ^ ^ ^ ^ ^ ^ ^ ^ ^ ^ ^ ^ ^ ^ ^ ^ ^ ^ ^ ^ ^ ^ ^ ^ ^ ^ ^ { ^ ^ ^ ^ ^ / / / { { / ^ ^ ^ ^ ^ { ^ ^ ^ ^ ^ ^ ^ ^ ^ ^ ^ ^ ^ ^ ^ ^ ^ ^ ^ ^ ^ ^ ^ ^ ^ ^ ^ ^ ^ ^ ^ ^ ^ ..^ ^ ^ ^ ^ ^ ^ { { 1 ^ ^ ^ ^ ^ ^ ^ ^ ^ ^ ^ ^ ^ ^ ^ ^ ^ ^ { ^ ^ ^ ^ ^ ^ ^ ^ ^ ^ ^ ^ ^ ^ { { ^ ^ { ^ ^ / { { { { { { { ^ ^ ^ ^ ^ { { ^ ^ { ^ ^ ^ ^ ^ ^ ^ ^ ^ ^ ^ ^ { { { ^ ^ ^ ^ ^ ^ ^ ^ ^ ^ ^ ^ ^ { ^ ^ ^ { { { { ^ { ^ ^ ^ ^ ^ ^ ^ ^ ^ ^ ^ { ^ ^ { ^ ^ ~ ~ ~ ~ ~ ^ ^ ~ ~ ~ ~ ~ ~ ~ ~ ^ ^ ^ % ",
"  * ~ ~ ~ ~ ~ ~ ~ ~ ~ ~ ~ ^ ^ ^ ^ ^ ^ ^ ^ ^ ^ ^ ^ ^ ^ ^ ^ ^ ^ ^ ^ ^ ^ ^ ^ ^ ^ ^ ^ ^ ^ ^ ^ ^ ^ ^ ^ ^ ^ ^ ^ ^ ^ ^ ^ ^ ^ ^ ^ ^ ^ ^ ^ ^ ^ ^ ^ / ^ ^ / ^ ^ ^ ^ ^ ^ { ^ ^ ^ ^ ^ ^ ^ ^ ^ ^ ^ ^ ^ ^ ^ ^ ^ ^ ^ ^ ^ ^ ^ ^ ^ ^ ^ ^ ^ ^ ^ ^ ^ ^ ^ ^ ^ ^ ^ ^ ^ { { ^ ^ ^ { ^ ^ ^ ^ ^ ^ ^ ^ ^ ^ ^ 7 ^ { ^ { ^ ^ 1 { ^ ^ ^ ^ { ^ ^ ^ ^ ^ ^ ^ { ^ ^ ^ { 1 { { ^ { ^ { { { ^ ^ { ^ { { ^ ^ { ^ ^ ^ ^ ^ ^ ^ ^ ^ ^ ^ ^ ^ ^ ^ ^ ^ ^ ^ ^ ^ ^ ^ ^ ^ ^ ^ ^ { ^ ^ ^ { ^ { { ^ { ^ { ^ ^ ^ ^ ^ ^ ^ ^ ^ { ~ ^ { ^ ^ ~ ~ ^ ^ ^ ^ ^ ^ ^ ~ ~ ~ ~ ~ ^ ^ ^ ^   ",
"  * ~ ~ ~ ~ ~ ~ ~ ~ ~ ~ ~ ^ ^ ^ ^ ^ ^ ^ ^ ^ ^ ^ ^ ^ ^ ^ ^ ^ ^ ^ ^ ^ ^ ^ ^ ^ ^ ^ ^ ^ ^ ^ ^ ^ ^ ^ ^ ^ ^ ^ ^ ^ ^ ^ ^ ^ ^ ^ ^ ^ ^ ^ ^ ^ ^ ^ ^ ^ ^ ^ ^ { ^ ^ { ^ ^ { ^ 4 ^ ^ ^ ^ ^ ^ ^ ^ ^ ^ ^ ^ ^ ^ ^ ^ ^ ^ ^ ^ ^ ^ ^ ^ ^ ^ ^ ^ ^ ^ ^ ^ ^ ^ ^ ^ ^ ^ ^ { { ^ ^ ^ { ^ ^ 1 ^ ^ ^ ^ ^ ^ ^ / / / { ^ ^ ^ ^ 3 { 1 3 ^ ^ { ^ ^ ^ ^ ^ ^ ^ ^ ^ ^ ^ ^ ^ { { ^ { { { ^ { ^ ^ ^ { { ^ ^ ^ { ^ ^ ^ ^ ^ ^ ^ ^ ^ ^ ^ ^ { ^ ^ ^ ^ ^ ^ ^ ^ ^ ^ ^ ^ ^ ^ ^ { ^ ^ ^ ^ ^ ^ ^ ^ { ^ ^ ^ ^ ^ ^ ^ ^ ^ ^ ^ { ~ ~ { ^ ^ ^ ^ ^ ^ ^ ^ ^ ^ ^ ~ ~ ^ ^ ^ ^ ^ ^ ^ % ",
"% * ~ ~ { ~ ~ ~ ~ ~ ~ ~ ~ ~ ^ ^ ^ ^ ^ ^ ^ ^ ^ ^ ^ ^ ^ ^ ^ ^ ^ ^ ^ ^ ^ ^ ^ ^ ^ ^ ^ ^ ^ ^ ^ ^ ^ ^ ^ ^ { ^ ^ ^ ^ ^ ^ ^ ^ ^ { ^ ^ ^ ^ ^ ^ ^ ^ ^ ^ ^ ^ { ^ ^ { 7 2 ^ / 7 ^ ^ ^ ^ ^ ^ ^ ^ ^ ^ ^ ^ ^ ^ ^ ^ ^ ^ / ^ ^ ^ ^ ^ ^ ^ ^ ^ ^ ^ ^ ^ ^ ^ ^ ^ ^ ^ ^ ^ ^ ^ ^ ^ { ^ ^ ^ ^ ^ ^ ^ { ^ ^ 5 ^ ^ { { ^ ^ ^ / { / ^ ^ ^ { ^ ^ ^ ^ ^ ^ ^ ^ ^ ^ ^ ^ ^ { { 2 { { { ^ ^ ^ ^ ^ { { ^ ^ ^ ^ ^ ^ ^ ^ ^ ^ ^ ^ ^ ^ ^ ^ { { ^ ^ ^ ^ ^ ^ ^ ^ ^ 1 ^ ^ ^ ^ ^ ^ ^ ^ ^ ^ { ^ ^ { ^ ^ ^ ^ ^ ^ ^ ^ ^ ^ ^ { ~ ~ { ^ ^ ^ ~ ^ ^ ^ ^ ^ ^ ^ ^ ^ ^ ^ ^ ^ ^ ^ ^ % ",
"% * ~ ~ { ~ ~ ~ ~ ~ ~ ~ ~ ^ ^ ^ ^ ^ ^ ^ ^ ^ ^ ^ ^ ^ ^ ^ ^ ^ ^ ^ ^ ^ ^ ^ ^ ^ ^ ^ ^ ^ ^ ^ ^ ^ ^ ^ ^ ^ ^ ^ ^ ^ ^ ^ ^ ^ ^ ^ { ^ ^ ^ ^ ^ ^ ^ ^ ^ ^ { { ^ ^ ^ 4 / / { / 1 ^ ^ ^ ^ ^ ^ ^ ^ ^ ^ ^ ^ ^ ^ ^ ^ ^ [ / ^ ^ ^ ^ ^ ^ ^ ^ ^ ^ ^ ^ ^ ^ ^ ^ ^ ^ ^ ^ ^ ^ ^ ^ ^ ^ ^ ^ ^ ^ ^ ^ ^ { ^ ^ 6 ^ ^ { { ^ ^ 3 / / ^ ^ ^ ^ ^ ^ ^ ^ ^ ^ ^ ^ ^ ^ ^ ^ ^ { { { { { { { ^ { ^ ^ ^ ^ { ^ ^ ^ { ^ { ^ ^ ^ ^ ^ ^ ^ ^ ^ ^ { { ^ ^ ^ ^ ^ ^ ^ ^ ^ ^ ^ ^ ^ ^ ^ ^ ^ ^ ^ ^ { ^ ^ ^ ^ { ^ ^ ^ ^ ^ ^ ^ ^ ^ ^ ~ ^ { ~ ^ ^ ^ ^ ^ ^ ^ ^ ^ ^ ^ ~ ^ ^ ^ ^ ^ ^ ^ % ",
"% * ~ ~ ~ ~ ~ ~ ~ ~ ~ ~ ~ ~ ^ ^ ^ ^ ^ ^ ^ ^ ^ ^ ^ ^ ^ ^ ^ ^ ^ ^ ^ ^ ^ ^ ^ ^ ^ ^ ^ ^ ^ ^ ^ ^ ^ ^ ^ ^ ^ ^ ^ ^ ^ ^ ^ ^ ^ ^ { ^ ^ ^ ^ ^ ^ ^ ^ ^ ^ ^ ^ 1 ^ ( / / / { R ^ ^ ^ ^ ^ ^ ^ ^ { ^ ^ ^ ^ ^ ^ ^ ^ ^ ( ^ ^ ^ ^ ^ ^ ^ ^ ^ ^ ^ ^ ^ ^ ^ ^ ^ ^ ^ ^ ^ { { ^ ^ ^ ^ ^ ^ { ^ ^ 7 | [ ^ ^ ^ ^ ^ ^ ^ ^ { 7 / 5 ^ ^ ^ ^ ^ ^ ^ ^ ^ ^ ^ ^ ^ ^ ^ ^ ^ ^ { { { { { { ^ { ^ { ^ ^ { ^ ^ ^ { ^ { ^ ^ ^ ^ ^ ^ ^ ^ ^ ^ { { ^ ^ ^ ^ ^ ^ ^ ^ ^ ^ ^ ^ ^ ^ ^ { ^ ^ ^ ^ ^ ^ ^ ^ { { ^ ^ ^ ^ ^ ^ ^ ^ ^ { ^ ~ ~ ~ ^ ^ ^ ^ ^ ^ ~ ~ ^ ^ ^ ~ ^ { ^ ^ ^ ^ ^ % ",
"  * ~ ~ ~ ~ ~ ~ ~ ~ ~ ~ ~ ~ ~ ^ ^ ^ ^ ^ ^ ^ ^ ^ ^ ^ ^ ^ ^ ^ ^ ^ ^ ^ ^ ^ ^ ^ ^ ^ ^ ^ ^ ^ ^ ^ ^ ^ ^ ^ ^ ^ ^ ^ ^ ^ ^ ^ ^ ^ { ^ ^ ^ ^ ^ ^ ^ ^ ^ ^ ^ ^ { { { / / 3 { ( ^ ^ ^ ^ ^ ^ ^ ^ ^ 5 ^ ^ ^ ^ ^ ^ ^ ^ ^ ^ ^ ^ ^ ^ ^ ^ ^ ^ ^ ^ ^ ^ ^ ^ ^ ^ ^ ^ ^ { { { ^ ^ ^ ^ 1 ^ { ^ 1 1 ^ ( [ ( ^ 1 ^ { ^ ^ { | / ^ ^ ^ ^ ^ ^ ^ ^ ^ ^ ^ ^ { ^ ^ ^ ^ ^ ^ ^ { { ^ ^ { ^ { ^ ^ ^ ^ { ^ ^ ^ { ^ { { ^ ^ ^ ^ ^ ^ ^ ^ ^ ^ { ^ ^ ^ ^ ^ ^ ^ ^ ^ ^ ^ ^ ^ ^ ^ { ^ ^ { ^ ^ ^ ^ { { { ^ ^ ^ ^ ^ ^ ^ ^ { { ~ ~ ~ ~ ^ ^ ^ ^ ^ ~ ~ ^ ^ ^ ^ ^ ^ ^ ^ ^ ~ ~ ^ . ",
"% * ~ ~ ~ ~ ~ ~ ~ ~ ~ ~ ~ ~ ^ ^ ^ ^ ^ ^ ^ ^ ^ ^ ^ ^ ^ ^ ^ ^ ^ ^ ^ ^ ^ ^ ^ ^ ^ ^ ^ ^ ^ ^ ^ ^ ^ ^ ^ ^ ^ ^ ^ ^ ^ ^ ^ ^ ^ ^ ^ ^ ^ ^ { { { ^ ^ ^ ^ ^ { { { { / 2 ^ / 1 ^ ^ ^ ^ ^ ^ ^ ^ ^ ^ ^ ^ ^ ^ ^ ^ ^ ^ ^ ^ ^ ^ ^ ^ ^ ^ ^ ^ ^ ^ ^ ^ ^ ^ ^ ^ ^ ^ ^ { { ^ { ^ ^ ^ ^ ^ { ^ ^ ^ ^ ^ ^ / | R ^ ^ ^ ^ { / / | ^ ^ ^ ^ ^ ^ ^ ^ ^ ^ { { ^ ^ ^ ^ ^ ^ ^ { { ^ ^ { ^ ^ ^ ^ ^ { ^ ^ ^ ^ { ^ { ^ ^ ^ ^ ^ ^ ^ ^ ^ ^ ^ { ^ ^ ^ ^ ^ ^ ^ ^ ^ ^ ^ ^ ^ ^ ^ { ( 1 { ^ { ^ ^ ^ { { ^ ^ ^ ^ ^ ^ ^ ^ { { ~ ~ ~ ~ ^ ^ ~ ~ ^ ~ ~ ^ ^ ^ ^ ^ ^ ^ ^ ~ ~ ~ ^ . ",
"% * ~ ~ ~ ~ ~ ~ ~ ~ ~ ~ ~ ~ ^ ^ ^ ^ ^ ^ ^ ^ ^ ^ ^ ^ ^ ^ ^ ^ ^ ^ ^ ^ ^ ^ ^ ^ ^ ^ ^ ^ ^ ^ ^ ^ ^ ^ ^ ^ ^ ^ ^ ^ ^ ^ ^ ^ ^ ^ ^ ^ ^ ^ { ^ ^ ^ ^ ^ ^ { ^ { ^ { ^ { ^ ^ ^ ^ ^ ^ ^ ^ ^ ^ ^ ^ ^ ^ ^ ^ ^ ^ ^ ^ ( ^ ^ ^ ^ ^ ^ ^ ^ ^ ^ ^ ^ ^ ^ ^ ^ ^ ^ ^ ^ ^ { ^ ^ ^ ^ ^ ^ ^ { { ^ ^ ^ ^ ^ ^ / / 2 1 ^ ..{ { ^ ^ { ^ ^ ^ ^ ^ ^ ^ ^ ^ / / { ^ ^ ^ ^ ^ ^ ^ { { { { { ^ ^ ^ ^ ^ ^ ^ ^ ^ ^ { ^ { ^ ^ ^ 2 ^ ^ ^ ^ ^ 6 ^ ^ ^ ^ ^ ^ ^ ^ ^ ^ ^ ^ ^ ^ ^ ^ ^ { ^ ^ ^ ^ { ^ ^ { ^ ^ ^ ^ ^ ^ ^ ^ ^ ^ { { { ~ ~ ~ ^ ~ ~ ~ ^ ^ { { ^ ^ ^ ^ ^ ^ ^ ~ ~ ~ ~ % ",
"% - ~ ~ ~ ~ ~ ~ ~ ~ ~ ~ ^ ^ ^ ^ ^ ^ ^ ^ ^ ^ ^ ^ ^ ^ ^ ^ ^ ^ ^ ^ ^ ^ ^ ^ ^ ^ ^ ^ ^ ^ ^ ^ ^ ^ ^ { ^ ^ { ^ ^ ^ ^ ^ ^ ^ ^ ^ ^ ^ ^ ^ { ^ ^ ^ ^ ^ ^ { { { ^ { ^ { ^ { ^ ^ ^ ^ ^ ^ ^ ^ ^ ^ ^ ^ ^ ^ ^ ^ ^ 2 2 5 ^ ^ ^ ^ ^ ^ ^ ^ ^ ^ ^ ^ ^ ^ ^ ^ ^ ^ ^ ^ ^ ^ ^ ^ ^ ^ ^ ^ ^ ^ ^ [ { ^ ^ ^ / ( ^ { 1 3 { ^ ^ ^ { ^ ^ ^ ^ / ^ Q ^ ^ / ^ { ^ { { ^ ^ ^ ^ { { { { { { ^ ^ ^ ^ ^ ^ ^ ^ ^ ^ ^ { ^ ^ ^ / / ^ ^ ^ ^ | / | ^ ^ ^ ^ ^ ^ ^ ^ ^ ^ ^ 5 | ^ ^ ^ ^ ^ ^ ^ ^ ^ ^ ^ { ^ ^ ^ ^ ^ ^ ^ ^ ^ { { { ~ ~ ~ ^ ~ ~ ~ ^ ^ { { ^ ^ ^ ^ ^ ^ ^ ~ ~ ~ ~ % ",
"% - ~ ~ ~ ~ ~ ~ ~ ^ { ~ ^ ^ ^ ^ ^ ^ ^ ^ ^ ^ ^ ^ { ^ ^ ^ ^ ^ ^ ^ ^ ^ ^ ^ ^ ^ ^ ^ ^ ^ ^ ^ ^ ^ ^ { ^ ^ { ^ ^ ^ ^ ^ ^ ^ ^ ^ ^ ^ ^ ^ { ^ ^ ^ ^ / / { { { ^ { ^ { ^ { ^ ^ ^ ^ ^ ^ ^ ^ ^ { ^ ^ ^ ^ ^ ^ ^ ^ ^ ^ ^ 1 ^ ^ ^ ^ ^ ^ ^ ^ ^ ^ ^ ^ ^ ^ ^ ^ ^ ^ ^ ^ ^ ^ ^ ^ ^ ^ ^ ^ ^ ^ ^ ^ ^ ^ ^ ^ ^ { { { { ^ ^ ^ { ^ ^ ^ ^ 2 / 7 2 ^ / ^ { 7 { { { ^ { { ^ ^ { { { ^ ^ ^ ^ ^ ^ ^ ^ ^ ^ ^ ^ { ^ ^ ^ / / / ^ ^ ^ ^ { [ ^ ^ ^ ^ ^ ^ ^ ^ ^ ^ ^ / / [ ^ ^ ^ ^ { ^ ^ ^ ^ ^ ^ ^ ^ ^ ^ ^ ^ ^ ^ ^ { { { ~ ~ ~ ^ ^ ^ ~ ~ ^ ^ ^ ^ ^ ^ 5 S ( ^ ^ ^ ^ ^ % ",
"% * ~ ~ ~ ~ ~ ~ ^ ^ ~ ~ ~ ~ ~ ^ ^ ^ { { ^ ^ ^ ^ { ^ ^ ^ ^ ^ ^ ^ ^ ^ ^ ^ ^ ^ ^ ^ ^ ^ ^ ^ ^ { ^ { ^ { { ^ ^ ^ ^ ^ ^ ^ ^ ^ ^ ^ ^ { ^ ^ { / / / ^ { { ^ ^ { ^ ^ ^ { ^ ^ ^ ^ ^ ^ ^ ^ ^ { ^ ^ ^ ^ ^ ^ ^ { ^ ^ ^ Q ^ ^ ^ ^ ^ ^ ^ ^ ^ ^ ^ ^ ^ ^ ^ ^ ^ ^ ^ ^ ^ ^ ^ ^ ^ ^ { { ^ ^ ^ ^ ^ ^ ^ ^ ^ { { { { ^ { ^ { ^ ^ ^ ^ ^ ^ [ [ / / ^ { ( ^ { { ^ ^ ^ ^ ^ ^ ^ ^ ^ ^ ^ ^ ^ ^ ^ ^ ^ ^ ^ ^ { ^ ^ ^ 6 ( 5 ^ ^ ^ ^ 7 S ^ ^ ^ ^ ^ ^ ^ ^ ^ ^ / / / ^ ^ ^ ^ ^ { ^ ^ ^ ^ ^ { ^ ^ ^ ^ ^ ^ ^ ^ ^ { { ^ ~ ~ ~ ^ ^ ^ ^ ^ ^ { ^ ^ ^ ^ 1 R 2 ^ ^ ^ ^ ^ % ",
"% * ~ ~ ~ ~ ~ ~ ~ ~ ~ ~ ^ ^ ^ ^ ^ { { { ^ ^ ^ ^ ^ ^ ^ ^ ^ ^ ^ ^ ^ ^ ^ ^ ^ ^ ^ ^ ^ ^ ^ ^ ^ { ^ ^ ^ { { { ^ ^ ^ ^ ^ ^ ^ ^ { ^ ^ { ^ { { / Q ^ ^ ^ ^ ^ ^ { ^ ^ ^ ^ ^ ^ ^ ^ ^ ^ ^ ^ ^ ^ ^ { ^ ^ ^ ^ ^ { ^ ^ ^ Q / ^ ^ ^ ^ ^ ^ ^ ^ ^ ^ ^ ^ ^ ^ ^ ^ ^ ^ ^ ^ 5 | ^ ^ ^ ^ ^ ^ ^ ^ { { { ^ ^ ^ { ^ { { ^ ^ ^ { ^ ^ ^ ^ ^ ^ ^ S R / ^ { ^ ^ ^ { ^ ^ ^ ^ ^ ^ ^ ^ ^ ^ ^ ^ ^ ^ ^ ^ ^ ^ ^ ^ ^ ^ ^ ^ ^ ^ ^ ^ ^ ^ 1 7 2 ^ ^ ^ ^ ^ ^ ^ ^ ^ | Q { ^ ^ ^ ^ ^ ^ { ^ { ^ ^ { { ^ ^ ^ ^ ^ ^ ^ ^ ^ { ^ ^ ~ ~ ^ ^ ^ ^ ^ ^ ^ ^ ^ ^ ^ ^ 2 / / | ^ ^ ^ ^ % ",
"% - ~ ~ ~ ~ ~ ~ ~ ~ ^ ^ ^ ^ ^ ^ ^ { { ^ ^ ^ ^ ^ ^ ^ ^ ^ ^ ^ ^ ^ ^ ^ ^ ^ ^ ^ ^ ^ ^ ^ ^ ^ ^ ^ ^ ^ ^ ^ { { ^ ^ ^ ^ ^ ^ ^ ^ ^ ^ ^ { ^ { { / 2 ^ ^ ^ ^ ^ ^ ^ ^ ^ ^ ^ ^ ^ ^ ^ ^ ^ ^ ^ ^ ^ ^ ^ ^ ^ ^ ^ ^ ^ ^ ^ ^ ^ 7 ^ ^ ^ ^ ^ ^ ^ ^ ^ ^ ^ ^ ^ ^ ^ ^ ^ ^ ^ ^ ^ ^ ^ ^ ^ { ^ ^ ^ ^ { ^ { ^ ^ ^ ^ ^ ^ { ^ ^ ^ { ^ ^ ^ ^ ^ ^ ^ ^ ^ ^ ^ { ^ ^ ^ { ^ ^ ^ ^ ^ ^ { { ^ ^ ^ ^ ^ ^ ^ ^ ^ ^ ^ ^ ^ ^ ^ ^ ^ ^ ^ ^ ^ ^ { { ^ ^ ^ ^ ^ ^ ^ ^ ^ ^ / ^ ^ ^ ^ ^ ^ ^ ^ { ^ { ^ ^ { ^ ^ ^ ^ ^ ^ ^ ^ ^ ^ { ^ ~ ^ ^ ^ { ^ ^ ^ ^ ^ ~ ^ ^ ^ ^ ^ / / ^ ^ ~ ^ ^ % ",
". * ~ ~ ~ ~ ~ ~ ~ ~ ~ ^ ^ ^ ^ ^ ^ ^ { { ^ ^ ^ ^ ^ ^ ^ ^ ^ ^ ^ ^ ^ ^ ^ ^ ^ ^ ^ ^ ^ ^ ^ ^ ^ ^ ^ ^ ^ ^ ^ { ^ ^ ^ ^ ^ ^ ^ ^ ^ ^ ^ ^ ^ { { ^ ^ ^ ^ ^ ^ { ^ ^ ^ ^ ^ ^ ^ ^ ^ ^ 7 ^ ^ ^ ^ ^ ^ { ^ ^ ^ ^ ^ ^ | ( ^ ^ 5 / ^ ^ ^ 1 ^ ^ / 3 ^ ^ ^ ^ ^ ^ ^ ^ { { ^ ^ ^ ^ ^ ^ { ^ ^ ^ ^ { ^ ^ ^ ^ ^ { ^ ^ { ^ ^ { { ^ ^ ^ ^ ^ ^ ^ ^ ^ ^ ^ ^ ^ ^ { { ^ ^ ^ ^ ^ ^ { { ^ ^ ^ ^ ^ { { ^ ^ ^ ^ ^ ^ ^ ^ ^ ^ ^ ^ ^ ^ ^ { { ^ ^ ^ ^ ^ ^ ^ ^ ^ ^ ^ ^ ^ ^ ^ ^ ^ ^ ^ { ^ { ^ ^ { ^ ^ ^ ^ ^ ^ ^ ^ ^ ^ { ^ ^ ^ ^ ^ { ^ { ^ ^ ^ { { ^ ^ ^ ( / 4 2 ^ ^ ^ ^ % ",
"% * ~ ~ ~ ~ ~ ~ ~ ~ ^ ^ ^ ^ ^ ^ ^ ^ ^ ^ ^ ^ ^ ^ ^ ^ ^ ^ ^ ^ ^ ^ ^ ^ ^ ^ ^ ^ ^ ^ ^ ^ ^ ^ ^ ^ ^ ^ ^ ^ ^ ^ ^ ^ ^ ^ ^ ^ ^ ^ { ^ ^ ^ ( { { ^ ^ ^ ^ ^ ^ { ^ { ^ ^ ^ ^ ^ ^ ^ 5 / ..1 ( ^ ^ ^ { ^ ^ ^ ^ ^ ^ | ^ ^ ^ / / ^ ^ ^ | 6 / ^ 7 ^ ^ ^ ^ ^ ^ ^ ^ ^ ^ ^ ^ ^ ^ ^ ^ ^ ^ ^ ^ ^ { ^ ^ ^ ^ ^ { ^ ^ { ^ ^ { { ^ ^ ^ ^ ^ ^ ^ ^ ^ ^ ^ ^ ^ { { { ^ ^ { ^ { ^ { { ^ ^ ^ ^ ^ { { ^ ^ ^ ^ ^ { ^ ^ ^ ^ ^ ^ ^ ^ ^ { ^ { ^ ^ ^ ^ ^ ^ ^ ^ ^ ^ ^ ^ ^ ^ ^ ^ ^ ^ { ^ ^ ^ ^ { ^ ^ ^ ^ ^ ^ ^ ^ ^ ^ { ^ ^ ^ ^ ^ { ^ { ^ ^ ~ { { ^ ^ ^ / / ^ ^ ^ 2 ^ ^ % ",
"% * ~ ~ ~ ~ ~ ~ ~ ~ { ~ ^ ^ ^ ^ ^ ^ ^ ^ ^ ^ ^ { { ^ ^ ^ ^ ^ ^ ^ ^ ^ ^ ^ ^ ^ ^ ^ ^ ^ ^ ^ ^ ^ ^ ^ ^ { ^ ^ ^ ^ ^ ^ ^ ^ ^ { { ^ ^ ^ { { { ^ ^ ^ ^ ^ ^ ^ ^ { ^ ^ ^ ^ ^ ^ ^ T / / 4 Q ^ ^ ^ { ^ ^ ^ ^ ^ ^ ^ ^ ^ ^ ( ( ^ ^ ^ ^ ^ ^ ^ Q ..^ ^ ^ ^ ^ ^ ^ ^ ^ ^ ^ ^ ^ { ^ { ^ ^ ^ ^ { ^ { Q R 5 { ^ { { ^ ^ { { ^ ^ ^ ^ ^ ^ ^ ^ ^ ^ ^ ^ ^ { ^ { ^ ^ { { { ^ { { ^ ^ ^ { ^ { ^ ^ ^ ^ ^ ^ { ^ ^ ^ ^ ^ ^ ^ ^ ^ { { { ^ ^ ^ ^ ^ ^ ^ ^ R 2 ^ ^ ^ ^ ^ ^ ^ ^ { ^ ^ ^ ^ { ^ ^ ^ ^ ^ ^ ^ ^ ^ ^ { ^ ^ ^ ~ ~ { 1 { ^ ^ ~ ^ { ^ ^ / / 5 ^ ^ ^ ^ ^ { % ",
"% * ~ ~ ~ ~ ~ ~ ~ { { ~ ~ ~ ~ ~ ^ ~ ^ ^ ^ ^ ^ { { ^ ^ ^ ^ ^ ^ { ^ ^ ^ ^ ^ ^ ^ ^ ^ ^ ^ ^ ^ { ^ ^ ^ ^ ^ ^ ^ ^ ^ ^ ^ ^ ^ { { ^ ^ ^ { / { ^ ^ ^ ^ [ ^ ^ ^ { ^ ^ ^ ^ ^ ^ ^ / / / | 7 T ^ ^ { ^ ^ / ^ ^ ^ ^ ^ ^ ^ ^ ^ ^ ^ ^ ^ ^ / ^ / 2 1 ^ ^ ^ ^ ^ ^ { ^ ^ ^ ^ ^ ^ ^ ( 3 / 1 ^ { ^ { ^ ^ ^ { { { { { { { { ^ ^ ^ ^ ^ ^ ^ ^ ^ ^ ^ ^ ^ { ^ { ^ ^ { { ^ ^ { { ^ ^ ^ ^ { { ^ ^ ^ ^ ^ ^ { { ^ ^ ^ ^ ^ ^ ^ ^ { { { ^ ^ ^ ^ ^ 1 ^ ^ / / ^ ^ S 3 { ^ ^ ^ ^ ^ { ^ ^ { { ^ ^ ^ ^ ^ ^ ^ ^ ^ { ^ ^ ~ ~ ^ { ^ { ^ ^ ^ ^ ^ ( ( ^ ^ ^ ^ ^ ^ ^ ^ ^ % ",
"}.* ~ ~ ~ ~ ~ ~ ~ ~ { ~ ~ ~ ~ ~ ^ ^ ^ ^ ^ ^ ^ { { ^ ^ ^ ^ ^ ^ { ^ ^ ^ ^ ^ ^ ^ ^ ^ ^ ^ ^ ^ { ^ ^ ^ { ^ ^ ^ ^ ^ ^ ^ ^ ^ { { ^ ^ { { / { 3 / 4 7 3 { ^ ^ { ^ ^ ^ ^ ^ ^ ^ / / / 3 ^ / ^ ^ ^ ^ ^ / ^ ^ ^ ^ ^ ^ ^ ^ ^ ^ ^ ^ Q Q 4 / 7 1 ^ ^ ^ ^ ^ ^ { { { ^ ^ ^ ^ ^ ^ ^ | / / ^ { ^ { ^ ( ^ ^ { { { { { ^ ^ ^ ^ ^ ^ ^ ^ ^ ^ ^ ^ ^ ^ ^ ^ { ^ ^ ^ { { ^ ^ { ^ ^ ^ ^ ^ { { ^ ^ ^ ^ ^ ^ { { ^ ^ ^ [ [ ^ ^ ^ ^ { { ^ ^ ^ ^ ^ / { ^ / / 5 7 / 1 { / 4 ^ ^ ^ { ^ ^ { { ^ ^ ^ ^ ^ ^ ^ ^ ^ { ^ ~ ~ ^ ^ { ^ { ^ ^ ^ ^ ^ ^ ( ^ ^ ^ ^ ^ ^ ^ ^ { % ",
"|.* ~ ~ ~ ~ ~ ~ ~ ^ ^ ~ ~ ^ ~ ~ ^ ^ ^ ^ ^ ^ ^ ^ ^ ^ ^ ^ ^ ^ ^ { ^ ^ ^ ^ ^ ^ ^ ^ ^ ^ ^ ^ ^ ^ ^ ^ ^ { ^ ^ ^ ^ ^ ^ ^ ^ ^ { { ^ ^ { { / { / / 5 Q 1 { ^ { { ( ^ 2 ^ ^ ^ ^ / / / / 3 / ^ ^ ^ ^ ^ ^ [ ^ ^ ^ ^ ^ ^ ^ ^ ( ^ ^ Q / / 7 / ^ ^ ^ ^ ^ 7 ^ { { { ^ ^ ^ ^ ^ ^ ^ 5 5 | / / ^ { ^ ^ ^ ^ ^ { { ^ ^ { ^ ^ ^ ^ ^ ^ ^ ^ ^ ^ ^ 1 ^ ^ ^ { { ^ ^ { { { { { { ^ ^ ^ ^ { { ^ ^ ^ ^ ^ ^ { { ^ ^ ^ 5 1 1 ^ ^ { { { ^ ^ ^ ^ ^ ..3 [ / / [ / / R | 2 / / 7 ^ { ^ ^ ^ { ^ ^ ^ ^ ^ ^ ^ ^ ^ ^ ^ ~ ^ ^ ^ { ^ ^ ~ ^ ^ ..5 1 / ^ 1 ^ ^ ^ ^ ^ ^ { % ",
"% * ~ ~ ~ ^ { ~ ^ ^ ~ ~ ~ ^ ~ ~ ^ ^ ^ ^ ^ ^ ^ ^ ^ ^ ^ ^ ^ ^ ^ ^ ^ ^ ^ ^ ^ ^ ^ ^ ^ ^ ^ ^ ^ ^ ^ { ^ ^ ^ ^ ^ ^ ^ ^ ^ ^ ^ ^ { ^ ^ { / / { [ 5 ^ 1 { { { ^ { / / Q ^ ^ ^ ^ [./ / / / / ^ ^ ^ ^ ^ ^ ^ ^ ^ ^ ^ ^ ^ ^ ^ ^ ^ [ / / 6 ^ ^ ^ ^ ^ ^ ^ ..{ { { { ^ ^ ^ ^ ^ ^ ^ 4 / / / / ^ { ^ ^ ^ ^ ^ { { ^ ^ { ^ ^ ^ ^ ^ ^ ^ ^ ^ ^ ^ ^ ^ ^ ^ { { ^ ^ ^ { { ^ { ^ ^ ^ ^ ^ { { ^ ^ ^ ^ ^ ^ { { ^ ^ ( 5 S ^ ^ ^ ^ ^ ^ ^ ^ ^ ^ ^ ^ ^ ^ ^ 7 / / / / 1 ^ 5 / ( ^ 2 ^ ^ { { ^ ^ ^ ^ 1 ^ ^ ^ { { ^ ^ ^ ^ ^ ^ ^ / < ^ R / / / / ( 7 ^ ^ ^ ^ ^ ^ ^ % ",
"% * ~ ~ ~ ~ { ~ ^ ^ ~ ^ ~ ^ ~ ^ ^ ^ ^ ^ ^ ^ ^ ^ ^ ^ ^ ^ ^ ^ ^ ^ ^ ^ ^ ^ ^ ^ ^ ^ ^ ^ ^ ^ ^ ^ { { ^ ^ ^ ^ ^ ^ ^ ^ ^ ^ ^ ^ ^ ^ ^ { / 2 ^ ^ ^ ^ ^ ^ ^ { / / / 2 2 ^ ^ ^ 5 / / / / / / ^ ^ T ^ ^ ^ ^ ^ ^ ^ ^ ^ ^ ^ ^ ^ ^ ^ ^ ^ ^ ^ ^ ^ ^ ^ ^ ^ ^ ^ { { { ^ ^ ^ ^ ^ ^ { ^ / ^ ^ ^ ^ { ^ ^ ^ ^ ^ ^ ^ { ^ { ^ ^ ^ ^ ^ ^ ^ ^ ^ ^ ^ ^ { { ^ { { ^ ^ ^ { ^ ^ { { ^ ^ ^ ^ { ^ ^ ^ ^ ^ ^ ^ { ^ ^ 2 / / / ^ ^ ^ ^ ^ ^ ^ ^ ^ ^ ^ 2 / / / / / / / / / ^ ^ 1 ^ ^ ^ ^ ^ { { ^ ^ ^ ^ ^ ^ ^ ^ { { ^ ^ ^ ^ ^ { ^ / [ ^ ^ / / / / | 4 Q ~ ^ ^ ^ ^ ~ % ",
"% * ~ ^ ~ ~ { ~ ~ ^ ~ ~ ~ ^ ^ ^ ~ ^ ^ ^ ^ ^ { { ^ ^ ^ ^ ^ ^ { ^ ^ ^ ^ ^ ^ ^ ^ ^ ^ ^ ^ ^ ^ ^ { { ^ ^ ^ ^ ^ ^ ^ ^ ^ ^ ^ ^ ^ ^ ^ { ^ ^ ^ ^ ^ ^ ^ ^ R / / / / 7 [ [ ^ / / / / / / / / ^ ^ ^ ^ ^ ^ ^ ^ ^ ^ ^ ^ ^ ^ ^ ^ ^ ^ ^ ^ ^ ^ ^ ^ ^ ^ ^ ^ ^ ^ ^ ^ ^ ^ ^ { ^ ^ ^ { ^ ^ { ^ ^ ^ { ^ ^ ^ ^ ^ ^ ^ ^ ^ { ^ ^ ^ ^ ^ ^ ^ ^ ^ { ^ ^ ^ { ^ { { ^ ^ ^ ^ ^ ^ { { { ^ ^ ^ ^ ^ ^ ^ ^ ^ ^ ^ { { 1 4 / R 5 1 ^ ^ ^ ^ ^ ^ ^ ^ ^ ^ 1 4 / / / / | / / R ^ ^ ^ ^ ^ { ^ ^ { ^ ^ ^ ^ ^ ^ ^ ^ ^ ^ ^ ^ ^ ^ ^ ^ { ^ { ^ ^ ^ ^ 2 / / Q 2 7 ~ ^ ^ ^ ^ ^ % ",
"% * ~ ^ ~ ~ ~ ~ ~ ~ ^ ~ ~ ^ ^ ^ ~ ^ ^ ^ ^ ^ { { { ^ ^ ^ ^ ^ { ^ ^ ^ ^ ^ ^ ^ ^ ^ ^ ^ ^ ^ ^ ^ ^ ^ ^ ^ ^ ^ ^ ^ ^ ^ ^ ^ ^ ^ ^ ^ ^ { ^ { ^ ^ ^ ^ ^ 3 / / / / / / 2 ^ ^ / / / / / / / / / ^ ^ ^ ^ ^ ^ ^ ^ ^ ^ ^ ^ ^ ^ ^ ^ ^ ^ ^ ^ ^ ^ ^ ^ ^ ^ ^ ^ ^ { { ^ ^ ^ { ^ ^ ^ { ^ ^ ^ ^ ^ ^ ^ ^ ^ ^ ^ ^ ^ ^ ^ ^ ^ ^ ^ ^ ^ ^ ^ ^ ^ ^ ^ ^ ^ ^ { ^ { ^ ^ ^ ^ ^ { ^ { ^ { ^ ^ ^ ^ ^ ^ ^ ^ ^ ^ { { { ^ 3 / / / 2 ^ ^ ^ ^ ^ ^ ^ ^ ^ ^ ^ / 4 / / ^ ^ ^ ^ ^ ^ ^ ^ ^ ^ ^ ^ ^ { ^ ^ ^ ^ ^ ^ ^ ^ ^ ^ ^ ^ ^ ^ ^ ^ { ^ ~ ^ ^ ^ ^ ^ [ / / ^ ~ ~ ^ ^ ^ ^ ^ % ",
"% * ~ ~ ~ ~ ^ ^ ^ ^ ^ ~ ~ ~ ^ ^ ^ ^ ^ ^ ^ ^ ^ ^ { ^ ^ ^ ^ ^ ^ ^ ^ ^ ^ ^ ^ ^ ^ ^ ^ ^ ^ ^ ^ ^ ^ 2 ^ { ^ ^ ^ ^ ^ ^ ^ ^ ^ { ^ ^ ^ { ^ { ^ ^ ^ ^ ^ ^ ^ ^ { / ^ ^ ^ ^ ^ / / ^ ^ ^ / / / / ^ ^ ^ ^ ^ ^ ^ ^ ^ ^ ^ ^ ^ ^ ^ ^ ^ ^ ^ ^ ^ ^ ^ ^ ^ ^ ^ ^ ^ ^ { ^ ^ ^ { ^ ^ { { ^ ^ ^ ^ { ^ ^ ^ ^ ^ ^ ^ ^ ^ ^ ^ ^ ^ ^ ^ ^ ^ ^ ^ ^ ^ { ^ { ^ ^ ^ ^ ^ ^ ^ ^ { ^ ^ ^ ^ { ^ ^ ^ { { ^ ^ ^ ^ ^ { { ^ ^ ^ ^ / / R ^ ^ ^ ^ ^ ^ { ^ ^ ^ ^ ^ 6 7 ^ ^ ^ ^ ^ ^ ^ ^ ^ ^ ^ ^ ^ 1 ^ ^ ^ ^ ^ ^ ^ ^ ^ ^ { ^ ^ ~ ~ ^ ^ { ^ ^ ^ S 7 ^ ^ ^ 5 ( ^ ^ ^ ^ ^ ^ ^ ^ % ",
"@ = { ~ ~ ~ ^ ~ ~ ~ ~ ~ ~ ~ ^ ^ ^ ^ ^ ^ ^ ^ ^ ^ { ^ ^ ^ ^ ^ ^ ^ ^ ^ ^ ^ ^ ^ ^ ^ ^ ^ ^ ^ { ^ ^ ^ ^ { { ^ ^ ^ ^ ^ ^ ^ ^ { ^ ^ ^ { ^ { ^ ^ ^ ^ ^ ^ ^ ^ ^ ^ ^ ^ ^ [ [ / / ^ ^ ^ / 1 ^ / ^ ^ ^ ^ ^ ^ ^ ^ ^ ^ ^ ^ ^ ^ ^ ^ ^ ^ ^ ^ ^ ^ ^ ^ ^ ^ ^ ^ ^ ^ ^ ^ ^ ^ { ^ ^ ^ { ^ ^ ^ ^ { ^ ^ ^ ^ { 5 / { ^ ^ ^ ^ ^ ^ ^ ^ ^ ^ ^ ^ ^ { ^ { ^ ^ ^ ^ ^ ^ ^ ^ { { ^ { { { ^ ^ ^ { { ^ ^ ^ 5 / ^ ^ ^ ^ ^ ^ ( | ^ ^ ^ ^ ^ ^ ^ ^ ^ ^ ^ ^ ^ [ 7 ^ ^ 4 / | ^ { / | ^ ^ ^ ^ ^ { ^ ^ ^ ^ ^ ^ ^ ^ ^ { ^ ^ ~ ~ ^ ^ ^ ^ ^ ^ ( 2 ^ ^ ^ ^ ^ ^ ^ ^ ^ ^ ^ ^ ^ 1.",
"  * { ~ ~ ~ ~ ~ ~ ~ ~ ~ ~ ~ ~ ~ ~ ~ ^ ^ ^ ^ ^ ^ ^ ^ ^ ^ ^ ^ ^ ^ ^ ^ ^ ^ ^ ^ ^ ^ ^ ^ ^ ^ ^ ^ { ^ ^ { { ^ ^ ^ ^ ^ ^ ^ ^ { ^ ^ ^ { ^ { ^ { ^ ^ ^ ^ ^ ^ ^ ^ ^ Q / / / / / Q 3 / / ^ ^ ^ ^ ^ ^ ^ ^ ^ ^ ^ ^ ^ ^ ^ ^ ^ ^ ^ ^ ^ ^ ^ ^ ^ ^ ^ ^ ^ ^ ^ ^ { ^ ^ ^ ^ { ^ ^ ^ ^ ^ ^ { ^ { ^ ^ ^ ^ { { ^ { 5 ^ ^ ^ ^ ^ ^ ^ ^ ^ ^ ^ ^ ^ ^ ^ ^ ^ ^ ^ ^ ^ ^ ^ { { ^ { { ^ ^ ^ ^ { { ^ ^ ^ / ^ { ^ ^ ^ ^ ^ ^ ^ ^ ^ ^ { ^ ^ ^ ^ ^ ^ ^ ^ ^ [.^ ^ ^ / / [ ^ 7 / 1 ^ ^ ^ ^ ^ { ^ { ^ ..^ ^ ^ ^ ^ { ^ ^ ^ ^ ^ ^ ^ ^ ^ ^ ^ ^ ^ ^ ~ ^ ^ ^ ^ ^ ^ ^ ^ ^ ^ % ",
"  * ~ ~ ~ ~ ~ ~ ~ ~ ~ ~ ^ ~ ^ ~ ~ ^ ^ ^ ^ ^ ^ ~ ^ ^ ^ ^ ^ ^ ^ ^ ^ ^ ^ ^ ^ ^ ^ ^ ^ ^ ^ ^ { ^ { ^ ^ ^ ^ ^ ^ ^ ^ ^ ^ ^ { { ^ 4 ^ { ^ { ^ { Q ^ ^ ^ ^ ^ { ^ ^ ^ 4 / / / / / / / / ^ ^ ^ ^ ^ ^ ^ ^ ^ ^ ^ ^ ^ ^ ^ ^ ^ ^ ^ ^ ^ ^ ^ ^ ^ ^ ^ ^ ^ ^ ^ ^ ^ ^ { ^ ^ { ^ ^ ^ ^ ^ ^ ^ ^ { ^ ^ ^ | { ^ ^ ^ ^ ^ ^ { ^ ^ ^ ^ ^ ^ ^ ^ ^ ^ ^ ^ { ^ ^ ^ ^ ^ ^ ^ { { ^ { { ^ ^ ^ { ^ { ^ ^ ^ / ( ^ ^ ^ ^ ^ ^ ( ^ ^ ^ ^ { ^ ^ ^ ^ ^ ^ ^ ^ ^ 1 ^ ^ ^ ^ 2 ^ ^ S ^ ^ ^ ^ { ^ ^ { ^ { ^ / ^ ^ ^ ^ ^ { ^ ^ ^ ^ ^ ^ ^ ^ ^ ^ ^ ^ ^ ~ ~ ^ ^ { ^ ^ ^ ^ ^ ^ ^   ",
"% * { ^ ~ { ~ ~ ~ { ~ ~ ^ ~ ~ ~ ~ ~ ^ ^ ^ ^ ^ { ~ ^ ^ ^ ^ ^ ^ ^ ^ ^ ^ ^ ^ ^ ^ ^ ^ ^ ^ ^ { ^ { ^ ^ ^ ^ ^ ^ ^ ^ ^ ^ ^ { { ^ ^ ^ { ^ { ^ ^ ^ ^ ^ ^ ^ ^ ^ ^ ^ / / / / 2 ( / / / / S ^ ^ ^ ^ ^ ^ ^ ^ ^ ^ ^ ^ ^ ^ ^ ^ ^ ..( ^ ^ ^ ^ ^ ^ ^ ^ ^ ^ ^ ^ ^ ^ { ^ ^ { ^ ^ ^ ^ ^ ^ ^ ^ { ^ ^ ^ ^ { ^ ^ { ^ { ^ { ^ ^ ^ ^ ^ ^ ^ ^ ^ ^ ^ ^ { { ^ ^ ^ ^ ^ ^ { ^ ^ { { ^ ^ ^ { ^ ^ ^ ^ ^ ^ ^ { ^ ^ ^ ^ ( 5 ^ ^ ^ ^ { ^ ^ ^ ^ ^ ^ ^ ^ ^ ^ ..^ 1 S / / ^ ^ ^ ^ ^ ^ { ^ ^ { ^ { ^ 4 ^ ^ ^ ^ ^ ^ ^ ^ ^ ^ ^ ^ ^ ^ ^ ^ ^ ..[ ~ ~ ^ ^ ^ ^ ^ ^ ^ ^ ^ ^ % ",
"% * { { ^ { ~ ~ ^ ~ ~ ~ ^ ~ ^ ~ ~ ~ ^ ^ ^ ^ ^ { ^ ^ ^ ^ ^ ^ ^ ^ ^ ^ ^ ^ ^ ^ ^ ^ ^ ^ ^ ^ / 7 [.7 ^ ^ ^ ^ ^ ^ ^ ^ ^ ^ { ^ ^ ^ ^ { ^ { ^ ^ ^ ^ ^ ^ ^ ^ ( / / / / / / 1 [ / / / [ ^ ^ ^ ^ / / ^ ^ ^ ^ ^ ^ ^ ^ ^ ^ ^ ^ ^ 6 ^ ^ ^ ^ ^ ^ ^ ^ ^ ^ ^ ^ ^ ^ ^ ^ ^ { 1 ^ ^ ^ ^ ^ ^ ^ { ^ ^ ^ ^ ^ ^ { { / ^ ^ { ^ ^ ^ ^ ^ ^ ^ ^ ^ ^ ^ ^ { { ^ ^ ^ ^ ^ { { ^ ^ { { / 5 ( ^ { { ^ ^ ^ ^ ^ { ^ ^ ^ ^ ( ( ^ ^ ^ ^ { { ^ ^ ^ ^ ^ ^ ^ ^ ( ^ ^ ^ ^ ^ T 5 ^ ^ ^ ^ ^ ^ ^ ^ { ^ { ^ ^ ^ ^ ^ ^ ^ ^ ^ ^ ^ ^ ^ ^ ^ ^ ^ ^ ^ / 4 ^ ^ ^ ^ { ^ ^ ^ ^ ^ ^ ^ % ",
"% - { { ^ ~ ~ ^ ~ ~ ~ ~ ~ ~ ^ ^ ~ ~ ~ ^ ^ ^ { { ~ ^ ^ ^ ^ ^ ^ ^ ^ ^ ^ ^ ^ ^ ^ ^ ^ ^ ^ ^ / / { ^ { ^ ^ ^ ^ ^ ^ ^ ^ ^ ^ ^ ^ ^ ^ { ^ { ^ ^ ^ ^ S / 3 ( / / / / / / [ 2 / / / ( ^ ^ ^ ^ ^ ^ ^ 6 ^ ^ ^ ^ ^ ^ ^ ^ ^ ^ ^ ^ 7 ^ ^ ^ ^ ^ ^ ^ ^ ^ ^ ^ ^ ^ ^ ^ ^ { { ( 7 ^ ^ ^ ^ ^ ^ { ^ ^ ^ ^ ^ ^ { ^ / / ^ { ^ ^ ^ ^ ^ ^ ^ ^ ^ ^ ^ ^ ^ ^ ^ ^ ^ ^ ^ { { ^ ^ { { 3 ^ ^ ^ { { ^ ^ ^ ^ ^ ^ ^ ^ { ^ / S ^ ^ ^ ^ { { ^ ^ ^ ^ ^ ^ ^ ^ ^ ^ ^ ^ ^ ^ ^ ^ ^ ^ ^ ^ ^ ^ ^ ^ ^ 7 ^ ^ ^ ^ ^ ^ ^ ^ ^ ^ ^ ^ ^ ^ ^ ^ ^ ^ ^ ^ ~ ~ ~ ^ ^ ^ ^ ^ ^ ^ ^ { { ^ % ",
"% * ^ ^ ^ ~ ~ ~ ~ ~ ~ ~ ~ ~ ~ ^ ^ ~ ~ ~ ~ ^ { { ~ ^ ^ ^ ^ ^ ^ ^ ^ ^ ^ ^ ^ ^ ^ ^ ^ ^ ^ ^ 5 5 { ^ { ^ { ^ ^ ^ ^ ^ ^ ^ ^ 2 ^ ^ ^ ^ ^ { ^ ^ ^ ^ ^ ^ 3 3 / / / Q / / / / / / / ^ ^ ^ ^ ^ ^ ^ ^ ^ ^ ^ ^ ^ ^ ^ ^ ^ ^ ^ ^ ^ 6 ^ ^ ^ ^ ^ ^ ^ ^ ^ ^ ^ ^ ^ ^ ^ ^ { ^ S [ { ^ ^ ^ ^ ^ { ^ ^ ^ ^ ^ ^ ^ ^ / / ^ { ^ ^ ^ ^ ^ ^ ^ ^ ^ ^ ^ ^ ^ ^ ^ ^ ^ ^ ^ { { ^ ^ { { 1 ^ ^ ^ { { ^ ^ ^ ^ ^ ^ ^ ^ { ^ ^ ^ ^ ^ ^ ^ ^ ^ { ^ ^ ^ ^ ^ ^ ^ ^ ^ ^ ^ ^ ^ { ^ ^ ^ ^ ^ ^ 6 / / / / ^ ^ ^ ^ ^ ^ ^ ^ ^ ^ ^ ^ ^ ^ ^ ^ ^ ^ ^ ^ ^ ^ ^ ^ ^ ^ ^ ^ ^ ^ ^ { ~ ^ % ",
"% * ~ ^ ~ ~ ~ ~ { ~ ~ ~ ~ ~ ~ ^ ^ ^ ^ ^ ~ ^ ^ ^ ^ ^ ^ ^ ^ ^ ^ ^ ^ ^ ^ ^ ^ ^ ^ ^ ^ ^ ^ ^ ^ ^ { ^ ^ ^ { ^ ^ ^ ^ ^ ^ ^ ^ ^ ^ ^ ^ { ^ { ^ ^ ^ ^ ^ ^ ^ ^ { ^ ^ ( / / / / / / / ^ ^ ^ ^ ^ ^ ^ ^ ^ ^ ^ ^ ^ ^ ^ ^ ^ ^ ^ ^ ^ ^ ^ ^ ^ ^ ^ ^ ^ ^ ^ ^ ^ ^ ^ ^ ^ ^ { ^ ^ ^ { ^ ..^ ^ ^ ^ ^ ^ ^ ^ ^ ^ { ^ ^ ^ ^ ^ ^ ^ ^ ^ ^ ^ ^ ^ ^ ^ ^ ^ ^ ^ ^ { ^ ^ ^ { { { { { ^ ^ ^ ^ ^ { { ^ ^ ^ 5 ^ ^ ^ ^ ^ ^ { ^ ^ ^ ^ ^ ^ ^ { ^ ^ ^ ^ ^ ^ ^ ^ ^ ^ ^ ^ ^ { ^ ^ ^ ^ ^ ^ / / / 2 / ^ ^ ^ ^ ^ ^ ^ ^ ^ ^ ^ ^ ^ ^ ^ ^ ^ ^ ^ ^ ^ ^ ^ ^ ^ ^ ^ ^ ^ ^ ~ ^ ^ ^ % ",
"% * ~ ~ ~ ~ ~ ^ { { ~ ~ ~ ~ ~ ^ ^ ^ ^ ^ ^ ^ ^ ~ ^ ^ ^ ^ ^ ^ { ^ ^ ^ ^ ^ ^ ^ ^ ^ ^ ^ ^ ^ { ^ { ^ { ^ { ^ ^ ^ ^ ^ ^ ^ ^ ^ ^ { ^ { ^ { ^ ^ ^ ^ ^ ^ ^ ^ { ^ ^ ^ / / / / / / / / ^ ^ ^ ^ ^ ^ ^ ^ ^ ^ T 4 ^ ^ ^ ^ ^ ^ ^ ^ ^ ^ ^ ^ ^ ^ ^ ^ ^ ^ ^ ^ ^ ^ ^ ^ ^ { { ^ ^ ^ ^ ^ ^ ^ ^ ^ ^ ^ ^ ^ { { { ^ { ^ ^ ^ ^ ^ ^ ^ ^ ^ ^ ^ ^ ^ ^ ^ ^ ^ ^ { ^ ^ ^ ^ ^ { { { ^ ^ ^ ^ ^ { { ^ ^ ^ S ^ 2 / ^ ^ ^ { ^ ^ ^ ^ ^ ^ ^ { ^ ^ ^ ^ ^ ^ { ^ ^ ^ ^ ^ ^ { ^ ^ ^ ^ ^ 1 Q / / [ ^ ^ ^ ^ { ^ ^ ^ ^ ^ ^ ^ ^ ^ ^ ^ ^ ^ ^ ^ ^ ^ ^ ^ ^ ^ ^ ^ ^ ^ ~ ~ ^ ^ { % ",
"% * ~ ~ { ~ { ~ { { ~ ~ ~ ~ ~ ~ ~ ~ ^ ^ ^ ^ ^ ^ ^ ^ ^ ^ ^ ^ { ^ ^ ^ ^ ^ ^ ^ / ^ ^ ^ ^ ^ { 3 { Q { ^ { ^ ^ ^ ^ ^ ^ ^ ^ ^ ^ { ^ ^ ^ ^ ^ ^ ^ ^ ^ ^ ^ ^ { ^ ^ ^ / / / / / / / Q ^ ^ ^ ^ ^ ^ ^ ^ ^ ^ 4 S ^ ^ ^ ^ ^ ^ ^ ^ ^ ^ ^ ^ ^ ^ ^ ^ ^ ^ ^ ^ ^ { ^ ^ { ^ ^ ^ ^ ^ ^ ^ ^ { ^ ^ ^ ^ ^ ^ { { { ^ { ^ ^ / 2 ^ ^ ^ ^ ^ ^ ^ ^ { ^ ^ ^ { ^ { ^ ^ ^ { ^ { { { ^ ^ ^ ^ ^ { ^ ^ ^ ^ 5 ^ { / ^ ^ ^ { ^ ^ ^ ^ ^ ^ { { ^ ^ ^ ^ ^ ^ ^ ^ ^ ^ ^ ^ ^ { ^ ^ ^ ^ ^ ^ ^ 1 / { ^ ^ ^ ^ { ^ ^ ^ ^ ^ ^ ^ ^ ^ ^ ^ ^ ^ ^ ^ ^ ^ ^ ^ ^ ^ ^ ^ ^ ^ { ^ { ^ { % ",
"% * ~ ~ { ~ { ~ ^ ^ ^ ~ ~ ~ ~ ~ ~ ~ ^ ^ ^ ~ ^ ^ ^ ^ ^ ^ ^ ^ ^ ^ ^ ^ ^ ^ ^ / / ^ ^ / ( ^ { ^ { ^ ^ ^ ^ ^ ^ ^ ^ ^ ^ ^ ^ ^ ^ { ^ ^ ^ { ^ ^ ^ ^ ^ ^ ^ { ^ ^ ^ ^ ^ R / / { / / T ^ ^ ^ ^ ^ ^ ^ ^ ^ ^ ^ ^ ^ ^ ^ ^ ^ ^ ^ ^ ^ ^ ^ ^ ^ ^ ^ ^ ^ ^ ^ ^ { ^ ^ ^ { { ^ ^ ^ ^ ^ ^ ^ ^ ^ ^ ^ ^ ^ ^ S { { 2 { { { Q ( ^ ^ ^ ^ ^ ^ ^ { { ^ ^ ^ { { { ^ ^ ^ { ^ { { { ^ ^ ^ ^ ^ { ^ ^ ^ ^ ^ ^ { ^ ^ ^ ^ ^ ^ ^ ^ ^ ^ ^ { { ^ ^ ^ ^ ^ ^ ^ ^ ^ ^ ^ ^ { ^ ^ ^ ^ ^ ^ ^ ^ 3 / ^ ^ ^ ^ ^ { ^ ^ 2 ^ ^ ^ ^ ^ 6 ^ ^ ^ ^ ~ ^ ^ ^ ^ ^ ^ ^ ^ ^ ^ ~ { ^ ^ ^ { % ",
"% * ~ ~ { ~ { ~ ~ ^ ~ ~ ~ ~ ~ ~ ~ ~ ^ ^ ^ ~ ^ ^ ^ ^ ^ ^ ^ ^ ^ ^ ^ ^ ^ ^ ^ / / ^ / / / { { ^ { ^ ^ 7 ^ { ^ { ^ ^ ^ ^ ^ ^ ^ ^ ^ ^ ^ { ^ ^ ^ ^ ^ ^ ^ ^ ^ ^ / ..^ ^ ^ 1 { ^ / 4 ^ ^ ^ ^ ^ ^ ^ ^ ^ ^ ^ ^ ^ ^ ^ ^ ^ ^ ^ ^ ^ ^ ^ ^ ^ ^ ^ ^ ^ ^ ^ ^ { ^ ^ ^ ^ { ^ ^ ^ ^ ^ ^ ^ ^ ^ ^ ^ ^ ^ ../ / { 5 { { { ^ ^ ^ ^ ^ ^ ^ ^ ^ ^ { ^ ^ ^ { { { ^ ^ ^ { ^ { { { ^ ^ ^ ^ ^ { { ^ ^ ( 1 5 { ^ ^ ^ ^ ^ ^ ^ ^ ^ ^ ^ { 1 ^ ^ ^ { ^ ^ ^ ^ ^ ^ ^ ^ ^ ^ ^ ^ ^ ^ ^ 3 | 2 7 ^ ^ ^ ^ ^ { 3 3 1 ^ ^ ^ ^ ^ ^ ^ ^ ^ ^ ^ ^ ^ ^ ^ ^ ^ ^ ^ ^ ^ ^ { ^ { { ^ % ",
"  * { ~ { ~ ~ ~ { ~ ~ ~ ~ ^ ^ ~ ~ ^ ^ ^ ^ { { ^ ^ ^ ^ ^ ^ ^ ^ ^ ^ ^ ^ ^ ^ ^ 6 ^ / / / { { ^ { ^ ^ ( ^ { ^ { ^ ^ ^ ^ ^ ^ ^ ^ ^ { { { ^ ^ ^ ^ ^ ^ ^ ^ ^ ^ / / ^ ^ ^ ^ ^ ^ ^ ^ ^ ^ ^ ^ ^ ^ ^ ^ ^ ^ ^ ^ ^ ^ ^ ^ ^ ^ ^ ^ ^ ^ ^ ^ ^ ^ ^ ^ ^ ^ ^ ^ { { { ^ ^ { ^ ^ ^ ^ ^ ^ ^ ^ ^ { ^ ^ ^ ^ { ^ { ^ { { { ^ ^ ^ ^ ^ ^ ^ ^ ^ ^ ^ ^ ^ ^ { { ^ ^ ^ ^ { ^ { { { ^ ^ ^ ^ ^ ^ { ^ ^ ^ ^ { { ^ ^ ^ ^ ^ ^ { ^ ^ { { { ^ ^ ^ { { ^ ^ ^ ^ ^ ^ ^ ^ ^ ^ ^ ^ ^ ^ ^ / / 7 S 1 ^ ^ ^ ^ ^ [ / / ^ ^ ^ ^ ^ ^ ^ { ^ ~ ^ ^ ^ ^ ^ ^ ^ ^ ^ ^ ^ ^ ^ ^ ^ { ^ % ",
"  * { ^ ^ ~ ~ ~ ~ ^ ^ ~ ~ ~ ~ ~ ~ ^ ^ ^ ^ ^ { ^ ~ ^ ^ ^ ^ ^ ^ ^ ^ ^ 1 ^ ^ ^ ^ ^ / / / Q 7 4 { [ ^ ^ ^ { ( { ^ ^ ^ ^ ^ ^ ^ ^ ^ ^ { { ^ ^ / ^ ^ ^ ^ ^ ^ ^ ^ / ^ ^ ^ ^ { ^ ^ ^ ^ ^ ^ ^ ^ ^ ^ ^ ^ ^ ^ ^ ^ ^ ^ ^ ^ ^ ^ ^ ^ ^ ^ ^ ^ ^ ^ ^ ^ ^ ^ ^ { ^ { ^ ^ { ^ ^ ^ { ^ ^ ^ ^ ^ { ^ 1 ^ ^ { ^ { ^ ^ ^ { ^ ^ ^ ^ ^ ^ ^ ^ ^ ^ ^ ^ ^ ^ ^ { ^ ^ ^ ^ ^ ^ ^ ^ { ^ ^ ^ ^ ^ ^ { ^ ^ ^ ^ ^ ^ ^ ^ ^ ^ ^ ^ ^ ^ ^ { { ^ ^ ^ ^ ^ { ^ ^ ^ ^ ^ ^ ^ ^ ^ ^ 7 ^ ^ ^ ^ / / ^ ^ { ^ ^ ^ ^ ^ [ / / ^ ^ ^ ^ ^ ^ ^ ^ ^ ^ ^ ^ ^ ^ ^ ~ ~ ~ ~ ^ ^ ^ ^ ^ ^ { ^   ",
"  * { ^ ~ ~ ~ ~ ~ ~ ~ ~ ^ ~ ~ ^ ^ ^ ^ ~ ~ { ^ ^ ^ ^ ^ ^ ^ ^ ^ ^ ^ ^ ^ ^ ^ ^ ^ Q / ^ 4 / / R 1 [ ^ S 7 / / Q 7 ^ ^ ^ ^ ^ ^ ^ ^ ^ { 4 / / / / ^ ^ ^ ^ ^ ^ ^ ^ ^ ^ ^ ^ ^ 4 T [ ^ ^ ^ ^ ^ ^ ^ ^ ^ ^ ^ ^ ^ ^ ^ ^ ^ ^ ^ ^ ^ ^ ^ ^ ^ ^ ^ ^ ^ ^ ^ ^ ^ ^ { ^ ^ ^ ^ ^ ^ { ^ ^ ^ ^ ^ { ^ ^ ^ ^ ^ ^ { ^ ^ ^ { ^ ^ ^ ^ ^ ^ ^ ^ ^ ^ ^ ^ ^ ^ ^ { ^ ^ ^ ^ ^ ^ ^ ^ { ^ ^ ^ ^ ^ ^ { ^ ^ ^ ^ ^ ^ ^ ^ ^ ^ ^ ^ { ^ ^ ^ { ^ ^ ^ ^ { { ^ ^ ^ ^ ^ ^ ^ ^ ^ ^ ^ ^ ^ ^ ^ ( 7 ^ ^ ^ ^ ^ / / / / ( [ ^ ^ ^ ^ ^ ^ ^ ^ ^ ^ ^ ^ ^ ^ ~ ~ ~ ~ ~ ~ ~ ^ ^ ^ ^ { ^   ",
"% * ~ ~ ~ ~ ~ ~ ~ ~ ~ ~ ^ ~ ~ ~ ~ ~ ~ ~ ^ ^ ^ ^ ^ ^ ^ ^ ^ { ^ { ^ ^ ^ ^ ^ ^ ^ ( R ^ ^ { ^ / { / 7 / / / / / / ^ ^ ^ ^ ^ ^ ^ ( { { / / / / / / ^ ^ ^ ^ ^ ^ ^ ^ ^ ^ ^ [./ / ^ ^ ^ ^ ^ / / / / ^ ^ ^ ^ ^ ^ ^ ^ ^ ^ ^ ^ ^ ^ ^ ^ ^ ^ ^ ^ ^ ^ ^ ^ ^ ^ { ^ ^ ^ ^ ^ ^ { ^ ^ ^ ^ ^ ^ ^ ^ ^ ^ ^ ^ { ^ ^ { { ^ ^ ^ ^ ^ ^ ^ ^ ^ ^ ^ ^ ^ ^ { { ^ ^ ^ ^ ^ ^ ^ { { ^ ^ ^ ^ ^ ^ ^ ^ ^ ^ ^ ^ ^ ^ ^ ^ ^ ^ ^ ^ ^ ^ { { ^ ^ ^ ^ ^ { ^ { ^ ^ ^ ^ ^ ^ ^ ^ ^ ^ ^ ^ ^ ^ ^ ^ ^ ^ [ / / 5 / Q ^ ^ ^ ^ ^ ^ ^ ^ ^ ^ ^ ^ ^ ^ ^ ^ ~ ~ ~ ~ ^ ^ ~ ^ ^ ^ ^ ^ ^   ",
"  * ~ ~ ~ ~ ~ ~ ~ ~ ~ ^ ~ ~ ~ ~ ~ ~ ~ ~ ~ ^ ^ ^ ^ ^ ~ ^ ^ { ^ { ^ ^ ^ ^ ^ ^ ^ ^ ^ ^ ^ R 3 ^ / | { ^ / / { / Q ^ ^ { { ^ ^ ^ { { { / / / / / / / ^ ^ ^ ^ ^ ^ ^ ^ ^ ^ ^ ^ ^ ^ ^ ^ ^ ^ / / / / ^ ^ ^ ^ ^ ^ ^ ^ ^ ^ ^ ^ ^ ^ ^ ^ ^ ^ ^ ^ ^ ^ ^ ^ ^ ^ ^ ^ ^ ^ ^ ^ ^ { ^ ^ ^ ^ ^ ^ ^ ^ ^ ^ ^ ^ { ^ { { { ^ ^ ^ ^ ^ ^ ^ ^ ^ ^ ^ ^ ^ ^ { { ^ ^ ^ ^ ^ ^ ^ { { ^ ^ ^ ^ ^ { { ^ ^ / R ^ ^ ^ ^ { ^ ^ ^ ^ ^ Q ^ { { ^ ^ ^ ^ { ^ ^ ^ ^ ^ ^ ^ ^ ^ ^ ^ ^ ^ ^ ^ ^ ^ ^ ^ 2 / / / [ [ { ^ ^ ^ ^ ^ ^ ^ ^ ^ ~ ~ ~ ^ ^ ^ ~ ~ ~ ~ ^ ^ ~ ~ ^ ^ { { ~ ~   ",
"  * ~ ^ ^ ~ ~ ~ { ~ ~ ~ ~ ~ ~ ~ ~ ~ ~ ~ ^ ^ ^ ^ ^ ^ ^ ^ ^ ^ ^ ^ ^ ^ ^ ^ ^ ^ ^ ^ ^ ^ ^ ( / / 2 ^ { ( / | { | ( 3 / { { Q T ^ 7 { / / / / / / / ^ ^ ^ ^ ^ ^ ^ ^ ^ ^ ^ ^ ^ ^ ^ ^ ^ ^ ^ ^ ^ [ 7 ^ ^ ^ ^ ^ 6 ( ^ ^ ^ ^ ^ ^ ^ ^ ^ ^ ^ ^ ^ ^ ^ ^ ^ ^ ^ ^ ^ ^ ^ ^ ^ ^ { ^ ^ ^ ^ ^ ^ ^ ^ ^ ^ ^ { { ^ { { { ^ ^ ^ ^ ^ ^ ^ ^ ^ ^ ^ ^ ^ ^ { { ^ ^ ^ ^ { ^ ^ { { ^ ^ ^ ^ ^ { { ^ ( / Q ^ ^ ^ ^ { ^ ^ ^ ^ ^ ^ ^ ^ { ^ ^ ^ ^ ^ ^ ^ ^ ^ ^ ^ ^ ^ ^ ^ ^ ^ ^ 6 ^ ^ ^ [./ / / ^ ^ ^ ^ { ^ 1 { ^ ^ ^ ^ ^ ^ ~ ~ ~ ^ ^ ~ ~ ~ ^ ^ ^ ~ ~ ~ { ^ { { { ~ . ",
"% * ~ ~ { ^ ~ ~ { ~ ~ ~ ~ ~ ~ ~ ~ ~ ~ ~ ^ ^ { ^ ^ ^ ^ ^ ^ ^ ^ ^ ^ ^ ^ ^ ^ ^ ^ ^ ^ ^ 4 [./ / ^ ^ { ^ 4 1 { 3 6 7 Q { { / R / / / / / / / / / ^ ^ ^ ^ ^ ^ ^ ^ S / ^ ^ ^ ^ ^ ^ ^ ^ ^ ^ ^ ^ ^ ^ ^ [./ ^ ^ ^ ( ^ ^ ^ ^ ^ ^ ^ ^ ^ ^ ^ ^ ^ ^ ^ ^ ^ ^ ^ ^ ^ ^ ^ ^ ^ ^ { ^ ^ ^ ^ ^ ^ ^ ^ ^ ^ { ^ { ^ { { { ^ ^ ^ ^ ^ ^ ^ ^ ^ ^ ^ ^ ^ ^ ^ ^ ^ ^ ^ ^ { ^ ^ { ^ ^ ^ ^ ^ ^ { ^ ^ ^ ..^ ^ ^ ^ { { ^ ^ ^ ^ ^ ^ ^ ^ { { ^ ^ ^ ^ ^ ^ ^ ^ ^ ^ ^ ^ ^ ^ ^ ^ ^ ^ ^ ^ ^ T ( R ^ ^ ^ ^ ^ { ^ ^ { ^ ^ ^ ^ ^ ^ ~ ~ ^ ^ ^ ^ ~ ~ ~ ^ ^ ~ ^ ^ { ^ { { { ~   ",
"  * { ~ { ~ ~ ~ ~ ~ ~ ^ ^ { ~ ~ ~ ~ ~ ~ ^ ^ { ^ ^ ^ ^ ^ ^ ^ ^ ^ ^ ^ ^ ^ ^ / / / / T 4 / / ^ { ^ { { { ^ { / { / 5 / / ^ S / / / / / 1 ^ R ^ ^ ^ ^ ^ ^ ^ ^ ^ ^ / T ^ ^ ^ ^ ^ ^ ^ ^ ^ ^ ^ ^ ^ ^ ^ ^ ^ ^ S / / ^ ^ ( ^ ^ ^ ^ ^ ^ ^ ^ ^ ^ ^ ^ ^ ^ ^ ^ ^ ^ ^ ^ ^ ^ ^ ^ ^ ^ ^ ^ ^ ^ ^ ^ ^ ^ ^ ^ ^ { ^ { ^ ^ ^ ^ ^ ^ ^ ^ ^ ^ ^ ^ ^ ^ { ^ / 6 5 ^ { ^ ^ ^ ^ ^ ^ ^ ^ ^ { ^ ^ ^ ^ ^ 6 2 ^ { { ^ ^ S / ^ ^ { { { { ^ ^ ^ { ^ { ^ ^ ^ ^ ^ ^ ^ ^ ^ ^ ^ ^ 1 [ ^ ^ / { ^ ^ ^ { ^ ^ ^ ^ { ^ ^ ^ ^ { { ^ ^ ^ ^ ^ ^ ^ ~ ~ ~ ^ ^ ^ ^ { ^ ^ { { ^ % ",
"  * { { { ~ ~ { ~ ~ ~ ~ ^ ^ ~ ~ ~ ~ ~ ^ ^ ^ { ^ ^ ^ S 4 ^ ^ ^ ^ ^ ^ ^ ^ ^ / / / / / / / / ^ { ^ { { { ^ { ( { / / / / ^ ^ 7 / / / 2 ^ ^ / ^ ^ ^ ^ ^ ^ ^ ^ ^ ^ ^ ^ ^ ^ ^ ( ^ ^ ^ ^ ^ ^ ^ ^ ^ ^ ^ ^ ^ ^ ^ / 5 / [ S ^ ^ ^ ^ ^ ^ ^ ^ ^ ^ ^ ^ ^ ^ ^ ^ ^ ^ ^ ^ ^ ^ ^ ^ ^ ^ ^ ^ ^ ^ ^ ^ ^ ^ ^ ^ ^ ^ ^ ^ ^ ^ ^ ^ ^ ^ ^ ^ ^ ^ ^ ^ ^ ^ ^ ^ ^ ^ ^ { { ^ ^ { ^ ^ ^ ^ ^ ^ { ^ ^ ^ ^ 4 / / 6 { { ^ ^ { ( / { { { { { ^ ^ ^ ^ ^ { ^ ^ ^ ^ ^ ^ ^ ^ ^ ^ ^ ^ Q / ^ ^ / { / / ^ { ^ ^ ^ ^ { ^ ^ ^ ^ { { { ^ ^ ^ ^ ^ ^ ~ ^ ^ ^ ^ ^ ^ { ~ ^ { { ^ % ",
"  * { { ~ ~ ~ { ~ ~ ~ ~ ^ ^ ^ ^ ~ ^ ^ ^ ^ ^ { ^ ^ ^ ^ ^ ^ ^ ^ ^ ^ ^ ^ ^ 1 7 4 / / / / 3 ^ ^ ^ ^ { ^ { / { ^ ^ / / / { T / Q / 3 ^ ^ ^ ^ 2 5 ^ ^ ^ { ^ ^ ^ ^ ^ ^ ^ ^ ^ 2 / 2 ^ ^ ^ ^ ^ ^ ^ ^ ^ ^ ^ ^ ^ ^ ^ ^ 5 / ^ ^ ^ ^ ^ ^ ^ ^ ^ ^ ^ ^ ^ ^ ^ ^ ^ ^ ^ ^ ^ ^ ^ { ( ( ^ ^ ^ ^ ^ ^ ^ ^ ^ ^ ^ ^ ^ ^ { ^ ^ ^ ^ ^ ^ ^ ^ ^ ^ ^ ^ ^ ^ ^ ^ ^ ^ ^ { { ^ ^ { ^ ^ ^ ^ ^ ^ ^ ^ ^ ^ ^ [ { R / { { / 4 { [./ { { { { ^ ^ ^ ^ ^ ^ ^ ^ ^ ^ ^ ^ ^ ^ ^ ^ ^ ^ ^ ^ [ ^ ^ / { / / ^ { ^ ^ ^ ^ { ^ ^ ^ ^ ^ ^ ^ ^ ^ ^ ^ ^ ^ ^ ^ ^ ^ ^ ^ ~ ~ ^ ^ { { ^ % ",
"  & { ~ ~ ~ ~ ~ ~ ~ ~ ~ ~ ~ ^ ^ ^ ^ ^ ^ ^ ^ ^ ^ ^ ^ ^ ~ ~ { ^ ^ ^ ^ ^ ^ ^ ^ { S 4 / / ^ ^ ^ { ^ ^ ^ / / { ^ / / / / / / / Q 4 { ^ { ^ ^ 6 / / / 3 { ^ ^ ^ ^ ^ ^ ^ [ ^ ^ 4 ^ ^ ^ ^ ^ ^ ^ ^ ^ ^ ^ ^ ^ ^ ^ ^ ^ ^ R 7 ^ ^ ^ ^ ^ ^ ^ ^ ^ ^ ^ ^ ^ ^ ^ ^ ^ ^ { ^ ^ ^ { 2 1 ^ ^ ^ ^ ^ ^ ^ ^ ^ ^ { ^ ^ ^ ^ ^ ^ ^ ^ ^ ^ ^ ^ ^ ^ ^ ^ ^ ^ ^ { ^ ^ ^ { ^ ^ ^ { ^ ^ ^ ^ ^ ^ ^ ^ ^ ^ ^ ^ { ^ R / / / / { Q / ^ { ^ { ^ ^ ^ ^ ^ ^ ^ ^ ^ ^ ^ ^ ^ ^ ^ ^ ^ / R 1 ^ ^ ^ ^ { Q ^ ^ { ^ ^ ^ ^ { ^ ^ 3 7 ^ ^ ^ ^ ^ ^ ^ ^ ^ { ^ { ^ ^ ^ ^ ~ ^ ^ ^ { ^ % ",
"  & ~ { ~ ~ ~ { { ~ ~ ~ ~ ~ ~ ~ ^ ^ ^ ^ ^ ^ ^ ~ ^ ^ ~ ~ ^ { ^ ^ ^ ^ ^ ^ ^ ^ { ^ ^ 4 / { [ ^ { ^ ^ ^ Q / { ^ / / / / / / / ^ ^ ( / { [ [ / / / / / { / ^ ^ ^ ^ ^ / / ^ ( | 7 ( ^ ^ ^ ^ ^ ^ ^ ^ ^ 7 T / ^ ^ ^ ^ ^ ^ ^ ^ ^ ^ ^ ^ ^ ^ ^ ^ ^ ^ ^ ^ ^ ^ ^ { ^ ^ ^ ^ { ^ ^ ^ ^ ^ ^ ^ ^ ^ ^ ^ ^ ^ ^ ^ ^ ^ ^ ^ ^ ^ ..^ ^ ^ ^ { ^ ^ ^ ^ ^ { ^ ^ ^ { ^ ^ ^ { ^ ^ ^ ^ { ^ ^ ^ ^ ^ ^ ^ ^ ^ ^ { ../ ^ ^ ^ 2 ^ { { { ^ ^ ^ ^ ^ ^ ^ ^ ^ ^ ^ ^ ^ ^ ^ ^ ^ / / ^ ^ ^ ^ ^ { ^ ^ ^ { ^ ^ ^ ^ { ^ ^ ^ ^ ^ ^ { ^ ^ ^ ^ ^ { ^ ^ ^ ^ ^ ^ ^ ^ ^ ^ ^ ^ ^   ",
"  * ~ ~ ~ ~ ~ ~ { ~ ~ ~ ~ ~ ~ ~ ^ ^ ^ ^ ^ ^ ^ ~ ^ ^ ~ ~ ^ ^ ^ ^ ^ ^ ^ ^ ^ ^ ^ ^ ^ ^ ^ { 4 ( { ^ ^ ^ ^ 4 { / / / / / / / | ^ S / / { ^ ^ Q / ^ / / { / 3 ^ ^ ^ ^ 4 Q ^ / / Q 5 4 7 ^ ^ ^ ^ ^ ^ ^ / / / / [ ^ ^ ^ 3 ^ ^ ^ ^ ^ ^ ^ ^ ^ ^ ^ ^ ^ ^ ^ ^ ^ { ^ ^ ^ ^ { ^ ^ ^ ^ ^ ^ ^ ^ ^ ^ ^ ^ ^ ^ ^ ^ { ^ ^ ^ ^ ^ ^ ^ ^ ^ { ^ ^ ^ ^ ^ { ^ ^ ^ { ^ ^ ^ { ^ { { ^ { ^ ^ ^ ^ { ^ ^ { ^ ^ { ^ ^ ^ ^ ^ ^ { ^ { { ^ ^ ^ ^ ^ ^ ^ ^ ^ ^ ^ ^ ^ ^ ^ ^ ^ / / ^ ^ ^ ^ ^ ^ ^ ^ ^ ^ ^ ^ ^ ^ { ^ ^ ^ ^ ^ { { ^ { { ^ ^ { { ^ ^ ^ ^ ^ ^ ^ ^ ^ { { ^   ",
"  * ~ ~ ~ ~ ~ { { ~ ~ ~ ^ ^ ^ ^ ^ ^ ^ ^ ^ ^ ^ ^ ^ ^ ^ ^ ^ { ^ ^ ^ ^ ^ ^ ^ ^ ^ ^ ^ ^ ^ { R ^ ^ ^ ^ ^ ^ ^ { / / / / / / / / ^ / { { { ^ ^ ^ / ^ / / { / / 5 ^ 4 / ^ 3 [./ / ^ ( ^ ^ ^ ^ ^ ^ ^ ^ ^ / / / / / 7 ^ ^ Q ^ ^ ^ ^ ^ ^ ^ ^ ^ ^ ^ ^ ^ ^ ^ ^ ^ { ^ ^ ^ ^ { ^ ^ ^ ^ ^ ^ ^ ^ ^ ^ ^ ^ { ^ ^ ^ ^ ^ ^ ^ ^ ^ ^ ^ ^ ^ { ^ ^ ^ ^ ^ { ^ ^ ^ { ^ { ^ { ^ { { ^ ^ ^ ^ ^ ^ ^ ^ ^ { ^ ^ { ^ ^ ^ ^ ^ ^ { ^ { { ^ ^ ^ ^ ^ ^ ^ ^ ^ ^ ^ ^ ^ ^ ^ ^ ^ 3 7 1 ^ ^ ^ ^ ^ ^ ^ ^ { ^ ^ ^ ^ { ^ ^ { ^ ^ { { ^ ^ ^ ^ ^ { { ^ ^ ^ ^ ^ ^ ^ ^ ^ { { ~   ",
"  * ~ ~ ~ ~ ~ { ~ ~ ~ ~ ~ ^ ~ ~ ^ ^ ^ ^ ^ ^ / / / / ^ ^ ^ { ^ ^ ^ ^ ^ ^ ^ ^ ^ ^ ^ ^ ^ { ^ ^ ^ ^ ^ ^ ../ | R ^ / { / { / Q ^ / { { / ^ ^ ^ / / / / { / / ^ ^ ^ ^ R ..^ ^ ^ ^ ^ ^ ^ ^ ^ ^ ^ ^ ^ ^ Q / / / / / ( Q R ^ ^ ^ ^ ^ ^ ^ ^ ^ ^ ^ ^ ^ ^ ^ ^ ^ { ^ ^ ^ ^ { ^ ^ ^ ^ ^ ^ 7 ( ^ ^ ^ { { ^ ^ ^ ^ ^ ^ ^ ^ ^ ^ ^ ^ ^ { ^ ^ ^ ^ ^ { ^ ^ ^ { ^ { ^ { ^ { { ^ ^ ^ ^ ^ ^ ^ ^ ^ { ^ ^ ^ ^ ^ ^ ^ ^ ^ { ^ { ^ ^ ^ ^ ^ ^ ^ ^ ^ ^ ^ ^ ^ ^ { { ^ ^ ^ ^ ^ ^ ^ ^ ^ ^ ^ ^ { { ^ ^ ^ ^ { ^ ^ { ^ ^ ^ ^ ^ { ^ ^ ^ ^ { ^ ^ ^ ^ ^ ^ ^ ~ ~ { { ~   ",
"  * ~ ~ ~ { ~ { { ^ ^ ^ ^ ^ ^ ~ ~ ^ ^ ^ ^ 4 / / / / ^ ^ { { ^ ^ ^ ^ ^ ^ ^ ^ ^ ^ ^ ^ ^ { ^ ^ ^ ^ { ^ ^ S / / ^ / / / { ^ ^ ^ / { { ^ ^ [ / / / / Q { / / 4 ^ { ^ ^ ^ ^ ^ ^ ^ ^ ^ ^ ^ ^ ^ ^ ^ ^ ^ ^ / / ^ / / [ R ^ ^ ^ ^ ^ ^ ^ ^ ^ ^ ^ ^ ^ ^ ^ ^ ^ ^ { ^ ^ ^ ^ ^ ^ ^ { ^ ^ ^ ^ ^ ^ ^ ^ { { ^ ^ ^ ^ ^ ^ ^ ^ ^ ^ ^ ^ { { ^ ^ ^ ^ ^ { ^ ^ ^ { / { ^ { ^ { { ^ ^ ^ ^ ^ { ^ ^ ^ { ^ ^ ^ ^ ^ ^ ^ ^ ^ { ^ ^ ^ ^ ^ ^ ^ ^ ^ ^ ^ ^ ^ ^ ^ ^ { ^ ^ ^ ^ ^ ^ ^ ^ ^ ^ ^ ^ ^ ^ { ^ ^ ^ ^ { ^ ^ { ^ ^ ^ ^ ^ { ^ ^ ^ ^ { ^ ^ ^ ^ ^ ^ ~ ~ ~ ~ { ~   ",
"  * ~ ~ ~ ~ ~ { ~ ~ ^ ^ ^ ^ ^ ^ ~ ^ ^ ^ { ^ { { / 3 ^ ^ ^ { ^ ^ ^ ^ ^ ^ ^ ^ ^ ^ ^ ^ ^ { ^ ^ ^ ^ ^ ^ ^ ^ | / / / ^ ^ { ^ ^ ^ / { { ^ ^ 4 / / / Q / { / / / ^ ^ ^ ^ ^ ^ ^ ^ ^ ^ ^ ^ ^ ^ ^ ^ ^ ^ ^ ^ R / ^ / / / 4 ^ ^ ^ ^ ^ ^ ^ ^ ^ ^ ^ ^ ^ ^ ^ { ^ ^ ^ ^ ^ ^ ^ ^ ^ ^ Q / ^ ^ ^ ^ ^ ^ ^ ^ ^ ^ ^ ^ ^ ^ ^ ^ ^ ^ ^ ^ ^ { ^ ^ ^ 3 Q ^ { ^ ^ ^ { [ ^ ^ { ^ { ^ ^ ^ ^ ^ ^ ^ ^ ^ ^ ^ ^ ^ ^ ^ ^ ^ ^ ^ ^ { ^ ^ ^ ^ ^ ^ ^ ^ ^ ^ ^ ^ ^ ^ ^ { ^ ^ ^ ^ ^ ^ ^ ^ ^ ^ ^ ^ ^ ^ { { ^ ^ ^ ^ { ^ ^ ^ { { ^ ^ ^ { ^ ^ ^ ^ { ^ ^ ^ ^ ^ { { ~ ~ ~ { ~   ",
"  * ~ ~ ~ ~ ~ ~ ~ ~ ^ ^ ^ ^ ^ ^ ^ ^ ^ ^ { ^ { ^ ^ ^ ^ ^ ^ ^ ^ ^ ^ ^ ^ ^ ^ ^ ^ ^ ^ ^ ^ { ^ ^ ^ ^ ^ ^ ^ ^ ^ / / | { ^ { ^ ^ ^ ^ { { ^ 7 ^ 7 Q / 5 / { / / / / ^ ^ ^ ^ ^ ^ ^ ^ ^ ^ ^ ^ ^ ^ ^ ^ ^ ^ ^ / / / 5 / / / 2 ^ ^ ^ ^ ^ ^ ^ ^ ^ ^ ^ ^ ^ ^ ^ ^ ^ ^ ^ ^ ^ ^ ^ ^ 1 [ / ^ ^ ^ { ^ 5 ^ ^ ^ ^ ^ ^ ^ ^ ^ ^ ^ ^ ^ ^ ^ { ^ / / / ( ^ { ^ ^ ^ { ^ ^ ^ { ^ ^ { ^ ^ ^ ^ ^ ^ ^ { ^ ^ ^ ^ ^ ^ ^ ^ ^ ^ ^ ^ ^ ^ ^ ^ ^ ^ ^ ^ ^ ^ ^ ^ ^ ^ ^ { ^ ^ ^ ^ ^ ^ ^ ^ ^ ^ ^ ^ ^ ^ ^ { ^ ^ ^ ^ { ^ ^ { { { { ^ ^ { ^ ^ ^ ^ { ^ ^ ~ ~ ~ { { ~ ~ ~ { ~   ",
"  & ~ ~ ~ ~ ~ ~ { ~ ~ ^ ^ ^ ^ ^ ^ ^ ^ ^ { ^ ^ ^ ^ ^ ^ ^ ^ ^ ^ ^ ^ ^ ^ ^ ^ { { ^ ^ ^ ^ { ^ ^ ^ ^ ^ ^ ^ ^ ^ / / 7 ^ ^ { ^ ^ ^ ^ { { 6 { 7 4 | ^ R / / / / / / | ^ ^ ^ ^ ^ ^ ^ ( ^ ^ ^ ^ ^ ^ ^ ^ ^ ^ / / 6 2 / / 7 3 5 ^ ^ ^ ^ ^ ^ ^ ^ ^ ^ ^ ^ ^ ^ ^ ^ { ^ ^ ^ ^ ^ ^ ^ ^ ^ ^ ^ ^ ^ 2 ( ^ ^ ^ ^ ^ ^ ^ ^ ^ ^ ^ ^ ^ ^ ^ { 7 / 5 ^ ^ ^ ^ ^ ^ ^ { ^ ^ { ^ ^ ^ { ^ ^ ^ ^ ^ { ^ { ^ ^ ^ ^ ^ ^ ^ ^ ^ ^ ^ ^ ^ ^ ^ ^ ^ ^ ^ ^ ^ ^ ^ ^ ^ ^ ^ ^ ^ ^ ^ ^ ^ ^ ^ ^ ^ ^ ^ ^ ^ ^ { { ^ ^ ^ ^ ^ ^ ^ { { { { ^ ^ ^ ^ ^ ^ ^ ^ ^ ~ ~ ~ ~ { { ~ ~ ~ ~ ~   ",
"  * ~ ~ ~ ~ ~ ~ { ~ ~ ~ ~ ^ ~ ^ ^ ^ ^ ^ { ^ ^ ^ ^ ^ ^ ^ { ^ ^ ^ ^ ^ / / ^ ^ ^ ^ ^ { ^ ^ ^ ^ ^ ^ ^ ^ ^ ^ ^ ^ ^ ^ ^ ^ ^ ^ ^ ^ ^ { { ^ { | / / 7 / / / / / / / / / 3 ^ ^ ^ ^ ^ ^ / | ^ ^ ^ ^ ^ ^ 2 / / / ^ 1 ^ 3 ^ ^ ^ ^ ^ ^ ^ ^ ^ ^ ^ ^ ^ ^ ^ ^ ^ ^ ^ ^ ^ ^ ^ ^ ^ ^ ^ ^ ^ ^ ^ ^ 3 ^ ^ ^ ^ ^ ^ ^ ^ ^ ^ ^ ^ ^ ^ ^ ^ ^ { 7 / ^ ^ ^ ^ ^ ^ ^ ^ { ^ ^ { ^ ^ ^ ^ ^ ^ { ^ ^ ^ ^ ^ ^ { ^ ^ ^ ^ ^ ^ ^ ^ ^ { ^ ^ { ^ ^ ^ ^ ^ ^ ^ ^ ^ ^ ^ ^ { ^ ^ ^ ^ ^ ^ ^ ^ ^ ^ ^ ^ ^ ^ { ^ ^ ^ ^ ^ ^ ^ ^ { { ^ { ^ ^ ^ ^ ^ ^ ^ ^ ~ ~ ~ ~ ~ ~ ~ { ~ ~ ~ ~   ",
"  * ~ ~ ~ / : ~ { ~ ~ ~ ~ ^ ^ ^ ^ ^ ~ ~ { ^ { ^ ^ ^ ^ ^ ^ ^ ^ ^ ^ / / / 5 / ^ ^ ^ ^ ^ ^ ^ ^ ^ ^ ^ ^ ^ ^ ^ ^ ^ ^ ^ ^ ^ ^ ^ ^ ^ { { ^ { / / / ^ ( ( / / / / / / / / ^ ^ ^ ^ ^ ^ / / ^ ^ ^ ^ ^ Q / / / ( ^ ^ ^ 2 ^ ^ ^ ^ ^ ^ ^ ^ ^ ^ ^ ^ ^ ^ ^ ^ ^ ^ ^ ^ ^ ^ ^ ^ ^ ^ ^ ^ ^ ^ ^ ^ [ ^ ^ ^ ^ ^ ^ ^ ^ ^ ^ ^ ^ ^ ^ ^ ^ ^ { ^ ^ ^ ^ ^ ^ / / ^ ^ { ^ ^ { { ^ ^ ^ ^ ^ ^ ^ ^ ^ ^ ^ ^ ^ ^ ^ { ^ ^ ^ ^ ^ ^ { { ^ { ^ ^ ^ { ^ ^ ^ ^ ^ ^ ^ ^ { ^ ^ ^ ^ ^ ^ ^ ^ ^ ^ ^ ^ ^ ^ { ^ ^ ^ ^ ^ { ^ ^ { { ^ { ^ ^ ^ ^ ^ ^ ^ ^ ~ ~ ~ ~ ~ ~ ~ { ~ ~ ~ ~   ",
"  * ~ / / / / { { ~ ~ ~ ~ ^ ^ ^ ^ ^ ~ ~ { ^ { ^ ^ ^ ^ ^ ^ ^ ^ ^ / / / / / / ^ ^ ^ ^ ^ ^ ^ ^ ^ ^ ^ ^ ^ ^ ^ ^ ^ ^ ^ ^ ^ ^ / R ^ { { ^ ( / 4 ^ ^ ^ ^ { 4 / / / / / / [ ^ ^ ^ ^ ^ ^ 1 ^ ^ ^ ^ ^ | / / / / ^ [ R 2 ^ ^ ^ ^ ^ ^ ^ ^ ^ ^ ^ ^ ^ ^ ^ ^ ^ ^ ^ ^ ^ ^ ^ ^ ^ ^ ^ ^ ..| / / 5 ( ^ ^ ^ ^ ^ ^ ^ ^ ^ ^ ^ ^ ^ ^ ^ ^ { ^ ^ { ^ ^ ^ / / ^ ^ { ^ ^ { { { ^ ^ ^ ^ { ^ ^ { ^ ^ ^ ^ ^ ^ { ^ ^ ^ ^ ^ { { { ^ { ^ ^ ^ ^ ^ ^ ^ ^ ^ ^ ^ ^ { { ^ ^ ^ ^ ^ ^ ^ { ^ ^ ^ ^ ^ { ^ ^ ^ ^ ^ { ^ ^ { { ^ { ^ ^ ^ ^ ^ ^ ^ ^ ~ ~ ~ ~ ~ ~ ~ ~ { { ~ ~   ",
"  * : { / / / { { ~ ~ ~ ~ ^ ^ ^ ^ ^ ^ ^ ^ ^ ^ { ^ ^ ^ ^ ^ ^ 3 / / / / / / / ^ ^ ^ ^ ^ ^ ^ ^ ^ ^ { { ^ { ^ ^ S { ^ ^ ^ ^ ^ ^ ^ { { ^ ^ ^ ^ ^ ^ ^ ^ { ^ / / / { / 5 ^ 4 ^ ^ ^ ^ ^ ^ ^ ^ ^ ^ ^ ^ / 2 / / / / / / Q ^ ^ ^ ^ ^ ^ ^ ^ ^ ^ ^ ^ ^ ^ ^ ^ ^ ^ ^ ^ ^ ^ ^ ^ ^ ^ ^ ^ ^ / / | 6 / / ( ^ ^ ^ ^ ^ ^ ^ ^ ^ ^ 4 ^ ^ { { ^ { ^ { { ^ ^ ^ ^ { ^ ^ { { { ^ ^ ^ ^ 7 ^ ^ ^ ^ ^ ^ { ^ { { ^ ^ ^ ^ ^ { { { ^ ^ ^ ^ ^ ^ ^ ^ ^ ^ ^ ^ ^ ^ ^ { ^ ^ ^ ^ ^ ^ ^ { ^ ^ ^ ^ ^ { ^ ^ ^ ^ ^ { ^ ^ { ^ ^ { ^ ^ ^ ^ ^ ^ ^ { ~ ~ ~ ~ ~ ~ ~ ~ { { ~ ~   ",
"  * : { / : ~ { ~ ~ ~ ~ ~ ^ ^ ^ ^ ^ ^ ^ ^ ^ ^ { ^ ^ ^ ^ ^ ^ / R 3 / / / S 1 ^ ^ { ^ ^ ^ ^ ^ ^ ^ { { ^ { ^ ^ ^ ^ ^ ^ ^ ^ 1 7 { { { 2 ^ ^ ^ ^ ^ ^ ^ { ^ / / / { / ^ ^ 2 / ^ ^ ^ ^ ^ ^ ^ ^ ^ ^ ^ ^ ^ 5 ^ / / / / R ^ ^ ^ ^ ^ ^ ^ ^ ^ ^ ^ ^ ^ ^ ^ ^ ^ ^ ^ ^ ^ ^ ^ ^ ^ ^ ^ ^ ^ / T 3 | / / 1 ^ ^ ^ [ ^ ^ ^ ^ ^ ^ ^ ^ ^ { ^ ^ ^ ^ { { 5 ^ 6 ^ { ^ ^ { ^ { ^ ^ ^ ^ ^ ^ ^ ^ ^ ^ ^ { ^ { { ^ ^ ^ ^ ^ ^ { ^ ^ { ^ { ^ ^ ^ ^ ^ ^ ^ ^ ^ ^ ^ ^ ^ ^ ^ ^ ^ ^ ^ ^ ^ ^ ^ ^ ^ { ^ ^ ^ ^ ^ { ^ ^ { ^ ^ { ^ ^ ^ ^ ^ ^ ^ ~ ~ ~ ^ ~ ^ ~ ~ ~ ~ ~ ~ ~   ",
"  & { { / ~ ~ { { _ ~ ~ ~ ^ ^ ^ ^ ^ ^ ~ { ^ { { ^ ^ ^ ^ ^ / / ( / / / / | ^ ^ ^ { ^ ^ ^ ^ ^ ^ ^ { { ^ { ^ ^ ^ ^ ^ ^ ^ ^ ^ S ^ ^ { ^ ^ ^ ^ ^ ^ ^ ^ { ^ ^ / { { ^ ^ ^ 5 / / / ^ ^ ^ ^ ^ ^ ^ ^ ^ ^ ^ / S / / / / ^ ^ ^ ^ ^ ^ ^ ^ ^ ^ ^ ^ ^ ^ ^ ^ ^ ^ ^ ^ ^ ^ ^ ^ ^ ^ ^ ^ ^ 3 / T [ / / ^ ^ ^ ^ ^ 3 ^ ^ ^ ^ ^ ^ ^ ^ ^ ^ ^ ^ { ^ ^ ^ ^ ^ ^ { { ^ ^ { ^ ^ ^ { ^ { ^ ^ ^ ^ ^ ^ ^ { ^ ^ ^ ^ ^ ^ ^ ^ ^ ^ { ^ { ^ { ^ ^ ^ ^ ^ ^ ^ ^ ^ ^ ^ ^ ^ ^ ^ ^ ^ ^ ^ ^ ^ ^ ^ ^ ^ ^ ^ ^ ^ ^ ^ { ^ ^ { ^ ^ { ^ ^ { ^ ^ ^ { ~ ~ ~ ^ ~ ^ ^ ~ ~ ~ { ~ ~   ",
"  & { { ~ ~ ~ ~ / / } ~ ^ ~ ~ ~ ^ ^ ^ ^ { ^ { { ^ ^ ^ ^ ^ ^ / ( / / / | ^ ^ ^ ^ ^ ^ ^ { ^ ^ ^ ^ ^ ^ ^ ^ ^ ^ ^ ^ ^ ^ ^ ^ ^ ^ ^ ^ { 4 3 ^ ^ ^ ^ ^ ^ { ^ ^ ^ { { ^ ^ ^ | / / / / ^ ^ ^ ^ ^ ^ ^ ^ ^ ^ ^ ^ 3 ^ ^ ^ ^ ^ ^ ^ ^ ^ ^ ^ ^ ^ ^ ^ ^ ^ ^ ^ ^ ^ ^ ^ ^ ^ ^ ^ ^ ^ ^ ^ ^ 7 / | [ / / 3 ^ ^ ^ ^ ^ ^ ^ ^ ^ ^ ^ ^ ^ ^ { { ^ ^ ^ ^ { ^ ^ ^ { { ^ ^ { ^ ^ { { ^ { ^ ^ ^ ^ ^ ^ ^ { ^ ^ ^ ^ ^ ^ ^ ^ ^ ^ { ^ { ^ { ^ { ^ ^ ^ ^ ^ ^ ^ ^ ^ ^ ^ ^ ^ ^ ^ ^ ^ ^ ^ ^ ^ ^ ^ ^ ^ ^ ^ ^ ^ { ^ ^ { ^ { { ^ ^ { ^ ^ ~ { ~ ~ ~ ^ ~ ^ ^ ~ ~ ~ { ~ ~   ",
". & { ~ ~ ~ ~ ~ ~ / 2 ^ ^ ~ ~ ~ ~ ^ ^ ^ { ^ ^ ^ ^ ^ ^ ^ ^ ^ / R / / ^ ^ ^ ^ ^ ^ ^ ^ ^ { ^ ^ ^ [ { ^ ^ ^ ^ ^ ^ ^ ^ ^ ^ ^ ^ ^ ^ ^ { / / 7 5 [ ^ ^ ^ { ^ ^ ^ { { ^ ^ ^ 2 / / / / ^ ^ ^ ^ ^ ^ ^ ^ ^ ^ ^ ^ ^ ^ ^ ^ ^ ^ ^ ^ ^ ^ ^ ^ ^ ^ ^ ^ ^ ^ ^ ^ ^ ^ ^ ^ ^ ^ ^ ^ ^ ^ ^ ^ [ / 2 Q / / / 2 ^ ^ ^ ^ ^ ^ ^ ^ ^ ^ ^ ^ ^ ^ ^ { { ^ ^ ^ ^ ^ ^ ^ { { ^ ^ { ^ ^ ^ ^ ^ { ^ { ^ ^ ^ ^ ^ { ^ ^ ^ ^ ^ ^ ^ ^ { { ^ { { ^ ^ ^ { { { / / / ^ ^ ^ ^ ^ ^ ^ ^ ^ ^ ^ ^ ^ ^ ^ ^ ^ ^ ^ ^ ^ ^ ^ ^ { ^ ^ ^ { { { ^ ^ { ^ ~ ~ { ^ ^ ^ ^ ~ ^ ^ ~ ~ ~ { { ~   ",
"  * ~ ~ ~ ~ ~ ~ ~ ] ~ ^ ^ ^ ~ ~ ~ ^ ^ ^ { ^ ^ ^ ^ ^ ^ ^ ^ ^ S 5 / ^ ^ ^ ^ ^ ^ ^ ^ ^ ^ { ^ ^ | { { 2 ^ ^ ^ ^ ^ ^ ^ ^ ^ 5 ^ ^ { ^ { | / ^ 3 T 2 ^ ^ ^ ^ ^ ^ ^ / / ^ ^ ^ ^ / / ^ ^ ^ ^ ^ ^ ^ ^ ^ ^ ^ ^ ^ 2 ^ ^ ^ ^ ^ ^ ^ ^ ^ ^ ^ ^ ^ ^ ^ ^ ^ ^ ^ ^ ^ ^ ^ ^ ^ ^ ^ ^ ^ ^ ^ 3 7 ^ / / / / [ ^ ^ ^ ^ ^ ^ ^ ^ ^ ^ ^ T 4 ^ { { { [ | { ^ ^ ^ ^ ^ { ^ ^ { ^ ^ { ^ ^ { ^ { ^ { ^ ^ ^ { ^ { ^ ^ ^ ^ ^ ^ { { ^ { { ^ ^ ^ { { { ^ ^ ^ ^ ^ ^ ^ { ^ ^ ^ ^ ^ ^ ^ ^ ^ ^ ^ ^ ^ { ^ ^ ^ ^ ^ ^ ^ ^ ^ { { { { ^ ^ ^ ~ ~ ^ ~ ^ ^ ~ ^ ^ ~ ~ ~ ~ { { ~   ",
"  * ~ ~ ~ ~ ~ ~ ~ ~ ~ ^ ^ ^ ^ ^ ~ ^ ^ ^ { ^ ^ ^ ^ ^ ^ ^ ^ ^ ^ 5 [ ^ ^ ^ ^ ^ ^ ^ ^ ^ ^ ^ ^ ^ / { { / R ^ ^ ^ ^ ^ ^ ^ ^ ^ ^ ^ ^ { { ^ ^ ^ 7 ^ ^ ^ / / ^ ^ ^ / / / Q ^ ^ ^ ^ ^ ^ ^ ^ ^ ^ ^ ^ ^ ^ ^ ^ ^ ^ ^ ^ ^ ^ ^ T ( | S ^ ^ ^ ^ ^ ^ ^ ^ ^ ^ ^ ^ ^ ^ ^ ^ ^ ^ ^ ^ ^ ^ ^ 5 3 ^ / / / / Q ^ ^ ^ ^ ^ ^ ^ ^ ^ ^ ^ / 2 ^ { { ^ ^ ^ { ^ ^ ^ ^ ^ ^ ^ ^ ^ ^ ^ ^ ^ ^ ^ ^ { { { ^ ^ ^ ^ ^ { ^ ^ ^ ^ ^ ^ { { ^ ^ { ^ ^ { { { { ^ ^ ^ ^ ^ ^ { { ^ ^ ^ ^ ^ ^ ^ ^ ^ ^ { ^ ^ { ^ ^ ^ ^ ^ ^ ^ ^ ^ { { { { ^ ^ ^ ^ ^ ^ ^ ^ ^ ^ ^ ~ { ~ ~ ~ { { {   ",
"  * ~ ~ ~ ~ { ~ ~ { ~ ^ ~ ~ ^ ^ ^ ^ ^ ^ { ^ ^ ^ ^ ^ ^ { ^ ^ ^ ^ ^ ^ ^ ^ ^ ^ ^ ^ ^ ^ ^ ^ ^ ^ / / / / T ^ ^ ^ ^ ^ ^ ^ ^ ^ ^ ^ { { { ^ ^ ^ ^ ^ 6 Q / / ^ ^ ^ / / / ^ ^ ^ ^ ^ ^ ^ ^ ^ ^ ^ ^ ^ ^ ^ ^ ^ ^ ^ ^ ^ 7 7 ^ ^ 7 / R ^ ^ 2 ^ ^ ^ ^ ^ ^ ^ ^ ^ ^ ^ ^ ^ ^ ^ ^ ^ ^ ^ ^ / 5 ^ ^ / ^ 1 / 1 ^ ^ ^ ^ ^ ^ ^ ^ ^ ^ 2 ^ ^ { ^ ^ 5 ^ { ^ ^ ^ ^ { ^ ^ ^ ^ ^ ^ ^ ^ ^ { ^ ^ { { ^ ^ ^ ^ ^ { ^ ^ ^ ^ ^ ^ { ^ ^ ^ { ^ ^ { { ^ ^ ^ ^ ^ ^ ^ ^ { { ^ ^ ^ ^ ^ ^ ^ ^ ^ ^ { ^ ^ { ^ ^ ^ ^ ^ ^ ^ ^ ^ ^ { { { ^ ^ ^ ^ ^ ^ ^ ^ ^ ^ ^ ~ ~ ~ ~ ~ { ~ {   ",
"  * ~ ~ ~ ~ { { ~ { ~ ^ ~ ~ ^ ^ ^ ^ ^ ^ { ^ ^ ^ ^ ^ Q { ^ ^ ^ ^ ^ ^ ^ ^ ^ ^ ^ ^ ^ ^ ^ ^ ^ ^ S { / S ^ { ^ ^ ^ ^ ^ ^ ^ ^ ^ ^ ^ { { [ ^ ^ ^ ^ ^ / / / R ^ ^ ^ / ( ^ ^ ^ ^ ^ ^ ^ ^ ^ ^ ^ ^ ^ ^ ^ ^ ^ ^ ^ ^ ^ / ^ ^ ^ / / 6 { ^ ^ ^ ^ ^ ^ ^ ^ ^ ^ ^ ^ ^ ^ ^ ^ ^ ^ ^ ^ ^ ^ Q ( ^ ^ ^ ^ ^ | 5 ^ ^ ^ ^ ^ ^ ^ ^ ^ ^ ^ 3 7 { ^ ^ ^ ^ { ^ ^ ^ ^ { { ^ ^ { ^ { ^ ^ ^ { ^ ^ { { ^ ^ ^ ^ ^ { ^ ^ ^ ^ ^ ^ { ^ ^ ^ ^ ^ ^ { ^ { ^ ^ ^ ^ ^ ^ ^ ^ ^ ^ ^ ^ ^ ^ ^ ^ ^ ^ ^ { ^ { { ^ ^ ^ ^ ^ ^ ^ ^ ^ ^ ^ { ^ ^ ^ ^ ^ ^ ^ ^ ^ ^ ~ ~ ~ ~ ~ ~ ~ ~ ~ ~   ",
"  * { ~ ~ ~ { { ~ { ~ ~ ^ ~ ^ ^ ^ ~ ^ ^ { ^ ^ ^ ^ ^ ^ ^ ^ ^ ^ ^ ^ ^ ^ ^ ^ ^ ^ ^ ^ ^ ^ ^ ^ ^ / { / ^ ^ { ^ ^ ^ 1 ^ ^ ^ ^ ^ ^ ^ ^ ( S ^ ^ ^ ^ ^ ^ R / / ^ ^ ^ ^ ^ ^ 7 3 ^ ^ ^ ^ ^ ^ ^ ^ ^ ^ ^ ^ ^ ^ ^ ^ ^ ^ ^ ^ ^ ^ / / ^ { ^ ^ ^ ^ ^ ^ ^ ^ ^ ^ ^ ^ ^ ^ ^ ^ ^ ^ ^ ^ ^ ^ ^ ( 2 ^ ^ ^ ^ ^ ^ ^ ^ ^ ^ ^ ^ ^ ^ ^ ^ ^ 2 ^ ^ ^ ^ ^ ^ ^ ^ ^ ^ ( { { ^ ^ { ^ ^ ^ ^ ^ { ^ ^ { { ^ ^ ^ ^ ^ { ^ ^ ^ ^ ^ ^ { ^ ^ ^ ^ ^ ^ { ^ { ^ ^ ^ ^ [ ^ ^ ^ ^ ^ ^ ^ ^ ^ ^ ^ ^ ^ ^ ^ ^ ^ ^ ^ ^ ^ ^ ^ ^ ^ ^ ^ ^ ^ { ^ ^ ^ ^ ^ ^ ^ ^ ^ ~ ~ ~ { { ~ ~ ~ ~ ~ ~   ",
". * { ^ ~ ~ { { ~ ~ ~ ~ ^ T ^ ^ ^ ^ ^ ^ { ~ ^ ^ ^ ~ ^ { { ^ ^ ^ ^ ^ ^ ^ ^ { ^ ^ ^ ^ ^ ^ ^ ..^ { ^ ^ ^ { ^ ^ ^ ^ ^ ^ ^ ^ ^ ( ^ ^ ^ ^ ^ 5 ^ ^ ^ ^ ^ / / / ^ ^ ^ ^ ^ ^ ^ ^ ^ ^ ^ ^ ^ ^ ^ ^ ^ ^ ^ ^ ^ 5 / / ^ ^ ^ ^ 5 / / / { ^ ^ ^ ^ ^ ^ ^ ^ ^ ^ ^ ^ ^ ^ ^ ^ ^ ^ ^ ^ ^ ^ [ | / ~ ^ ~ ~ ^ ^ ^ ^ ^ ^ ~ ~ ~ ^ ^ ^ ^ ^ ^ { ^ ^ ^ ^ ^ ^ ^ ^ ^ { { ^ { { ^ ^ S ^ ^ { ^ ^ ^ ^ ^ ^ ^ ^ ^ ^ ^ ^ ^ ^ ^ ^ ^ ^ ^ ^ { ^ ^ { ^ { ^ ^ ^ ^ ^ ^ ^ ^ ^ ^ ^ ^ ^ ^ ^ ^ ^ ^ ^ ^ ^ { { ^ ^ ^ ^ ^ ^ ^ { { ^ { { ^ { ^ ^ ^ ^ { ^ ^ ~ ~ ~ { { ~ { ~ ~ ~ ~   ",
". - { ^ ~ ~ { { ~ ~ ~ ~ ~ ^ ^ ^ ^ ^ ^ ^ ^ ^ ^ ^ ^ ^ ^ { { ^ ^ ^ ^ ^ ^ ^ ^ ^ ^ ^ ^ ^ ^ ^ ^ / ^ ^ ^ ^ ^ { ^ ^ ^ ^ ^ ^ ^ ^ 2 / ^ { ^ T ^ ^ ^ ^ ^ ^ ^ 4 / / / / / ^ ^ ^ ^ ^ ^ ^ ^ ^ ^ ^ ^ ^ ^ ^ ^ ^ ^ ^ Q / ^ ^ ^ ^ ^ 1 ^ ^ ^ ^ ^ ^ ^ ^ ^ ^ ^ ^ ^ ^ ^ ^ ^ ^ ^ ^ ^ ^ ^ ^ ^ ~ / / } ~ ^ ^ ^ ^ ^ ^ ^ ^ ^ ^ ^ ^ ^ ^ ^ ^ ^ { ^ ^ ^ ^ ^ ^ ^ ^ ^ ^ { / { { ^ S 4 ^ ^ { ^ ^ { ^ ^ ^ ^ ^ ^ ^ ^ ^ ^ ^ ^ { { ^ { ^ { ^ ^ { ^ { ^ { ^ ^ ^ ^ ^ ^ ^ ^ ^ ^ ^ ^ ^ ^ ^ ^ { ^ ^ { ^ ^ ^ ^ ^ ^ { ^ { { ^ { { ^ { ^ ^ ^ ^ { ^ ^ ^ ^ ~ { ~ ~ { { ~ ~ {   ",
". - { ~ ~ ~ ~ { ~ ~ ~ ~ ~ ~ ~ ~ ~ ^ ^ ^ ^ ^ ^ ^ ^ ^ ^ { ^ ^ ^ ^ ^ ^ ^ ^ ^ ^ ^ ^ ^ ^ ^ ^ ^ ^ ^ ^ ^ { { { ^ ^ / / R ^ ^ ^ | / { 6 1 1 1 ^ ^ ^ ^ ^ ^ | / / / / ^ ^ ^ ^ ^ ^ ^ ^ ^ ^ ^ ^ ^ ^ ^ ^ ^ ^ ^ ^ ^ ^ ^ ^ ^ ^ ^ ^ ^ ^ ^ ^ ^ ^ ^ ^ ^ ^ ^ ^ ^ ^ ^ ^ ^ ^ ^ ^ ^ ^ ^ ^ ^ ~ ~ { ~ ^ ~ ^ ^ ^ ^ ^ ^ ^ ^ ^ ^ ^ ^ ^ ^ ^ ^ ^ ^ ^ ^ ^ ^ ^ ^ ^ ^ ^ { ^ { { ^ 3 / ^ ^ ^ ^ ^ { ^ ^ ^ ^ ^ ^ ^ ^ ^ ^ ^ ^ { { ^ { { { ^ { { ^ ^ ^ { ^ ^ ^ ^ ^ { ^ ^ ^ ^ ^ ^ ^ ^ ^ ^ ^ ^ ^ { ^ ^ ^ ^ ^ ^ ^ ^ { ^ ^ { { ^ { ^ ^ ^ ^ ^ ^ ^ ^ ^ ~ { ~ ~ { { ~ ~ {   ",
"% & { ~ ~ ~ { { ~ ~ ~ ~ ~ ~ ~ ~ ~ ~ ^ ^ ^ ^ ^ ^ ^ ^ ^ ^ ^ ^ ^ ^ ^ ^ ^ ^ ^ ^ ^ ^ ^ ^ Q ^ ^ ^ / ^ ^ ^ ^ ^ ^ ^ / / / ^ ^ ^ ^ 4 / / 6 3 ( ^ ^ ^ ^ ^ ^ ^ ^ / Q ^ ^ ^ [.^ 5 ^ ^ ^ { ^ ^ ^ ^ ^ ^ ^ ^ ^ ^ ^ ^ { ^ ^ ^ ^ ^ ^ ^ ^ ^ ^ ^ ^ ^ ^ ^ ^ ^ ^ ^ ^ ^ { ^ ^ ^ ^ ^ ~ ~ ~ ~ ~ ~ ~ ~ ^ ^ ^ ^ ^ ^ ^ ^ ^ ^ ^ ^ ^ ^ ^ ^ ^ 7 5 ^ ^ ^ ^ ^ ^ ^ ^ ^ ^ { ^ { { ^ / / ( ^ ^ ^ ^ { ^ ^ ^ { ^ ^ { ^ ^ ^ ^ ^ { { ^ { { { ^ { { { { ^ { ^ ^ ^ ^ ^ { ^ ^ ^ ^ ^ ^ ^ ^ ^ ^ ^ ^ { { ^ ^ ^ ^ ^ ^ ^ ^ { ^ ^ { ^ ^ ^ ^ ^ ^ ^ ^ ^ ^ ~ ^ ~ ~ ~ ~ { { ~ ~ ~   ",
". & ~ ~ ~ ~ { { ~ ~ ~ ^ ~ ~ ~ ~ ~ ~ ~ ^ ^ ^ ^ ^ ^ ^ ^ { { ^ ^ ^ ^ ^ ^ 1 ^ ^ ^ ^ ^ ^ 5 3 S R / ^ ^ | 4 ^ ^ ^ / / / / ^ ^ 1 / / Q ..1 ^ ^ ^ ^ ^ ^ ^ ^ [ 6 ^ ^ ^ ^ / / 4 ^ ^ ^ ^ ^ ^ ^ ^ ^ ^ ^ ^ ^ ^ ^ ^ ^ ^ ^ Q ^ ^ ^ { ^ ^ ^ ^ ^ ^ ^ ^ ^ ^ ^ ^ ^ ^ ^ ^ ^ ^ ^ ^ ^ ~ ~ ~ ^ ^ ^ ^ ^ ~ ^ ^ ^ ^ ^ ^ ^ ^ ^ ^ ^ ^ ^ R / / ^ ^ ^ ^ ^ ^ ^ ^ ^ ^ ^ { ^ ^ ^ ^ / / ^ ^ ^ ^ ^ { ^ ^ ^ { ^ ^ { ^ ^ ^ ^ ^ { { { { { { ^ { { { { ^ ^ ^ ^ ^ ^ ^ { ^ ^ ^ ^ ^ ^ ^ ^ ^ ^ ^ ^ ^ { ^ ^ ^ ^ ^ ^ ^ ^ ^ ^ ^ { ^ ^ ^ ^ ^ ^ ^ ^ ^ ^ ~ ~ ^ ~ ~ ~ ~ ~ ~ < ~ % ",
"% - ~ ~ ~ ~ { { ~ ~ ~ ~ ~ ~ ~ ^ ^ ~ ^ ^ ^ ^ ^ ^ ^ ^ ^ { { ^ ^ ^ ^ ^ ^ R / / ^ ^ ^ ^ ^ ^ ^ ( 2 ^ ^ / 4 3 { ^ / / / / ^ ^ ^ { / / 7 [ 1 ^ ^ ^ ^ ^ ^ ^ ^ ^ ^ { ^ / / / 5 ^ ^ ^ ^ ^ ^ ^ ^ ^ ^ { ^ ^ ^ ^ ^ ^ ^ ^ / ^ ^ ^ { ^ ^ ^ ^ ~ ^ ^ ^ ^ ^ ^ ^ ^ ^ ^ ^ ^ ^ ^ ^ / 4 ~ ~ ~ ~ ~ ^ ^ ^ ^ ^ ^ ^ ~ ^ ^ ^ ^ ^ ^ ^ / / / | ^ 1 ^ ^ ^ ^ ^ ^ ^ ^ { ^ ^ ^ ^ ^ ^ ^ ^ ^ ^ ^ ^ ^ ^ ^ ^ ^ ^ ^ ^ ^ ^ ^ ^ ^ { { { { { { ^ ^ { { { ^ ^ ^ ^ ^ ^ ^ { ^ ^ ^ ^ ^ ^ ^ ^ ^ ^ { ^ { { ^ ^ ^ ^ ^ ^ ^ ^ ^ ^ ^ ^ ^ ^ ^ ^ ^ ^ ^ ^ ^ ^ ~ ~ ^ ~ ~ ~ ~ ~ ~ / ^ % ",
"% * ~ ~ ~ ~ { ~ ~ ~ ~ ^ ^ ^ ^ ~ ~ ~ ^ ^ ~ ^ ^ ^ ^ ^ ^ / { ^ ^ ^ 1 ( ^ ^ ^ / ^ ^ ^ ^ ^ ^ ^ ^ 5 ^ / / { / { / / / / / / ^ ^ { / / / [ 6 ^ ^ ^ ^ ^ ^ ^ ^ ^ ^ { ^ 7 [ ^ ^ ^ ^ ^ ^ ^ / ^ ^ ^ ^ ^ ^ ^ ^ ^ ^ ^ ^ ^ ^ ^ ^ ^ { ^ ^ ^ ^ ^ ^ ^ ^ ^ ^ ~ ^ ^ ^ ^ ^ ^ ^ ^ ^ 3 R ~ ~ ~ ~ ^ ^ ~ ^ ^ ^ ^ ^ ^ ^ ^ ^ ^ ^ ^ ^ ^ 4 5 / / T ^ ^ ^ { ^ ^ ^ ^ { ^ ^ ^ ^ ^ ^ ^ ^ ^ ^ ^ ^ ^ ^ ^ ^ / 2 ^ { ^ ^ ^ ^ ^ { { { ^ { ^ ^ ^ ^ ^ { ^ ^ ^ ^ ^ ^ ^ { ^ ^ ^ ^ ^ ^ ^ ^ ^ ^ { ^ ^ { ^ ^ ^ ^ ^ ^ ^ ^ ^ { ^ ^ ^ ^ ^ ^ ^ ^ ^ ^ ^ ^ ^ { ^ ~ ~ ~ ~ ~ / ~ ~ % ",
"  * ~ ~ ~ ~ ~ ~ ~ ~ { ^ ^ ^ ^ ^ ~ ~ ~ ~ { ^ ^ ^ ^ ^ ^ { { ^ ^ ^ ^ ^ ^ ^ ^ ^ ^ ^ ^ ^ ^ ^ ^ ^ 7 ^ { / { / / / / / / / / ^ ../ / / / / 1 ^ 5 ^ ^ ^ ^ ^ ^ ^ ^ { ^ ^ ^ ^ ^ ^ ^ ^ ^ 5 / ^ ^ ^ ^ { ^ ^ ^ ^ ^ ^ ^ ^ ^ ^ ^ { { ^ ^ ^ ^ ^ ^ ^ ^ ^ ^ ~ ^ ^ ^ ^ ~ ~ ~ ~ ~ ~ ~ ~ ~ ~ ^ ^ ^ ^ ^ ^ ^ ^ ^ ^ ^ ^ ^ ^ ^ ^ ^ ^ ^ ^ S 2 ^ ^ ^ ^ { ^ ^ ^ ^ { ^ ^ ^ ^ ^ ^ ^ ^ ^ ^ ^ ^ ^ ^ ^ / / / ^ { ^ ^ ^ ^ ^ / { { ^ { ^ ^ ^ ^ ^ { ^ ^ ^ ^ ^ ^ ^ { ^ ^ ^ ^ ^ ^ ^ ^ ^ ^ { ^ ^ { ^ ^ ^ ^ ^ ^ ^ ^ ^ { ^ ^ ^ ^ ^ ^ ^ ^ ^ ^ ^ ^ ^ { ~ ~ ~ ~ ~ ~ ~ ~ ~   ",
"  * ^ ~ ~ ~ ~ { ~ ~ ~ ^ ~ ~ ^ ^ ~ ~ ~ ^ { ^ ^ ^ ^ ^ ^ { { ^ ^ ^ ^ ^ ^ ^ ^ ^ ^ { ^ ^ [ ^ ^ ^ ^ { { 5 { / ^ / / / / / / ^ [./ / / ^ 6 ^ 5 7 1 ^ ^ ^ ^ ^ ^ { { ^ ^ ^ ^ ^ ^ ^ ^ ^ ^ { ^ ^ ^ ^ { ^ ^ ^ ^ ^ ^ ^ ^ ^ ^ ^ { { ^ ^ ^ ^ ^ ^ ^ ^ ^ ~ ^ ^ ^ ^ ^ ~ ~ ~ ~ ^ ^ ~ ~ ~ ~ ^ ^ ^ ^ ^ ^ ~ ~ ^ ^ ^ ^ ^ ^ ^ ^ ~ ^ ^ ^ ^ ^ ^ { ^ ^ ^ ^ ^ ^ { { ^ ^ ^ ^ ^ ^ ^ ^ ^ ^ ^ ^ ^ ^ ^ / / / ^ ^ ^ ^ [ ^ ^ ( ^ { { { ^ ^ ^ ^ ^ { ^ ^ ^ ^ ^ ^ ^ { ^ ^ ^ ^ ^ ^ ^ ^ ^ ^ { ^ ^ { ^ ^ ^ ^ ^ ^ ^ ^ { { { ^ ^ ^ ^ ^ ^ ^ ^ ^ ^ ^ ^ ^ ~ ~ ~ { { { ~ ~ ~   ",
"  * { ~ ~ ~ ~ { ~ ~ ~ ~ ~ ~ ~ ~ ~ ^ ^ ^ { ^ ^ ^ ^ ^ ^ { { ^ ^ ^ ^ ^ ^ ^ ^ ^ ^ { ^ ^ ^ ^ ^ ^ ^ { { / / / Q / / / / / / ^ / Q / / ^ ^ 1 4 4 ..^ ^ ^ ^ ^ ^ ^ { ^ ^ ^ ^ ^ ^ ^ ^ ^ { ^ ^ ^ ^ { { ^ ^ ^ ^ ^ ^ ^ ^ ^ ^ ^ { ^ ^ ^ ^ ^ ^ ^ ^ ^ ~ ^ ^ ^ ^ ^ ~ ~ ~ ~ ~ ^ ^ ^ ^ { ^ ^ ^ ^ ^ ^ ^ ~ ~ ^ ^ ^ ^ ^ ^ ^ ~ ~ ^ ^ ^ ^ ^ ^ { ^ ^ ^ ^ ^ ^ ^ { ^ ^ { R ^ ^ ^ ^ ^ ^ ^ ^ { ^ ^ ^ / / ^ ^ Q Q S ^ ^ { { { { { ^ ^ { ^ { { ^ ^ ^ ^ ^ ^ ^ { ^ ^ ^ ^ ^ ^ ^ ^ ^ ^ { ^ ^ { ^ ^ ^ ^ ^ ^ ^ ^ { { { { ^ ^ ^ ^ ^ ^ ^ ^ ^ ^ ^ ^ ~ ~ ~ { { ~ ~ ~ ~   ",
". * ~ ~ ~ ~ { ~ ~ { ~ ^ ~ ~ ~ ~ ^ ~ ^ ^ ^ ^ ^ ^ ^ ^ ^ { { ^ ^ ^ ^ ^ ^ ^ ^ ^ ^ ^ ^ ^ ^ ( / | / ^ 2 ^ { / / / { / / / / / / / / / [.^ ^ / / / 7 ^ ^ ^ ^ ^ ^ ^ ^ ^ ^ ^ ^ ^ ^ ^ ^ { ^ ^ ^ ^ { ^ ^ ^ ^ ^ ^ ^ ^ ^ ^ ^ { { ^ ^ ^ ^ ^ ^ ^ ^ ^ ^ ^ ^ ^ ^ ~ ~ ~ ~ ^ ^ ^ ^ ^ ^ ^ ^ ^ ^ ^ ^ ^ / / { 6 ^ ^ ^ ^ ^ ^ ^ ^ ^ ^ ^ ^ ^ ^ ^ ^ ^ ^ ^ ^ ^ ^ ^ ^ ^ { ^ ^ ^ ^ ^ ^ ^ ^ ^ { ^ ^ ^ ^ { ^ ^ ^ ( ..^ ^ ^ ^ ^ ^ { ^ ^ ^ ^ { { ^ ^ ^ ^ ^ ^ ^ { ^ ^ ^ ^ ^ ^ ^ ^ ^ ^ { ^ ^ { ^ ^ ^ ^ ^ ^ ^ ^ { { ^ { ^ ^ ^ ^ ^ ^ ^ ^ ^ ^ ^ ^ ~ ~ ~ { ^ ~ ~ { ~   ",
". * ~ ~ ~ ~ { ~ ~ { ^ ^ ^ ~ ~ ^ ^ ^ ^ ^ ^ ^ ^ ~ ^ ^ ^ { ^ ^ ^ ^ ^ ^ ^ ^ ^ ^ ^ ^ ^ ^ ^ ^ / / ^ ^ ^ ^ ^ ^ ( { { / / / / / / { / / / ^ ^ R / / / 7 ^ ^ ^ ^ ^ ^ ^ ^ ^ ^ ^ ^ ^ ^ ^ ^ ^ ^ ^ ^ { ^ ^ ^ ^ ^ { ^ ^ ^ ^ ^ { ^ ^ ^ ^ ^ ^ ^ 1 7 ^ ^ ^ ^ ^ ^ ^ ^ ^ ^ ^ ^ ^ ~ ~ ^ ^ ^ ^ ^ ^ ^ ^ / | { / / ^ ^ ^ ^ ^ ^ ^ ^ ^ ^ ^ ^ ^ ^ ^ ^ ^ ^ ^ ^ ^ ^ ^ ^ ^ ^ ^ { ^ ^ ^ ^ ^ ^ ^ ^ ^ ^ ^ ^ ^ ^ ^ ^ ^ 2 5 ^ ^ ^ ^ { ^ ^ { { { { ^ ^ ^ ^ ^ ^ ^ ^ ^ ^ ^ ^ ^ ^ ^ ^ ^ ^ { ^ ^ ^ ^ ^ ^ ^ ^ ^ ^ { { ^ { { ^ ^ ^ ^ ^ ^ ^ ^ ^ ~ ^ ^ ^ ^ ^ ~ ^ ~ ~ ~ ~   ",
". * ~ ~ ~ { { ~ ~ ^ ^ ^ ^ ~ ^ ^ ^ ^ ~ ~ 7 ~ ^ ~ ~ ~ ^ ^ ^ ^ ^ ^ ^ ^ ^ ^ ^ ^ ^ ^ ^ ^ ^ ^ ^ ^ ^ ^ 1 ^ 1 ^ ^ { / / / / / / / { / / / ^ ^ ^ / / / 3 ^ ^ ^ ^ ^ ^ ^ ^ ^ ^ ^ ^ ^ ^ ^ { ^ ^ ^ ^ ^ ^ ^ ^ ^ ^ { ^ ^ ^ ^ ^ ^ ^ ^ ^ ^ ^ ^ ^ ^ 6 ^ ^ ^ ^ ^ ^ ^ ^ ^ ^ ^ ^ ^ ~ ~ ~ ~ ~ ^ ^ ^ ^ ^ / / { / | ^ ^ ^ ^ ^ ^ ^ ^ ^ ^ ^ ^ ^ ^ ^ ^ ^ ^ ^ ^ ^ ^ ^ ^ ^ ^ ^ ^ ^ ^ { ^ ^ ^ ^ ^ ^ ^ ^ { ^ ^ { ^ 6 / | ( ^ { { { ^ ^ { { { ^ ^ ^ ^ ^ ^ ^ ^ { ^ { ^ ^ ^ ^ ^ ^ ^ ^ { ^ ^ { ^ ^ ^ ^ ^ ^ ^ { { ^ { { ^ ^ ^ ^ ^ ^ ^ ^ ^ ~ ^ ^ ^ ^ { { ~ ^ ~ ~ ~   ",
". * ~ ~ < < ~ ~ ~ ^ { ^ ~ ~ ^ ^ ^ ^ ~ ~ ~ ^ ^ ^ ~ ~ ^ ^ ^ ^ ^ ^ ^ ^ ^ ^ ^ ^ ^ ^ ^ ^ ^ ^ ^ ^ ^ ^ { ^ ^ ^ ^ ^ 1 / / / / / / / / / / ^ ^ ^ 5 / / ^ ^ ^ ^ ^ ^ ^ ^ ^ ^ ^ ^ ^ ^ { ^ ^ ^ ^ { ^ / ^ ^ ^ ^ ^ { ^ 7 ^ ^ ^ ^ ^ { ^ ^ ^ ^ ^ ^ ^ ^ ~ ~ ^ ^ ^ ^ ^ ^ ^ ^ ^ ^ ~ ^ ~ ~ ~ ^ ^ ^ ^ ^ ^ ^ { ^ ^ ^ ^ ^ ^ ^ ~ ^ ^ ^ ^ ^ ^ ^ ^ ^ ^ ^ ^ ^ ^ ^ ^ ^ ^ ^ ^ ^ { ^ ^ { ^ ^ ^ ^ ^ ^ ^ ^ ^ ^ ^ ^ R / T ( { 5 { { { ^ ^ { { { ^ ^ ^ ^ ^ ^ ^ ^ ^ ^ { ^ ^ ^ ^ ^ ^ ^ ^ { ^ ^ { ^ ^ ^ ^ ^ ^ ^ { { ^ { { ^ ^ ^ ^ ^ ^ ^ ^ ^ ^ ~ ^ ^ { { ~ ^ ~ ~ ~ ~   ",
". * { ~ ~ ~ ~ ~ ~ ~ { ~ ^ ^ ^ ^ ^ ^ ~ ~ ^ ^ ^ ^ ~ ~ ^ ^ ^ ^ ^ ^ ^ ^ ^ ^ ^ ^ ^ ^ ^ ^ ^ ^ ^ ^ ^ ^ { ^ ( ^ ^ ^ { | / / / / / / 3 / / ^ ^ ^ { ^ ^ ^ ^ ^ ^ ^ { ^ ^ ^ ^ ^ ^ ^ ^ { ^ ^ ^ ^ { ^ ^ ^ ^ ^ ^ ^ ^ ^ / ^ ^ / / { { ^ ^ ^ ^ ^ ^ ^ ^ ^ ~ ~ ^ ^ ~ ~ ^ ^ ^ ^ ^ ~ ~ ^ ^ ~ ^ ^ ^ ^ ^ ^ ^ { ^ ^ ^ / / / 5 ^ ^ ^ ^ ^ ^ ^ ^ ^ R ^ ^ ^ ^ ^ ^ ^ ^ ^ ^ ^ ^ { ^ ^ ^ ^ ^ ^ ^ ^ ^ ^ ^ ^ ^ [ / / / ^ ^ 7 T { { { ^ { { { { { ^ ^ ^ ^ ^ ^ ^ ^ ^ ^ ^ { ^ ^ ^ ^ ^ { { ^ ^ { ^ ^ ^ ^ ^ ^ ^ { { ^ { { ^ ^ ^ ^ ^ ^ ^ ^ ^ ^ ^ ^ ^ { ~ ~ ~ ~ ~ ~ ~ . ",
". * ~ ~ ~ ~ { ~ ~ ~ { ~ ~ ^ ^ ^ ^ ^ ^ ^ ^ ^ ^ ^ ^ ^ ^ ^ ^ ^ ^ ^ ^ ^ ^ ^ ^ ^ ^ ^ ^ ^ ^ ^ ^ ^ ^ ^ ^ ^ { ^ ^ { { Q / / / / 6 | ^ / / ^ ^ ^ { ^ ^ ^ ^ ^ ^ ^ ^ ^ ^ ^ ^ { ^ ^ ^ { ^ ^ ^ ^ { ^ ^ ^ ^ ^ 2 ^ ^ ^ ^ ^ ^ / 3 { { ^ ^ ^ ^ ~ ~ ~ ^ ^ ^ ^ ^ ^ ~ ~ ~ ^ ^ ^ ^ ^ ^ ^ ^ ^ ^ ^ ^ ^ ^ ^ ^ ^ ^ ^ ^ ^ / { / Q ^ ^ ^ ^ ^ ^ ^ ^ 6 3 / 3 / R ^ ^ ^ ^ ^ ^ ^ ^ ^ ^ ^ ^ ^ ^ ^ ^ ^ ^ ^ ^ ^ { / | ( ^ ^ 2 ^ { { { ^ { { ^ { ^ ^ ^ ^ ^ ^ ^ ^ ^ ^ ^ ^ ^ ^ ^ ^ ^ ^ { { ^ ^ { ^ ^ ^ ^ ^ ^ ^ { { ^ ^ ^ ^ ^ ^ ^ ^ ^ ^ ^ ^ ^ ^ ^ ^ { ~ ~ ~ { { ~ ~ @ ",
". & ~ ~ ~ ~ { ~ ~ ^ ^ ~ ~ ^ ^ ^ ~ ^ ^ ^ ^ ^ ^ ^ ^ ^ ^ ^ ^ ^ ^ ^ ^ ^ ^ ^ ^ ^ ^ ^ ^ ^ ^ ^ ^ ^ { ^ ^ ^ { ^ ^ { { 5 T / | 7 / [ ^ 7 ^ ^ ^ ^ { { ^ ^ ^ ^ ^ ^ ^ ^ ^ ^ ^ { ^ ^ ^ { ^ ^ ^ ^ { ^ { ^ ^ ^ ^ { ^ { ^ ^ ^ ^ 2 { { / ^ ~ ~ ~ ~ ^ ^ ^ ^ ^ ^ ^ ~ ~ ^ ^ ^ ^ ^ ^ ^ ^ ^ ^ ^ ^ ^ ^ ^ ^ ^ ^ ^ ^ ^ ^ / { / / / 2 ^ ^ ^ ^ ^ ^ ^ ^ 7 ^ 7 / / ^ ^ ^ ^ ^ ^ ^ ^ ^ ^ ^ ^ ^ ^ ^ ^ ^ ^ ^ ^ 2 { 4 2 ( ^ ^ ^ { { { ^ ^ ^ ^ { ^ ^ ^ ^ ^ ^ ^ ^ ^ ^ { ^ { ^ ^ ^ ^ ^ ^ { ^ ^ { ^ ^ ^ ^ ^ ^ ^ { { ^ ^ ^ ^ ^ ^ ^ ^ ^ ^ ^ { ^ ^ ^ ^ ~ ~ ~ ~ ~ ~ ~ ~ @ ",
". & { ~ ~ ~ { ~ ~ { ^ ^ ^ ^ ^ ^ ^ ^ ^ ^ ^ ^ 7 ^ ^ ^ ^ ^ ^ ^ ^ ^ ^ ^ ^ ^ ^ ^ ^ ^ ^ ( ^ ^ ^ ^ ^ ^ { { ^ ^ ^ ^ ^ ^ { ^ S ^ 1 ( ^ ^ ^ ^ ^ ^ 2 { ^ ^ ^ ^ ^ ^ ^ ^ ^ ^ ^ { ^ ^ ^ { ^ ^ ^ ^ { / { ^ ^ ^ ^ ^ ^ ^ ^ 3 ^ ^ ^ { / / ^ ~ ~ ~ ~ ^ ^ ^ ^ ^ ^ ^ ^ ^ ^ ^ ^ ^ ^ ^ ^ ^ ^ ^ ^ ^ ^ S ^ ^ ^ { ^ ^ ^ ^ ^ { / / / / ^ S ^ ^ ^ ^ ^ ^ ^ ^ ^ T { ^ ^ ^ ^ ^ ^ ^ ^ ^ ^ ^ ^ ^ ^ ^ ^ ^ ^ ^ ^ ^ { / { / Q 5 ^ ^ ^ { ^ { ^ ^ ^ ^ ^ ^ ^ ^ ^ ^ ^ { ^ ^ ^ ^ ^ ^ ^ ^ ^ { { ^ ^ { ^ ^ ^ ^ ^ ^ ^ { { ^ ^ ^ ^ ^ ^ ^ ^ ^ ^ ^ { ^ ^ ^ ^ { ~ ~ ~ ~ ~ ~ ~ + ",
". & { ~ ~ ~ { ~ ~ { ~ ^ ~ ~ ~ ^ ^ ^ ^ ^ ^ ^ ^ ^ ^ ^ 1 ^ / S 5 ^ ^ ^ ^ ^ ^ ^ ^ ^ ^ ^ ^ ^ ^ ^ ^ ^ { { ^ ^ ^ ^ ^ ^ { ^ ^ ^ ^ ^ ^ ^ ^ ^ ^ ^ 2 { ^ ^ ^ ^ ^ ^ ^ ^ ^ ^ { { ^ ^ ^ { ^ ^ ^ ^ { / / ( ^ ^ ^ ^ { ^ ^ ^ ^ ^ ^ { / / ^ ~ ~ ~ ^ ^ ^ ^ ^ ^ ^ ^ ^ ^ ^ ^ ^ ^ ^ ^ ^ ^ ^ ^ ^ 7 ^ ^ [ ^ ^ { ^ ^ ^ ^ | { / / / / / / / ^ ^ ^ ^ ^ ^ ^ ^ ^ { ^ ^ ^ ^ ^ ^ ^ ^ ^ ^ ^ ^ ^ ^ ^ ^ ^ ^ 5 ( 5 / / { / Q S ^ ^ ^ ^ ^ ^ ^ ^ ^ ^ ^ ^ { ^ ^ ^ ^ ^ ^ ^ ^ ^ ^ ^ ^ ^ ^ ^ ^ ^ ^ { ^ ^ ^ ^ ^ ^ ^ { { ^ ^ ^ ^ ^ ^ ^ ^ { ^ ^ { ^ ^ ^ ^ { ^ ~ ~ { ~ ~ ]   ",
". * { ~ ~ ~ { ~ ~ { ~ ~ ~ ~ ~ / / ^ 2 ~ ~ 1 ^ ^ ^ ^ ^ ^ / ^ ^ ^ ^ ^ ^ ^ ^ ^ ^ ^ ^ ^ ^ ^ ^ ^ 1 [ ^ ^ ^ 2 { 5 ^ ^ { ^ ^ ^ / / ( ^ ^ ^ ^ ^ ^ ^ ^ ^ ^ ^ ^ ^ ^ ^ ^ ^ ^ { ^ ^ ^ { ^ ^ ^ ^ { / / ^ ^ ^ ^ ^ ^ ^ ^ ^ ^ ^ ^ ^ 4 S ^ { ^ ^ ^ ^ ^ ^ ^ ^ ^ ^ ^ ^ ~ ^ ^ ^ ^ ^ ^ { ^ ^ ^ 2 / 4 ^ ^ ^ { ^ ^ ^ ^ / / / / / / / / / ^ ^ ^ ^ ^ ^ ^ ^ ^ { ^ ^ ^ ^ ^ ^ ^ ^ ^ { ^ ^ { ^ R ^ { / / ^ ^ { / / | T ^ ^ ^ ^ { ^ ^ ^ ^ ^ ^ ^ ^ { ^ ^ ^ ^ ^ ^ ^ ^ ^ ^ ^ ^ ^ ^ { ^ ^ ^ ^ ^ ^ ^ ^ ^ ^ ^ { { ^ ^ ^ ^ ^ ^ ^ ^ ^ ^ ^ ^ ^ ^ ^ ^ { ^ { ~ { ~ ~ ~   ",
"  * { ~ ~ ~ { ~ ~ { ~ { ^ ~ ~ / / ^ ^ ~ ~ / / ^ ^ ^ ^ ^ ^ ^ ^ ^ ^ ^ ^ ^ ^ ^ ^ ^ ^ ^ ^ ^ ^ / ( 1 ( 6 S ^ { 1 { ^ ^ ^ ^ ^ ^ 2 7 2 4 ^ ^ ^ ^ ^ ^ ^ ^ ^ ^ ^ ^ ^ ^ ^ ^ { ^ ^ ^ { ^ ^ ^ ^ { / { ^ ^ ^ ^ ^ ^ ^ ^ ^ ^ ^ { ^ 4 ^ ^ { ^ { ^ ^ ^ ^ ^ ^ ^ ^ ^ ^ ~ ^ ^ ^ ^ ^ ^ ^ ^ ^ ^ ^ 5 2 2 ^ ^ { ^ ^ ^ ^ / / / / / / / / ^ ^ { ^ ^ ^ ^ ^ ^ ^ ^ ^ ^ ^ ^ ^ ^ ^ ^ ^ { ^ ^ { ^ / ^ { / ^ ^ ^ { / / | / ^ ^ ^ { { ^ ^ ^ ^ ^ ^ ^ ^ { ^ ^ ^ ^ { ^ ^ ^ ^ ^ ^ ^ ^ ^ { ^ ^ ^ { ^ ^ ^ ^ ^ ^ ^ { { ^ ^ { ^ ~ { { ^ { ^ ^ ^ ^ ^ ^ ^ { ^ { ~ { ~ ~ ~   ",
"  * ~ ~ ~ ~ { ~ ~ { ^ ^ ^ 1 ^ / 2 ^ ^ ~ / ^ ~ ^ ^ ^ ^ ^ ^ ^ ^ ^ ^ ^ ^ ^ ^ ^ ^ ^ ^ ^ ^ ^ ^ / / R ^ ^ ^ Q { ^ { ^ ^ ^ ^ ^ ^ ^ { ^ ^ ^ ^ ^ ^ ^ ^ ^ ^ ^ ^ ^ ^ ^ ^ ^ { ^ ^ ^ { { ^ ^ ^ ^ { / { ^ ^ ^ ^ { ^ ^ ^ ^ ^ ^ ^ / / 1 ^ { ^ { ^ ^ ^ ^ ^ ^ ^ ^ ^ ~ ~ ~ ^ ^ ^ ^ ^ ^ ^ ^ ^ ^ ^ ^ ^ ^ 1 { ^ ^ ^ ^ 3 { / / / / / / { ^ ^ ^ ^ ^ ^ ^ ^ ^ ^ ^ ^ ^ 3 ^ ^ ^ ^ ^ ^ ^ ^ { / 5 2 ^ ^ ^ ^ [ { / | ^ ( { ^ ^ ^ { ^ ^ { ^ ^ ^ ^ ^ ^ ^ ^ ^ ^ { ^ { ^ ^ ^ ^ ^ ^ ^ { ^ ^ ^ { ^ ^ ^ ^ ^ ^ ^ { { ^ { { ^ ~ { { ~ ^ ^ ^ ^ ^ ^ ^ ^ ^ ^ ~ ~ { ~ { ~   ",
"  * { ~ ~ ~ ~ ~ ~ { ^ ^ 2 ..[ 1 ^ ^ ^ ~ / ~ ^ { ^ ^ ^ ^ ^ ^ ^ ^ ^ ^ ^ ^ ^ ^ ^ ^ ^ ^ ^ ^ ^ 2 / [ | 1 ^ T { ^ { { ^ ^ ^ ^ ^ ^ { ^ ^ ^ ^ ^ ^ ^ ^ { ^ ^ ^ ^ ^ ^ ^ ^ ^ ^ ^ ^ ^ ^ ^ ^ ^ { { S { ^ ^ ^ ^ { { ^ { ^ ^ ^ ^ { { ^ ^ { ^ { ^ ^ ^ ^ ^ ^ ^ ~ ~ ~ ^ ^ ^ ^ ^ ^ ^ { ^ ^ ^ ^ ^ ^ ^ ^ [ { 7 ^ ^ S / / / / / / / / { 4 7 ^ 7 ^ ^ ~ ^ ^ ^ ^ ^ / / ^ ^ ^ ^ ^ ^ ^ { { / / ^ ^ ^ ^ ^ Q / / { ^ { { ^ ^ ^ { ^ ^ { ^ ^ ^ ^ ^ ^ { ^ ^ ^ ^ ^ { ^ ^ ^ ^ ^ ^ ^ { ^ ^ ^ { ^ ^ ^ ^ ^ ^ ^ { { ^ ^ { ^ ^ ^ { ~ ^ ^ ^ ^ ^ ^ ~ ^ ^ ^ ~ ~ ~ ~ { ~ . ",
"  & { ~ { ~ ~ ~ ~ { ^ ^ ^ 7 3 ^ ^ ^ 1 / / ^ ^ { ^ ~ ^ ^ ^ ^ ^ ^ ^ ^ ^ ^ ^ ^ { ^ ^ ^ ^ ^ ^ { ^ ^ { { { / { ^ { { ^ ^ | ^ ^ ^ { / / { ^ ^ ^ ^ ^ ^ ^ ^ ^ ^ ^ ^ ^ ^ ^ ^ ^ ^ { { { ^ ^ { { ^ { ^ ^ ^ ^ { ^ ^ ^ ^ ^ ^ ^ { { ^ ^ { ^ { ^ ^ ^ ^ ^ ^ ^ ^ ^ ^ ^ ^ ^ ^ ^ ^ ^ { ^ ^ ^ ^ ^ ^ ^ ^ 2 { / ^ ^ / / / / Q Q { / / / / / / / | 5 7 ^ ^ ^ ^ ^ { / ^ ^ ^ ^ ^ ^ ^ ^ { ^ ( Q { ( S ^ 1 ^ ^ ^ ^ { ^ ^ ^ ^ ^ ^ ^ ^ { ^ ^ ^ { ^ { ^ ^ ^ ^ ^ { ^ ^ ^ ^ ^ ^ ^ ^ ^ ^ ^ { ^ ^ ^ ^ ^ ^ ^ { { ^ ^ { ^ ^ ^ ^ ^ / / ^ ^ ~ ~ ~ ~ ^ ^ ~ ~ ~ ~ { ~ . ",
"  & { ~ { ~ ~ ~ ~ { ^ ^ ^ 7 / / ( / Q Q 4 ^ ^ { ^ ^ ^ ^ ^ ^ ^ ^ ^ ^ ^ ^ ^ ^ { ^ ^ ^ ^ ^ ^ { { ^ { { { ^ { ^ { { { ^ ^ ^ ^ ^ { / / ^ ^ ^ ^ ^ ^ ^ ^ ^ ^ ^ ^ ^ ^ ^ ^ ^ ^ ^ ^ ^ { ^ { { { { { / ^ ^ ^ { ^ ^ ^ ^ ^ { ^ { ^ ^ { { ^ ^ ^ ^ ^ { ^ ^ ^ { ^ ^ ^ ^ ^ ^ ^ ^ ^ { ^ ^ ^ ^ ^ ^ ^ ^ ^ { ^ ^ / / / / / / / / / / / / / / / { ^ ^ ^ ^ ^ ^ ^ { ^ ^ ^ ^ ^ ^ ^ ^ ^ / / / / { / [ ^ ^ ^ ^ ^ ^ { ^ ^ ^ ^ ^ ^ ^ ^ ^ ^ ^ ^ { ^ ^ ^ ^ ^ ^ ^ { ^ ^ ^ ^ ^ ^ ^ ^ ^ ^ ^ ^ ^ ^ ^ ^ ^ ^ ^ { { ^ ^ ^ ^ ^ ^ ^ ^ ^ ^ ^ ^ ~ ~ { ~ ^ ^ ~ ~ ~ ~ { ~   ",
"  & ~ ~ ~ ~ ~ ~ ~ { ~ ^ / / / ^ ~ / } ^ ^ ^ ^ ^ ^ ^ ^ ^ ^ ^ ~ ^ ~ ^ ^ ^ ^ ^ { ^ ^ ^ ^ ^ ^ { { ^ { ^ { ^ { ^ { ^ ^ ^ ^ ^ ^ ^ ^ ^ ^ ^ ^ ^ ^ ^ ^ ^ ^ ^ { ^ ^ { ^ ^ ^ ^ ^ ^ { ^ { ^ { { ^ { { / / [./ / / ^ ^ ^ ^ { ^ { ^ ^ { { ~ ^ ^ ^ ^ ^ ^ ^ ^ ^ ^ ^ ^ ^ ^ ^ ^ ^ ^ { ^ ^ ^ ^ ^ ^ ^ ^ ^ { ^ ^ / Q / / / / / / / / / / / / [ ^ ^ ^ ^ ^ ^ ^ ^ { ^ ^ ^ { { { ^ ^ ^ ^ / / / / / / 7 | { ^ ^ ^ { ^ ^ ^ ^ { ^ ^ ^ ^ { ^ ^ ^ ^ { ^ ^ ^ ^ { { ^ ^ { ^ ^ ^ ^ ^ ^ ^ ^ { ^ ^ ^ ^ ^ ^ ^ ^ ^ ^ ^ ^ ^ ~ ^ ^ ^ ^ ^ ^ ~ ~ ~ { ^ { { ~ ~ ~ ~ { ~   ",
"  * ~ ~ ~ ~ ~ ~ { { ~ < / / 5 ^ ^ [ ~ ^ ~ ^ ^ { ~ ^ ^ ^ ~ ^ ^ ~ ^ ^ ^ ^ ^ ^ { ^ ^ ^ ^ ^ ^ { { ^ { ^ { ^ ^ ^ ^ ^ ^ ^ ^ ^ ^ ^ ^ ^ ^ ^ ^ ^ ^ ^ { ^ ^ ^ ^ ^ ^ ^ ^ ^ { ^ ^ ^ ^ ^ ^ { { { ^ { { / / / / / / / 1 ^ ^ { ^ ^ { ^ ^ ~ ^ ^ ^ ^ ^ ^ ^ ^ ^ ^ ^ ^ ^ ^ ^ ^ / ..{ { ^ ^ ^ ^ ^ ^ ^ ^ ^ { ^ ^ 7 / / / / Q { / / 2 / / / 7 ^ ^ { ^ ^ ^ ^ ^ ^ ^ { ^ ^ ^ ^ { ^ ^ ^ ^ / / / / / / R 2 / / ( ^ { { ^ ^ ^ ^ ^ ^ ^ ^ { ^ ^ { ^ { ^ ^ ^ ^ { { ^ ^ ^ ^ ^ ^ ^ ^ ^ ^ ^ { ^ ^ ^ ^ ^ ^ ^ ^ ^ { ^ ^ ^ ~ ^ { ^ ^ ^ ^ ^ ~ ^ ^ ^ { { ~ ~ { ~ ~ ~   ",
"  & ~ ~ ~ { ~ ~ ~ { / / ~ ^ ^ ^ ^ ^ ^ ^ ^ ^ ^ { ^ ^ ^ ~ ~ ~ ~ ~ ^ ^ ^ ^ ^ ~ { ^ ^ ^ ^ ^ ^ ^ { ~ { ^ { / { ^ ^ ^ ^ ^ ^ ^ ^ { ^ ^ ^ ( | ^ ^ ^ { ^ ^ { ^ ^ ^ ^ ^ ^ ^ ^ ^ ^ ^ ^ ^ { ^ { ^ { ^ / / / / / { / / / ^ { ^ { { ^ ^ ^ ^ ^ ~ ~ ^ ^ ^ ^ ^ ^ ^ ^ ^ ^ ^ ^ / / { { ^ ^ ^ ^ ^ ^ ^ ^ ^ ^ ^ ^ ^ [ Q / / / / T [ 3 6 ^ { 5 ^ ^ { ^ ^ ^ ^ ^ ^ ^ ^ ^ ^ ^ ^ ^ ^ ^ ^ ^ ( 2 ^ ^ 7 / | ^ ^ / ^ ^ { { ^ ^ ^ ^ ^ ^ ^ ^ { ^ ^ { ^ { ^ ^ ^ ^ { { ^ ^ ^ ^ ^ ^ ^ { ^ ^ ^ { ^ ^ ^ ^ ^ ^ ^ { ^ ^ ^ ^ ~ ^ ~ { ~ ^ ^ ^ ^ ^ ^ ~ ~ { { ~ ~ ~ ~ ~ ~ . ",
". & ~ { ~ { ~ / { { / ] ~ ~ ^ ^ ^ ^ ^ ^ ^ ~ ~ { ^ ^ ^ ~ ^ ~ ~ ^ ^ ^ ^ ^ ^ ^ { ^ ^ ^ ^ ^ ^ { { ~ { ^ { ^ ^ { ^ ^ ^ ^ ^ ^ ^ ^ { ^ ^ / [ ^ ^ ^ { ^ { { ^ ^ ^ ^ ^ ^ ^ ^ ^ ^ ^ { ^ ^ ^ { { { ^ / / / / { { / / / ^ { ^ { { ^ ^ { ^ ^ ^ ^ ^ ^ ( ^ ^ ^ ^ ^ ^ ^ ^ ^ / / { { ^ ^ ^ ^ ^ ^ ^ ^ ^ ^ ^ ^ ^ Q / | 3 / / 2 { / / / { ^ ^ 2 { ^ ^ ^ ^ ^ ^ ^ ^ 5 ^ ^ ^ ^ ^ ^ ^ ^ ^ ^ ^ ^ ^ ^ / ^ ^ ^ { ^ ^ { ^ ^ ^ { ^ ^ ^ { { { ^ { ^ ^ ^ ^ { ^ { ^ ^ ^ { ^ ^ ^ ^ { ^ ^ ^ ^ ^ ^ ^ ^ ^ ^ ^ ^ ^ ^ ^ ^ ~ ~ ~ { ~ ^ ^ ^ ~ ^ { ~ ~ ~ { ~ ~ ~ ~ ~ ~ . ",
". & ~ { ~ { ~ ~ { { ~ < ~ ~ ~ ~ ^ ^ ^ ^ ^ ~ ~ { ^ ^ ^ ^ / ^ ~ ^ ^ ~ ^ ^ ^ ^ { ^ ^ ^ ^ ^ ^ { ^ ~ { { { ^ ^ { { { ^ ^ ^ ^ ^ ^ { ^ ^ 2 ^ / [.^ { ^ { { ^ ^ ^ ^ ^ ^ ^ ^ ^ ^ ^ ^ ^ ^ ^ ^ { { ^ Q / / [ / { ^ ^ 7 ^ { ^ { { ^ ^ { ^ ^ ^ ^ ^ ^ ^ ^ ^ ^ ^ ^ ^ ^ ^ ^ ^ / { ^ ^ ^ ^ ^ ^ ^ ^ ^ ^ { ^ ^ ^ ^ { | 7 / { / { | / / { 7 ( { ^ ^ ^ ^ ^ ^ ^ ^ ^ 3 ^ ^ ^ ^ ^ ^ ^ ^ ^ ^ ^ ^ ^ ^ ^ { { ^ { ^ { { ^ { ^ { ^ ^ ^ ^ { { ^ { ^ ^ ^ ^ { ^ ^ ^ ^ ^ { ^ ^ ^ ^ { ^ ^ ^ ^ ^ ^ ^ ^ ^ ^ ^ ^ ^ ^ ^ ^ ^ ~ { { ^ ^ ^ ~ ~ ~ { ^ ~ { ~ ~ { ~ { ~ { . ",
". & ~ { ~ { ~ ~ { { ~ ~ ~ ~ ~ ~ ^ ^ ^ ^ ~ ~ ^ { ^ ^ ^ ^ / ( 2 { ~ ~ ^ ^ ^ ^ { ^ ^ ^ ^ ^ ^ { ^ ^ ^ { ^ ^ { { { ^ ^ { ^ ^ ^ { { ^ ^ ^ ^ ^ / ^ { ^ { { ^ ^ ^ { ^ ^ ^ 5 ^ ^ ^ { ^ ^ ^ ^ { { ^ / / ^ ^ ^ { ^ ^ ^ ^ { ^ { { ^ ^ { ^ ~ ^ ^ ~ ^ ^ ^ ^ ^ ^ ^ ^ ^ ^ ^ ^ / / 7 ^ ^ ^ ^ ^ ^ ^ ^ ^ { ^ ^ ^ ^ { { ^ / { 2 { / / / { / / 3 ^ ^ ^ ^ ^ ^ 1 ^ ^ ( ^ ^ ^ ^ ^ ^ ^ ^ ^ ^ ^ ^ ^ ^ ^ { { ^ { ^ { { ^ { { { { ^ ^ ^ ^ { ^ ^ ^ ^ ^ ^ ^ ^ { ^ ^ ^ { ^ ^ { { { ^ ^ ^ ^ ^ ^ ^ ^ ^ ^ ^ { ^ ^ ^ ^ ^ ~ ~ { ^ ^ ^ ~ ~ ~ { ^ { { { ~ ~ ~ { ~ {   ",
". & ~ { ~ { ] ~ { { { ~ ~ ~ ~ ~ ~ ^ ^ ^ ~ ~ ~ ~ ^ ^ ^ 4 / S { { ^ ~ ~ ~ ^ ^ ~ ~ ~ ^ ^ ^ ^ { ^ ^ ^ { ^ ^ { ^ { ^ ^ { ^ ^ ^ { ^ ^ ^ ^ ^ { { ^ { { ~ { ^ ^ ^ { ^ ^ { ^ ^ ^ ^ { ^ ^ ^ ^ { ^ ^ ^ ^ ^ ^ { ^ ^ ^ ^ ( { ^ { { ^ { { ^ ^ ~ ^ ~ ^ ^ ^ ^ ^ ^ ~ ~ ^ ^ ^ ^ / { / ^ ^ ^ ( ^ ^ { ^ ^ { ^ ^ ^ ^ { { ^ 1 ^ Q / / / / { / ^ ^ ^ ^ ^ ^ ^ ^ ^ ^ ^ ^ ^ { ^ ^ ^ ^ ^ ^ ^ ^ ^ ^ ^ ^ ^ ^ ^ { { ^ { { ^ { { { ^ ^ ^ ^ ^ ^ ^ { ^ ^ ^ ^ ^ ^ { ^ ^ ^ ^ ^ ^ { { { ^ ^ ^ ^ ^ ^ ^ ^ ^ ^ ^ ^ { { { ^ ~ ~ { { ^ ^ { / ~ { { ^ { { { ~ { ~ ~ ~ ~ . ",
". & ~ { ~ { < ~ { { } ~ ~ ~ ~ ~ ^ ^ ^ ^ ~ ~ ~ ^ ^ ^ ^ ^ [ / { { 1 ^ ~ ~ ~ ^ { ~ ~ ^ ^ ^ ^ ^ ^ ^ { { ^ { { ^ { ^ ^ { ^ ^ ^ ^ ^ ^ ^ ^ ^ { ^ ^ { ^ ^ { ^ { ^ { ^ ^ { 3 4 ^ ^ { ^ ^ ^ ^ { ^ ^ ^ ^ ^ ^ { { ^ ^ ^ ^ { ^ { { ^ { { ^ ^ ^ ^ ^ { ^ ^ ^ ^ ^ ~ ^ ^ ^ ^ ^ / { / / ^ ^ / 6 ^ ^ ^ ^ { ^ ^ ^ ^ ^ ^ ^ ^ ^ 2 / { / / { ^ ^ ^ ^ R / ..^ ^ ^ ..^ ^ ^ ^ ^ ^ ^ ^ ^ ^ ^ ^ ^ ^ ^ ^ ^ { ^ ^ { ^ { ^ ^ { { ^ ^ ^ ^ ^ ^ ^ ^ ^ ^ ^ ^ ^ ^ ^ { ^ ^ ^ ^ ^ ^ { { ^ ^ ^ ^ ^ ^ ^ ^ ^ { ^ ^ ^ { ^ { ~ ~ ^ { { ^ ^ ~ ~ ~ { { ^ { { { ~ { ~ ~ ~ { . ",
". & ~ { ~ { / / { { / ~ ~ / ~ ^ ^ ^ ^ ~ ~ ^ { ^ ^ ~ ^ ^ ^ / ( ^ ^ ^ ^ ~ ^ ^ { ~ ^ ^ ^ ^ ^ ^ { ^ { ^ ^ { ^ ^ ^ ^ ^ ^ ^ ^ ^ ^ ^ ^ ^ ^ ^ { ^ ^ { ^ ^ { ^ { { ^ ^ ^ { ( ^ ^ { { { ^ ^ ^ { ^ ^ ^ ^ ^ ^ { { ^ ^ ^ ^ { ^ { { { { { ^ ~ ^ ^ ^ ^ ^ ^ ^ ^ ^ ^ ^ ^ ^ ^ ^ ^ { / / ^ ^ / / / | 2 ^ ^ ^ ^ ^ ^ { ^ { ^ ^ ^ / / / / { 4 2 7 ^ ^ ^ { ^ { T / ^ ^ ^ ^ ^ ^ ^ ^ { ^ ^ ^ ^ ^ ^ ^ ^ { ^ ^ { ^ ^ ^ ^ ^ { ^ ^ ^ ^ ^ { ^ ^ ^ ^ ^ ^ { ^ ^ { ^ ^ ^ ^ ^ ^ ^ ^ ^ ^ ^ ^ ^ ^ ^ ^ ^ { ^ ^ { { ~ { ~ ~ ^ ^ ^ ^ ^ ^ ~ ~ { { ~ { { { ~ { ~ { ~ { . ",
". & ~ { ~ { / / { { ~ ~ ~ ~ 1 ^ ^ ~ ^ ^ ^ ^ { ^ ^ ^ ^ ^ ^ : { ^ ^ ^ ^ ^ ^ ^ { ^ ^ ^ ^ ^ ^ ^ ^ ^ { ^ ^ { ^ ^ ^ { ^ ^ ^ ^ ^ ~ ~ ~ ^ ^ ^ ^ S / { ^ ^ { ^ { { ^ ^ { ^ ^ ^ ^ { ^ ^ ^ { ^ { ^ ^ ^ ^ ^ ^ { { ^ ^ ^ ^ { ^ { { { { { ~ ^ ~ ^ ^ ^ ^ ^ ^ ^ ^ ^ ^ ^ ^ ^ ^ ^ { ^ | | ^ ^ [ / 3 / ^ { ^ ^ ^ ^ { ^ { ^ { ^ ^ ^ ^ ^ R S ^ ^ ^ 5 / ^ ^ { R / ^ ^ ^ ^ ^ ^ ^ ^ { { ^ ^ { ^ ^ ^ ^ { ^ ^ { ^ ^ ^ ^ { { ^ ^ ^ ^ ^ { ^ ^ ^ ^ ^ ^ { ^ ^ ^ ^ ^ ^ ^ ^ ^ ^ { ^ ^ ^ ^ ^ ^ ^ ^ ^ { ^ ^ { { { ~ ^ ~ ~ { ~ ~ ~ ~ ~ ^ ~ { ~ ~ ~ { ~ { ~ ~ ~ ~   ",
". & ~ { ~ { ~ ] ~ ~ ~ ~ ~ ~ ^ ^ ^ ~ ~ ~ ~ ^ { ^ ^ ~ ^ ^ ^ ~ { ^ ^ ^ ^ ^ ^ ^ { ^ ^ ^ ^ ^ ^ ^ { ^ { ^ ^ { ^ ^ ^ { ^ ^ ^ ^ ^ ^ { ^ ^ ^ ^ { 5 / { { ^ { { ^ { ^ ^ { { ^ ^ ^ { ^ ^ ^ { ^ ^ { ^ ^ ^ ^ ^ { { ^ ^ ^ ^ { ^ { ^ ^ { ^ ^ ^ ^ ^ ^ ^ ^ ^ ^ ~ ^ ^ ^ ^ ^ ^ ^ ^ ^ S [ / ~ ^ ^ ^ ^ / / { ^ ^ ^ ^ { ^ { ^ { ^ ^ ^ ~ ~ { ^ ^ ^ ^ / / ^ ^ { ^ | ~ ^ ^ ^ ^ ^ ^ ^ ^ { ^ ^ { ^ ^ ^ ^ ^ ^ ^ ^ ^ { { ^ { { ^ ^ ^ ^ ^ ^ ^ { { ^ ^ ^ { ^ { ^ ^ ^ ^ ^ ^ { { { ^ ^ ^ ^ ^ ^ ^ ^ ^ ^ ^ ~ ^ { { ~ ^ ^ ~ ~ ~ ~ ~ ~ ~ ^ ~ { ~ { ~ { ~ { ~ ~ ~ ~   ",
". & ~ { ~ { ~ / { ~ ~ ~ ~ ~ ~ ~ ~ ~ ~ ~ ~ ~ { ^ ^ ~ ~ ~ ~ ~ { ~ ^ ^ ^ ^ ^ ^ { ^ ^ ^ ^ ^ ~ { ^ ^ { ^ ^ ^ ^ ^ { ^ { ^ ^ ^ ^ ^ ^ ^ ^ ^ ^ ^ ^ ^ { { ^ { { ^ { ^ ^ { ^ ^ ^ ^ { ^ ^ ^ { ^ ^ ^ ^ ^ ^ ^ ^ { ^ ^ ^ ^ ^ { ^ { ^ ^ { ^ ^ ^ ^ ^ ^ ^ ^ ^ ^ ^ ~ ^ ^ ^ ^ ^ ^ ~ ^ ^ ^ } ~ ^ ^ ^ ~ ~ / { / ^ ^ ^ { ^ ^ ^ { ^ ^ ^ ^ ~ { ^ ^ ^ ^ ] / 2 { { / ^ ^ ^ ^ ~ ^ ^ ^ ^ ^ { ^ ^ { { ~ ^ ^ ^ ^ ^ { ^ { { ^ { { ^ ^ ^ ^ { ^ ^ { { ^ ^ ^ { ^ { ^ ^ ^ ^ ^ ^ { { { ^ ^ ^ ^ ^ ^ ^ ^ ^ ^ ^ ^ { { { ~ ^ ^ ~ { ~ ~ ~ ^ ^ { ^ { ~ { ~ ~ ~ ~ { ~ ~ ~   ",
"  & ~ { ~ { ~ ~ { ~ ~ ~ ~ ~ ~ ~ ~ ~ ~ ~ ~ ~ ~ ~ ~ ~ ^ ^ ~ ~ ~ ~ ^ ^ ~ ~ ^ ~ ~ ~ ^ ^ ^ ^ ^ { ~ ^ { ^ ^ ^ ^ ^ { ^ ^ ^ ^ ^ ^ ~ ^ ~ ^ ^ ^ ^ ^ ^ ^ { ~ { ^ ^ { ^ ^ ^ ^ ^ ^ { { { ^ ^ { ^ ^ { ^ ^ ^ ^ ^ { ^ ^ ^ ^ { { { { ~ ^ { ^ ^ ^ ~ ~ ~ ^ ^ ^ ^ ^ ^ ^ ^ ^ ^ ^ ^ ~ ~ ^ { ~ ~ ^ ^ ^ ~ ^ 7 { / ^ ^ ^ ^ ^ { ^ { ^ ^ ^ ^ ^ ^ ^ ^ ^ S ~ { / 2 { Q ^ ^ ^ ~ ~ ^ ~ ^ ^ ^ ^ ^ ^ ~ { ^ ^ ^ ^ ^ ^ { ^ ^ { ^ ^ { ^ { ^ ^ { ^ ^ ^ { ^ ^ ^ ^ ^ { ^ ^ ^ ^ ^ ^ { { { ^ ^ ^ ^ ^ ^ ^ ^ ^ ^ ^ ^ { { { ~ { ~ ~ ] { ~ ~ { ^ { ~ { ~ { ~ { ~ { { ~ ~ { . ",
"  & ~ { ~ { ~ ~ { ~ ~ ~ ~ ~ ~ ~ ~ ~ ~ ~ ~ ~ ~ ~ ~ ^ ^ ~ ~ ~ ~ ~ ^ ~ ~ ~ ~ ~ ~ ~ ^ ^ ^ ^ ^ { ^ ^ { ~ ^ ^ ^ ^ ^ { ^ ^ ^ ^ ^ { ~ ^ ~ ^ ^ ^ ^ ^ ^ ^ ^ { ^ ^ ^ ^ ^ { ~ ^ ^ { { { ^ ^ { ^ ^ { ^ ^ ^ ^ { { ^ ^ ^ ^ { { ^ ^ ~ ^ { ^ ^ ~ ~ ~ ~ { ^ ^ ~ ^ ^ ^ ^ ^ ^ ^ ~ ~ ~ ^ ^ ^ ^ ^ ^ ^ ^ ^ ^ { / ~ ^ ^ ^ ^ ^ ^ { ^ ^ ^ ^ 5 ^ ^ ^ ^ ^ ~ ~ ~ : { / < ~ ~ ~ ~ ~ ~ ^ ^ ^ ^ ^ ~ { { ^ ^ ^ ^ ^ ^ ^ ^ { ^ ^ ^ ^ ^ { ^ ^ { { ^ { { ^ ^ ^ { ^ ~ { ^ ^ ^ ^ ^ { ^ { ^ ^ ^ ^ ^ ^ ^ ^ ^ ~ ^ ^ { ~ { ~ ^ ~ { ~ ~ ~ ~ ~ ^ { ~ { ~ { ~ { ~ ~ { { { { . ",
"  & ~ { ~ { ~ { { ~ ~ U h h U ~ ~ ~ ~ ~ ~ ~ { ~ ~ ^ ^ ^ ~ ~ ~ ^ ^ ^ ^ ^ ~ ^ ~ ^ ^ ^ ^ ^ ^ { ^ ^ { ^ ^ ^ ^ ^ ^ { ^ ^ ^ ^ ^ ^ ~ ~ ~ ^ ^ ^ ^ ^ ^ ^ ^ { ^ ^ ^ ^ ^ ^ ^ ^ ^ ^ ^ { S ^ { ^ ^ { ^ ^ ^ ^ { 6 ^ 1 / ^ { { ^ ^ { ^ { ^ ^ ^ ^ ~ ~ { ^ ~ ~ ~ ^ ^ ~ ^ ^ ^ ~ ~ { ~ ~ ^ ^ ^ ^ ^ ~ ~ ~ ~ ] ~ ^ ^ ^ ^ ^ { { ^ ^ ^ ^ ^ { ^ ^ ^ ^ ~ ~ } / / ] { ^ ^ ~ ~ ~ ~ ~ ^ ^ { ^ ~ ~ { { ^ ^ { ^ ^ ^ ^ { ^ { ^ { ^ ^ ^ ^ { { ^ ^ ^ ^ ^ ^ { ^ ^ { ^ ^ ^ ^ ^ { ^ { ^ ^ ^ ^ ^ ^ ^ ^ ^ ~ ^ ^ { ~ { ~ ^ ~ { ~ ~ ~ ~ ^ ^ ].h V U ~ ~ ~ ~ ~ ~ { { { . ",
". & ~ ~ ~ { ~ { { ~ h h Y Z p p ~ ~ ~ ~ ~ ~ { ~ ~ ^ ^ ^ ^ ^ ~ ^ ^ ^ ^ ^ ^ ^ ^ ^ ^ ^ ^ ^ ^ ^ ^ ^ { ^ ^ ^ ^ ^ { { ^ ^ ^ ^ ^ ^ ^ ^ ^ ^ ^ ^ ^ ^ ^ ^ ~ { ^ { ^ ^ ^ { ^ ^ { { S R ( ^ ^ ^ ^ ^ ^ ^ ^ ^ { ^ ^ ^ ^ ^ { { ^ ^ { ^ { ^ ^ ^ ^ ^ ~ { ^ ^ ~ ~ ~ ~ ~ ^ ^ ~ ~ ~ { ~ ~ ^ ^ ^ ^ ^ ~ ~ ~ ~ ~ ~ ^ ^ ^ ^ { { { ^ ^ ^ ^ ^ { ^ ^ ^ ^ 5 / / : ~ ~ { ^ ^ ~ ~ ~ ~ ~ { ~ ~ ~ ~ ^ { { ^ ^ { ^ ^ ^ ^ { ^ { ^ { ^ { ^ ^ { { ^ ^ ^ ^ ~ ~ { ^ ^ { ~ ^ ^ ^ ^ { ^ { ^ ^ ^ ^ ^ ^ ^ ^ ^ ^ ^ ^ ~ ~ ~ ^ ^ ~ { ~ ~ ~ ~ ^ X h Y 2.p p ~ ~ ~ { ~ { { { . ",
"  & ~ { ~ { ~ { ~ ~ a Y #.U $.p ~ ~ 2 ~ ~ ~ { ~ ~ ^ ^ ^ ^ ^ ^ ^ ^ ^ ^ ^ ^ ~ { ^ ^ ^ ^ ^ { ^ ^ ^ { ^ ^ ^ ^ ^ ^ ^ ^ ^ ^ ^ ^ ^ ^ ^ ^ ^ ~ ~ ~ ^ { ^ ~ { ~ { ^ { ^ { ^ ^ { { [ { ^ { ^ ^ ^ { ^ ^ ^ { { ^ ^ ^ ^ ^ ^ ^ ^ { ^ ^ ^ ^ ^ ^ ^ ^ ^ { ^ ^ ^ ~ ~ ~ ~ ^ ^ ~ ~ ~ { ^ ^ ^ ^ ^ ^ ^ ^ ~ { ~ ~ ~ ^ ^ { ^ { { { ^ ^ ^ ^ ^ { ^ ^ ^ / / < / 3 ^ ~ ~ ~ ^ ~ ~ ~ ~ ~ { ~ ~ ~ ^ ^ { { ^ ^ { ~ ~ ^ ^ { ^ ^ ^ ^ ^ { ^ ^ { { ^ { ^ ^ ~ ~ { ^ { { ^ ^ ^ ^ ^ { ^ { ^ ^ ^ ^ ^ Q ^ ^ ^ ^ ^ ^ ~ ~ ~ ^ ~ ~ ~ ~ ~ ~ ~ ~ a * 3.].$.p ~ ~ ~ { ~ { { ~   ",
"  * ~ { ~ { ~ ~ ~ ~ *.=.-.;.Y !.~ ~ 1 ^ ~ ~ ~ ~ ~ ~ ~ ~ ~ ^ ^ ^ ^ ^ ^ ^ ^ ^ ^ ^ ^ ~ ^ ^ { ^ ^ ^ { ^ ^ ^ ^ ^ ^ ^ ^ { ^ ^ ^ ^ ^ ^ ^ ~ { ~ ~ ^ { ^ ~ { ~ ^ ^ { ^ { { ^ ^ { / { ^ ^ ^ ^ ^ { ^ ^ ^ ^ { ^ ^ ^ ^ ^ { ^ ^ ^ ^ ^ ^ ~ ~ ^ ~ ^ ^ ^ ~ ^ ^ ~ ~ ~ ~ ^ ^ ~ ~ { { ^ ^ ^ { ^ ^ ^ ~ ~ { ~ ~ ~ ^ ^ { ^ { { { ^ ^ ^ ^ ^ { ^ ^ ^ / / / / / 7 ~ ~ ~ ~ ~ ~ ~ ~ ~ { ~ ~ ~ ^ ^ ^ ^ ^ ^ { ~ ~ ~ ^ ^ ^ ^ ^ ^ ^ ^ ^ ^ { ^ ~ ^ ^ ^ ^ ^ { ^ { { ^ ^ ^ ^ ^ { ^ ^ ^ ^ ^ 2 ..^ { ^ ^ ^ ^ ^ ^ ~ ~ ~ ~ ~ ~ { ~ ~ ~ ~ *.4.5.6.Y !.~ ~ ~ ~ { { { {   ",
"  * ~ { ~ { ~ { ~ ~ U ~.{.$.U _.~ ~ ^ ^ ^ ^ ^ ^ ~ ~ ~ ~ ~ ~ { ^ ^ ^ ~ ^ ^ ^ { ^ ^ ~ ~ ~ { ^ ~ ^ { ^ ^ ^ ^ ^ ^ ~ ^ ^ ^ ^ ^ ~ ~ ~ ^ ^ ^ ^ ~ ~ { ^ ~ { ~ ^ ^ { ^ { ^ ^ { { / ( ^ ^ ^ ^ ^ { ^ ^ ^ ^ { 3 ^ ^ ^ ^ { ^ { { ^ ^ ^ ~ ~ ~ ~ ^ ^ ^ ~ ~ ~ ^ ^ ^ ~ ^ { ^ ^ { { ^ ^ ^ ^ ^ ^ ^ ~ ~ { ~ { ~ ^ ^ { ^ { ^ ^ ^ ^ ^ ^ ^ { ^ ^ ^ 1 Q 7 ] ^ ^ ^ ~ ^ ~ ~ ~ ~ ~ ~ ~ ~ ^ ~ ~ ~ ^ ^ ^ { { ~ ^ ~ { { ^ ^ ^ ~ ^ { ^ ^ ^ ^ ^ ^ ^ ^ ^ ^ { ^ { ^ ^ ^ ^ ^ ^ { ^ { ~ ^ ^ ^ ^ ^ { ^ ^ { ~ ^ ~ ~ ~ ~ ~ ~ { { ~ ~ ~ ~ U /.7.8.U ^.~ ~ ~ ~ { { { {   ",
"  * ~ ~ ~ ~ ~ { { ~ ~ !.:.p !.~ ~ ~ ~ ~ { ~ ~ { ~ ~ ~ ~ ~ ~ { ~ ~ ~ ~ ~ ~ ~ { ~ ~ { ~ ~ { ~ ~ ^ { ~ ~ ~ ~ ~ ~ { ^ ^ ~ ~ ^ ~ ~ ~ ~ ^ ^ ^ ^ ~ ~ { ^ ^ ^ { ^ ^ ^ ^ ^ ^ { { ^ ^ ^ ^ ^ ^ ^ { ^ ^ ^ ^ { | ^ ^ ^ ^ { ^ { { ^ ^ { ~ ~ ~ ~ ~ ^ ~ ~ ~ ~ ^ ^ ^ ~ ~ ^ ^ ^ { ^ ^ ~ ~ ^ { ~ ~ { ~ { ~ { ~ ^ { { ^ { { ^ ^ ^ ^ ^ ^ ^ ^ ~ ~ ~ ~ ~ / ^ ^ ^ ~ ~ ~ ~ { / / ~ ~ ^ ^ ^ ~ ~ ^ ^ ^ { ^ ^ ^ ^ { { ^ ^ ^ ^ ^ { ^ ^ ^ ^ ^ ^ ^ ^ ^ ^ { ^ { ^ ^ ^ ^ ^ ^ { ^ ^ ^ ^ ^ ^ ^ ^ { ~ ~ ~ ~ ~ ~ ~ { ~ ~ / / { ~ ~ ~ ~ ~ >.9. .!.~ ~ ~ ~ ~ { { { { . ",
". * ~ ~ ~ ~ ~ { { ~ ~ ~ ~ ~ ~ ~ ~ ~ ~ : / / { ~ ~ ~ ~ ~ ~ { { ~ ~ ~ ~ ~ ~ ~ { ~ ~ ~ ~ ~ ~ ~ ~ ~ { ~ ~ ~ ^ ^ ^ { ^ ^ ~ ~ ~ ~ ~ ~ ~ ~ ~ ~ ^ ^ ^ ^ { ^ ^ { ^ ^ ^ ^ ^ ^ { { ^ ^ ^ { ^ Q ~ ^ ^ ^ ^ ^ { ~ ~ ^ { ^ { ^ { { ~ ^ { ^ ^ ~ ~ ~ ~ ~ ^ ^ ^ ~ ~ ~ ~ ~ ~ ~ ~ { ^ ^ ~ ^ ^ { ~ ~ { ~ { ~ { ~ ^ { { ^ { { ^ ^ ~ ~ ^ ^ { ^ ^ ^ ~ ~ ~ ~ ~ ~ 2 ~ ~ ~ { ~ / / / ~ ^ ^ ^ ~ ~ ~ ~ ^ ^ ~ ^ { ~ { { ^ ^ ^ ^ ~ { ~ ~ ^ ^ ^ ^ ^ ^ ^ ^ { ^ { ^ ^ ^ ~ ^ ^ { ^ { ^ ^ ^ ^ ^ ^ ^ ~ ~ ~ ~ ~ ~ ~ { ~ ~ / / { { ~ ~ ~ ~ { ~ ~ ~ { ~ G ~ ~ { { { { . ",
". * { ~ ~ { ~ { ~ ~ ~ ~ ~ ~ ~ ~ ~ ~ ~ < / / { { ~ ~ ~ ~ ~ { { ~ ~ ~ ~ ~ ~ ~ { ~ { ~ ~ ~ { ~ ~ ~ { ~ ^ { ^ ^ ^ { ^ ~ ~ ~ ~ ~ ~ ~ ~ ~ [ ( ^ ~ { ~ { ~ ~ { ~ ~ ~ ~ ^ ^ ^ { ^ { ^ ^ ^ { ^ ^ ^ 5 ^ ^ { ~ ~ ~ { ^ ^ 3 { { ~ { { ~ ^ ~ ~ ~ ~ ~ ^ ^ ^ ^ ~ ~ ~ ~ ~ ~ ~ : ^ ^ ^ ^ ~ ~ ~ ~ { ~ { ~ ~ ~ ^ { ^ ^ ^ { ^ ~ ~ ~ ~ ~ [ ^ ~ ~ ^ ~ ~ ~ ~ ~ ] ~ ~ ^ ~ ^ ^ / / ~ ~ ^ ^ ^ ~ ~ { ~ ^ ^ ^ ~ { { ^ { ~ ^ { ~ { ~ ^ ^ ^ { ^ ^ ^ ^ { { ^ { ^ ~ ~ ~ ~ ^ { ^ { ^ ^ ^ ^ ~ ~ ~ ~ ~ ~ ~ ~ ~ ~ { ~ ~ : { { / { ~ ~ ~ { { ~ { { ~ G ~ ~ ~ { ~ { . ",
". * { ~ ~ { ~ : 9 0 0 0 0 0 0 0 0 c 0 0 c c 0 0 0 0 0 0 0 a 0 0 0 0 0 0 b 0 a 0 a 0 0 0 a 0 0 0 a 0 0 a 0 0 b a 0 0 0 b 0.0 0 0 0 0 d d 0 0 b a 0 0 0 a 0 0 0 a 0 0 0 0 0 a 0 0 0 a 0 0 0 0.0 0 a 0 0 0 a 0 a c c c b a a 0 0 c 0 0 0 b b b b b b 0 a 0 0 0 0 0 0 b b b 0 0 0 a 0 0 a 0 0 0 b a b b b 0 0 0 0 b 0 c d b 0 0 c 0 0 0 c c c c c 0 0 0 b b b 0 0 b b 0 0 0 a 0 b 0 0 0 a a 0 a a 0 0 b 0 0 b b b a 0 b b 0 0 a b a 0 0 0 0 b b a b 0 0 0 b 0 0 0 0 0 0 0 0 0 0 0 a 0 0 0 a a c 0 0 0 0 a a 0 a a 9 8 ~ ~ { { { ~ . ",
". * { ~ { { ~ { { e f a.i i h i i i i i i b.i i i i i i i h i i i i i i i i i i i i i i h i i i h i h h i k i h i i k k k i i i i i h i i h k h i i i i i i i h i i i h i i i i i h i i i k i h h i i i h i h i h c.j h h i i i i i k k k k k k k i h i i i i i i i k i i i i h i i h k i i k h k i i i i i i i c.j j k i c.j j c.i j j j j j i i i j j k k i i k k i i i h i i i i h h i i i i i k k k i k k h i i i i i h k h i i k k k k h k i i i h i i h i i i i i i i i h h i h h c.h i i i i h h i p g ~ G ~ { { { { { . ",
". * { ~ { { / { q r s t t t z t t t t t d.d.u t t t t t t u t t t t t t t t t d.t t t t u t t t u t u u t t t t t t t t t t t t t t u t t t u u u t t u t t t u t t t u t t x x t t u t u t t u u u t t t t t t u z z B t t t t t t t x x x x x t t u u z z t u x t x t t t t u t t u t t t x u t t x t t t t t e.d.t t t t z z C t e.z z z z x x w f.v x t t t x t t t t t t t t t x u t t t t t t x x t t t t t t t t u u t u t t t t t u u t u t t t t t t t t t u t t t t u u t t u x u t t t u u u t g.r 8 ~ ~ ~ { { { { . ",
". * { ~ { { ] { / q 8 8 8 8 M h.8 8 8 8 M M i.8 8 8 8 8 8 G 8 8 8 8 8 8 8 8 8 8 8 8 8 8 G 8 8 8 G 8 G 8 8 8 8 8 8 8 8 8 8 G 8 8 8 8 G G 8 8 8 8 8 8 8 8 8 8 8 G 8 8 8 G 8 H H H 8 8 G 8 8 8 8 8 8 G 8 8 8 8 G 8 G M 8 G 8 8 8 G 8 8 8 8 H H H 8 8 8 8 h.M M 8 G H H H 8 8 8 8 8 8 8 G 8 8 H H G 8 H H H 8 M M H 8 8 8 8 8 8 8 h.i.8 H M M G 8 8 8 H 8 8 i.i.8 G 8 H 8 8 8 G 8 8 8 G H H 8 8 G 8 8 8 8 8 8 8 8 8 8 H 8 8 8 M M G 8 8 8 8 8 8 G 8 8 8 8 8 8 8 8 8 8 8 G 8 8 8 8 G G 8 8 G 8 H 8 8 8 G G 8 8 G 8 ~ ~ ~ ~ { { { { . ",
"  * { ~ ~ { ~ { : < } ~ ~ { / } ] ~ ~ ~ ~ : / ~ ~ ~ { ~ ~ { ~ ~ ~ ~ ~ ~ ~ ~ ~ ~ ~ ~ ~ ~ { ~ ~ ~ { ~ { ~ ~ { ~ ~ ~ ~ ~ ~ ~ { ~ ~ ~ ~ { { ~ ~ ~ ~ ~ ~ ~ ~ ~ { ~ { ~ ~ ~ { ~ ^ ^ { ~ : { ~ ~ ~ ~ ~ ~ ~ ~ ~ ~ ~ { / { { ~ { ~ ~ ~ ~ ~ ~ ~ ~ ~ ^ ~ ~ ~ ~ { ~ 4 / ~ ~ ^ 7 S ~ ~ ~ ~ ~ ^ { { { ~ ^ ~ { ~ ^ ~ ~ ~ ~ ] ~ ~ ~ ~ ^ ~ ~ ~ ~ ~ ~ { { / ^ ~ ~ 6 ^ ~ ~ { { ~ { ~ { ~ ~ ~ ~ ~ ~ ~ { ^ ~ ~ ~ { ~ ~ ~ ~ ~ ~ ~ ~ ~ ~ ~ ~ ~ { / / { ~ ~ ~ ~ ~ ~ { ~ ^ ^ ~ ~ ~ ~ ~ ~ ~ ~ { ~ ~ ~ ~ ~ ~ ~ { { ~ ~ ~ ~ ~ { { ~ ~ { ~ ~ ~ ~ ~ ~ { { { . ",
"  * { : / { / { { ~ : < ~ / ~ ~ ~ ~ ~ ~ ~ : ~ ~ ~ ~ { ~ ~ { ~ ~ ~ ~ ~ ~ ~ ~ ~ ~ ~ ~ ~ { { ~ ~ ^ ~ ~ { ~ ~ { { ~ ~ ~ ~ ~ ~ { ~ ~ ~ ~ { ~ ~ ~ ~ ~ { ~ { { ~ { ~ { ~ ~ { ~ { ~ ~ { { ] { ~ ~ ~ ~ ~ { { ~ ~ ~ ~ { / { { ~ { ~ ] < ~ ~ ~ ~ ~ ~ ~ ~ ~ ~ ~ ^ ^ ^ / ~ { 2 ^ ~ : { ~ ^ S / / { { ~ ^ ~ { ~ ~ ~ { ~ ~ ~ ~ ~ ~ ~ ^ ^ ~ ~ ~ ~ ~ ~ ~ ~ ^ ^ { < ^ ^ / ~ { ^ ^ ~ { ~ / ~ ~ ~ ~ ~ { ^ ^ ~ ~ ~ ~ ~ ~ ~ ~ ~ { { ~ ~ ~ ~ { { ~ _ { ~ ~ ~ ~ ~ ~ { ~ { ~ ~ ~ ~ ~ ~ ~ ~ ~ ~ ~ ~ ~ ^ ~ ~ ~ ~ { < ~ ~ ~ ~ { { ~ ~ { ~ ~ ~ ~ ~ ~ { { { . ",
". & ~ ~ / / / { ] ~ ~ ~ ~ / { ~ ~ ~ ~ ~ ~ { ~ ~ ~ ~ { ~ ~ { ~ ~ ~ ~ ~ ~ ~ ~ ~ ~ ~ ~ ~ { ] / < ~ ~ ~ { ~ ~ ~ ~ ~ ~ ~ ~ ~ ~ ~ < ~ ~ ~ { ~ ~ ~ ~ ~ { ~ { ~ ~ { / { ~ { { { { ~ ~ { { ~ ] ~ ~ ~ ~ { ] ~ ~ ~ ~ ^ { / { { ~ { ~ ~ ~ ~ { ~ ~ ~ ~ ~ ~ ~ ~ ~ ~ ~ ^ ^ ~ { ~ ^ 7 ~ { ] { ^ ^ / { { ~ ~ ~ { ~ ~ ~ { / / / < ~ ~ ~ ^ ^ ~ ^ ^ ~ ^ ^ ~ ~ ~ ~ ^ ~ ~ ^ ^ { ^ ^ ^ ~ { / / ^ ^ ^ ~ ~ { ^ ~ ~ { { ~ ~ ~ ~ ~ ~ ~ { { { / / / { ~ ~ ~ / / ~ ~ ~ ~ { ~ { ~ ~ { / ~ ~ ~ ~ ~ ~ ~ ~ ~ ~ ^ ^ ^ T { / / ~ ~ ~ ~ ~ ~ ~ ~ ~ ~ ~ ~ ~ ~ { { {   ",
"  * ~ ~ / / / / { ~ ~ ~ ~ ~ ~ ~ ~ ~ ~ ~ ~ { ~ ~ ~ ~ ~ ~ ~ { ~ ~ ~ ~ ~ ~ ~ ~ ~ ~ ~ ~ ~ { / / / { { / ~ ~ ~ ~ ~ ~ ~ ~ ~ ~ ~ ~ ~ ~ ~ ~ ~ ~ ~ ~ { ~ { ~ ~ ~ ~ / { ~ ~ { { { { ~ { { { ~ { ~ ~ ~ ~ { / { ~ ~ ~ ~ { / { { ~ ~ ~ ~ ~ ~ { ~ ~ ~ ~ ~ ~ ~ ~ ~ ~ { ^ ~ ~ { ~ ^ ^ ~ < / { ^ { { { ~ ~ ~ ~ { ~ ^ ~ { / / / ~ ~ ~ ~ ~ ^ ~ ~ ^ ~ ~ ^ ^ ~ ~ ^ ^ ~ ~ ^ ^ { ^ ^ ^ ~ { { { ^ ^ { ~ ~ { ^ { ~ { { ~ ~ ~ ~ ~ ~ ~ { { { ~ / / { ~ ~ { / ~ ~ ~ ~ { { ~ ~ ~ ~ ~ ~ } ~ ~ ~ ~ ~ ~ ~ ~ / ~ ^ / { { < / ~ ~ ~ ~ ~ { ~ { ~ ~ ~ ~ ~ { { { {   ",
". * { ~ ~ / / { < ~ ~ ~ ~ ~ ~ ~ ~ ~ ~ ~ ~ ~ ~ ~ ~ ~ ~ ~ ~ { ~ ~ ~ ~ ~ ~ ~ ~ ~ ~ ~ ~ ~ / / / / : { { { ~ ~ ~ ~ ~ ~ ~ ~ ~ ~ ~ ~ ~ ~ ~ ~ ~ ~ ~ { ~ ~ ~ ~ ~ { ~ { ~ ~ ~ ~ { { ~ ~ { { ~ { ~ ~ ^ ~ ~ ~ < ~ ~ ~ { / : { { { ~ ~ ~ / ~ ~ ~ ~ ~ ~ ~ ~ ~ ~ ~ { { ~ ~ { { ~ ^ / / { / ^ ^ { { { ~ ~ ~ ~ { ~ ~ { { / / / ~ ~ ~ ~ ~ ^ ~ ~ ~ ~ ~ ^ ^ ~ ^ ^ ^ ^ ~ ^ ^ { ~ { ^ ^ { / { ^ { ~ ~ ~ { ~ { ~ { { ~ { ~ ~ ~ ~ ~ { { { ~ ~ : / ~ ~ ~ ~ ~ ~ ~ ~ ~ ~ ~ ~ ~ ~ ~ ~ ~ / ~ ~ ~ ~ ~ ~ ~ ] ~ ^ < { { { ~ ~ ~ < ] ~ { ~ { ~ ~ ~ ~ ~ { { { {   ",
"  * ~ { < / / { < ~ ~ ~ ~ ~ { / ~ ~ ~ ~ < ~ ~ ~ ~ { ~ ~ ~ { ~ ~ ~ ~ ~ ~ ~ ~ ~ ~ ~ ~ ~ ] { / / ~ { ~ { ~ ~ ~ ~ ~ ~ ~ ~ ~ ~ ~ ~ ~ ~ ~ { ~ ~ ~ { ~ ~ ~ ~ ~ { { { ~ { ~ ~ ~ { ~ { ~ ~ ~ { ~ { ~ ~ ~ { ~ < { / { / / { { ~ ~ ~ ~ / ~ ~ ~ ~ ~ ~ ~ ~ ~ ~ ~ { ~ ~ ~ { { ~ ~ / / { 4 / ~ { { { ~ ~ ~ ~ { ~ ~ ~ ~ ~ } / ~ ~ ~ ~ ~ ^ ~ ~ ~ ~ ~ ~ ~ ~ ~ ~ ^ ^ ^ ^ ^ { ~ { ~ { { ^ { ~ ^ ^ ~ ~ { { { ^ ~ ~ ~ { ~ ~ ~ ~ ~ { ~ ~ ~ ~ ~ ~ ~ ~ { ~ ~ ~ ~ ~ ~ ~ ~ { ~ ~ ~ ~ ~ ~ / ~ ~ ~ { ~ ~ ~ ~ ~ { { { ~ ~ ~ ~ ~ ~ ~ { ~ { ~ ~ ~ ~ ~ ~ { { { . ",
". > ~ ~ ~ ~ ~ { ~ ~ ~ ~ ~ ~ ~ ~ ~ ~ ~ ^ ~ ~ ~ ~ ~ { ~ ~ ~ { ~ ~ ~ ~ ~ ~ ~ ~ ~ ~ < ~ { / { ~ ~ ~ { ^ ~ ~ ~ ~ ~ ~ ~ ~ ~ ~ ~ ~ ~ ~ ~ ~ { ~ ~ ~ { ~ ~ ~ ~ ~ { { ~ ~ ~ ~ ^ ~ { ~ { ~ ~ ~ { ~ ~ ~ ~ ~ { ~ : ] / { / _ { { ~ ~ ^ ~ / ~ ~ ~ ~ ~ ~ ~ ~ ~ ~ ~ { ~ ~ ~ { { { ~ < [.{ / / { { { { ~ ~ ~ ~ { ~ ~ { ~ ~ ~ / ~ ~ ~ ~ ~ ~ ~ ~ ~ ~ ~ ~ ~ ~ ~ ~ ~ { ^ ^ ^ { ~ { ~ { { { ^ ~ { ^ ~ ~ { { { ^ { ~ ~ { ~ ~ ~ ~ ~ { ~ ~ ~ ~ ~ ~ ~ ~ { ~ ~ ~ ~ ~ ~ ~ { { ~ ~ ~ ~ ~ ~ ~ ~ ~ ~ { ~ ~ ^ ~ ~ { { { ~ ~ ~ ~ ~ { { { / { _ ~ ~ ~ ~ { { { { . ",
". * ~ ~ ~ ~ ~ { ~ ~ ~ ~ ~ ~ ~ ~ ~ ~ ~ ~ ~ { / ~ ~ ~ ~ ~ ~ { ~ ~ ~ ~ ~ ~ ~ ~ ~ ~ ~ ~ { ~ { ~ ~ ~ { ~ { ~ ~ ~ ~ ~ ~ ~ ~ ~ ~ ~ ~ ~ ~ ~ { ~ ~ ~ { ~ ~ ~ ~ ~ ~ ~ ~ ~ ~ ~ ^ ~ ~ ~ { ~ ~ ~ ~ ~ ~ ~ ~ ~ { { ~ ~ : { ~ { { { ~ ~ ~ { { ~ ~ ~ ~ ~ ~ ~ ~ ~ ~ ~ ~ ~ ~ { { { { ~ ^ ^ { ~ ^ { ~ ~ { ~ { ~ ~ { ~ ~ ~ ~ ~ ~ ~ ~ ~ ~ ~ ~ ~ ~ ~ ~ ~ ~ ~ ~ ~ ~ ~ ~ < / / ^ ~ < { ~ { { { ~ ~ { ~ ^ ~ { { { ~ { ~ ~ ~ ~ ~ ~ ~ ~ { ~ ~ ~ ~ ~ ~ ~ ~ { ~ ~ ~ ~ ~ { { { { ~ ~ ~ ~ ~ ~ ~ ~ ~ ~ { ~ ~ ^ ~ ~ { { { ~ ~ ~ ~ ~ ~ { { / { ~ ~ ~ ~ { { { { { . ",
". * { { ~ ~ ~ { ~ ~ ~ ~ ~ { / / ~ ~ ~ ^ ^ { ~ ~ ~ ~ ~ { ~ { ~ ~ ~ ~ ~ ~ ~ ~ ~ ~ ~ ~ { ~ { ~ ~ ~ { ~ { ~ { ~ { { ~ ~ ~ ~ ~ ~ ~ ~ ~ ~ { ~ { ~ ~ ~ ~ ~ ~ ~ ~ { ~ ~ ~ { ~ ~ { ~ ~ _ ~ ~ ~ ~ ~ ~ ~ { { { ~ ~ ~ { ~ { { { ~ { ~ ~ ~ ~ ~ ~ ~ ~ ~ ~ ~ ~ ~ ~ ~ ~ ~ ~ { { { ~ ~ ^ { ~ ^ ~ ~ { { ~ ~ ~ ~ { ~ ~ ~ ~ ~ ^ ~ ~ ~ ~ ~ ~ ~ ~ ~ ~ ~ ~ ~ ~ ~ ~ ~ : / / / / / ~ { ~ ^ { ^ ^ ~ ~ ^ ^ ~ { { { ~ { ~ ~ ~ ~ ~ ~ ~ ~ { ~ ~ ~ ~ ~ ~ ~ ~ { ~ ~ ~ ~ ~ { { ~ ~ ~ ~ ~ ~ ~ ~ ~ ~ ~ ~ ~ ~ ~ ~ ~ ~ { { { ~ ~ ~ ~ ~ ~ { / : { ~ ~ ~ ~ { { { { ~   ",
"  . .   @ @   .             @ @     .     .               .                         .   .       .   . #     @                       .   .         .     . .     % .     .             .       . # @       .   . . .   . +                           .       . .       % . % %       .                                 %             % % % %     + @ @ j.  % .   % . .           . .       .   .             .           .             $ @                                       #                   . @   .     + # . .   . .   "};
