/* XPM */
static char * Wall_South_xpm[] = {
"256 256 144 2",
"  	c #304F65",
". 	c #315065",
"+ 	c #335363",
"@ 	c #345363",
"# 	c #335264",
"$ 	c #325164",
"% 	c #35586E",
"& 	c #537389",
"* 	c #527289",
"= 	c #567787",
"- 	c #577B93",
"; 	c #547488",
"> 	c #557687",
", 	c #537388",
"' 	c #56788C",
") 	c #557688",
"! 	c #547588",
"~ 	c #395E78",
"{ 	c #3A5F78",
"] 	c #3D6276",
"^ 	c #3F6883",
"/ 	c #3E6376",
"( 	c #3F6781",
"_ 	c #3A5F77",
": 	c #3C6177",
"< 	c #3B6077",
"[ 	c #3F667D",
"} 	c #3D6277",
"| 	c #3E6377",
"1 	c #3F6882",
"2 	c #3F6780",
"3 	c #3E657B",
"4 	c #3E6479",
"5 	c #3F667E",
"6 	c #3F677F",
"7 	c #3E657C",
"8 	c #3F667F",
"9 	c #3E6477",
"0 	c #3E647A",
"a 	c #3E657A",
"b 	c #3E6478",
"c 	c #3F6782",
"d 	c #2F4D61",
"e 	c #335469",
"f 	c #335368",
"g 	c #32505F",
"h 	c #335468",
"i 	c #325268",
"j 	c #233948",
"k 	c #263E4E",
"l 	c #263D4C",
"m 	c #253B46",
"n 	c #253C4A",
"o 	c #325060",
"p 	c #253C48",
"q 	c #668297",
"r 	c #507188",
"s 	c #496B83",
"t 	c #416A84",
"u 	c #426A85",
"v 	c #466D88",
"w 	c #557A91",
"x 	c #486F89",
"y 	c #426B85",
"z 	c #4A718A",
"A 	c #4B718B",
"B 	c #466E88",
"C 	c #4F758D",
"D 	c #517188",
"E 	c #42657E",
"F 	c #44677F",
"G 	c #40647D",
"H 	c #43667F",
"I 	c #446C86",
"J 	c #41657E",
"K 	c #456880",
"L 	c #4D6B7F",
"M 	c #1D2F3C",
"N 	c #314452",
"O 	c #223848",
"P 	c #3F5463",
"Q 	c #2A4151",
"R 	c #2A4457",
"S 	c #476276",
"T 	c #315168",
"U 	c #2E4C61",
"V 	c #4B728B",
"W 	c #2B4659",
"X 	c #476E88",
"Y 	c #547891",
"Z 	c #3C617A",
"` 	c #3D627A",
" .	c #416A85",
"..	c #416984",
"+.	c #52778F",
"@.	c #476F88",
"#.	c #3F637C",
"$.	c #456C87",
"%.	c #456D87",
"&.	c #54778A",
"*.	c #345466",
"=.	c #547586",
"-.	c #263E4D",
";.	c #35576C",
">.	c #253C49",
",.	c #4A6D7F",
"'.	c #4F748D",
").	c #547688",
"!.	c #49708A",
"~.	c #263D4B",
"{.	c #345465",
"].	c #325160",
"^.	c #42667E",
"/.	c #4D738C",
"(.	c #51768F",
"_.	c #3E627B",
":.	c #4E748D",
"<.	c #325161",
"[.	c #466A7C",
"}.	c #55798F",
"|.	c #55788C",
"1.	c #325163",
"2.	c #335265",
"3.	c #4A6F83",
"4.	c #4B6F80",
"5.	c #44677A",
"6.	c #426679",
"7.	c #466C86",
"8.	c #4C728B",
"9.	c #43677A",
"0.	c #496C7E",
"a.	c #507283",
"b.	c #486D83",
"c.	c #4F758E",
"d.	c #557991",
"e.	c #51768E",
"f.	c #4A708A",
"g.	c #50758E",
"h.	c #497089",
"i.	c #4E6F86",
"j.	c #4E738C",
"k.	c #263D4D",
"l.	c #325162",
"m.	c #345569",
"  . . . + @   .               # #   .     .               .                         .   .                 $ @ @ @ @ .               .             .     . .       .     .       .     @ + % %   @   + @ @ .   . . .   .               .             .       . .         % % % + + . .                       @ @ @     % %   .     . %   % % %   .   % % % %       . %   .       . . .     .   .             .                         @ @ # .                                 .   .                       .   . @ @ . @ . . . . ",
"  & & & * = * & * * * * * * * * * * * * * * * - * * * * * & * * * * * * * * * * * * & * * * * * * * * * * * * * * * * * * * * * * * * * * * * * * * * * & & * * * * * * & * & * & * * * * - - * * * = ; > * * & & & * & * * * * * * * * * * * * * * & * * * & * * * * * & * * , ; * * * * * * * * * * * * * = = > * * * * * & * - - - * * - - & & - - - - - - ' ' & - * & & * * & & & * * & * & * * * * * * & * * * * * * * * * * * & = = = = * * * * * * * * * * * * * * * , * * = = = = * * * * & * * * & ) ; ! = & & & & & . ",
"  & ~ ~ ~ ~ ~ { ~ ~ ~ ~ ~ ~ ~ ~ ~ ~ ~ ~ ~ ~ ~ ~ ~ ~ ~ ~ ~ ~ ~ ~ ~ ~ ~ ~ ~ ~ ~ ~ ~ ~ ~ ~ ~ ~ ] ~ ~ ~ ~ ~ ~ { ~ ~ ~ ~ ~ ~ ~ ~ ~ ~ ~ ~ ~ ~ ~ ~ ~ ~ ~ ~ ~ ~ ~ { ^ ^ ~ ~ ~ ~ { ~ ~ ~ { ~ ~ ~ ~ ~ ^ ~ { ^ ~ { ~ ~ ~ { { { ~ ~ ~ ~ ~ ~ ~ ~ ~ ~ ~ ~ ~ { ~ ~ { ~ ~ ~ ~ ~ ] ~ / / { ^ ~ ~ ~ { ~ ~ ^ ^ ~ ~ { ^ { ^ ^ ^ ^ ~ ~ ~ ~ ~ ~ ~ / ~ ^ ^ ^ ~ ~ ^ ~ { ~ ~ ^ ^ ^ ^ ( / { { / ~ { { ^ ~ { { { ~ ~ { ^ ^ ~ ~ ^ ^ ^ ^ { ^ ^ ^ ^ ^ ^ ^ ^ { ~ _ : / / ] ~ ~ ~ ~ { ~ ~ ~ ~ ~ ~ ~ ~ ~ ~ ~ ~ ~ ~ ~ ~ / { ~ ~ ~ ~ { { { < { / : { / { { { { { . ",
"  & ~ ~ ~ ~ ~ { ~ ~ ~ ~ ~ ~ ~ ~ ~ ~ ~ ~ ~ ~ ~ ~ ~ ~ ~ ~ ~ ~ ~ ~ ~ ~ ~ ~ ~ ~ ~ ~ ~ ~ { ~ ~ ~ ~ ~ ~ ~ ~ ~ ~ ~ ~ : / ~ ~ ~ ~ ~ ~ ~ ~ ~ ~ ~ { ~ ~ ~ ~ ~ ~ ~ ~ { ^ ^ ~ ~ ~ { { ~ { ~ { ~ ~ ~ ~ ~ ~ ~ { { ~ ~ ~ ~ ^ { ^ ~ ~ ~ ~ ~ ~ ~ ~ ~ ~ ~ ~ ~ ~ { ~ { { ~ ~ ~ ~ ^ / / / / { ~ / { / { / : ~ ^ ^ ~ { ~ { ^ ^ ^ ^ ~ ~ ~ ^ ^ / / / ~ ~ ^ ^ ^ ^ { ^ { ~ ~ ~ ~ ~ ~ < ] / { / ~ { { ~ ~ { { { ~ ~ { ^ ^ ~ ~ ^ ^ ^ ^ { { ^ ^ ^ ^ ^ ^ ~ { ~ { ( [ ^ ^ ^ ^ ^ ~ ~ ~ ~ ~ ~ ~ ~ ~ ~ ~ ~ ~ ~ ~ ^ ~ ~ ~ ~ ~ ~ ~ ~ { { { ~ { / / { ~ { ~ { { { . ",
"  & ~ ~ ~ ~ ~ { ~ ~ ~ ~ ~ ~ ~ ~ ~ ~ ~ ~ ~ } ~ ~ ~ ~ ~ ~ ~ ~ ~ ~ ~ ~ ~ ~ ~ ~ ~ { ~ ~ { ~ { ~ ~ < ~ ~ ~ ~ ~ ~ / ~ ~ ~ ~ ~ ~ ~ ~ ~ ~ ~ ~ ~ { ~ ~ ~ ~ ~ ~ ~ ~ ~ ^ ~ ~ ~ ~ ~ { ~ ~ ~ ~ ~ ~ ~ ~ ~ ~ ^ ~ ~ ~ ~ ~ ~ ^ ^ ~ ~ ~ ~ ~ ~ ~ ~ ~ ~ ~ ~ ~ ~ ~ ~ ~ ~ { ~ ~ ^ ~ | / / / / { { / / ~ ~ { / ~ ~ ^ ^ ~ ~ { ~ ~ ^ ^ ~ ~ ~ ^ ^ < / { ~ ~ ^ ~ ^ ~ { ~ { ~ ~ ~ ~ ~ ~ ~ ~ { ~ ~ ~ ~ { ~ ~ { { / : ^ { ^ ~ ~ ^ ^ ^ ^ ^ ^ { ^ ^ ^ ^ ^ ^ ~ { ~ 1 ^ ^ ^ 2 ^ ^ ^ { ^ ^ ~ ~ ~ ~ ~ ~ ~ ~ ~ ~ ~ ~ ^ ~ ~ ~ ~ ~ ~ ~ { { { ~ ~ { / < ~ ~ ~ ~ { { { . ",
"  & ~ ~ { ~ ~ { ~ ~ ~ ~ ~ ~ ~ ~ { ~ ~ ~ ~ { ^ ~ ~ ~ ~ ~ ~ ~ ~ ~ ~ ~ ^ ^ ^ ^ ^ ^ ( ^ { ^ { ^ ^ ~ ^ ^ ^ ^ ^ ^ ^ [ ^ ~ ~ ~ ~ ~ ~ ~ ~ ~ ~ ~ { ~ ~ ~ ~ ~ ~ ^ ^ { ^ ^ ~ { ~ ~ { ~ ~ ~ ~ ~ ~ ~ ~ ~ ~ ^ ^ ~ ~ ^ ^ ^ ^ ^ ~ ~ ^ ~ ~ ~ ~ ~ ~ ~ ~ ~ ~ ~ ~ ~ ~ ~ { ~ ^ ^ ^ ^ / / / 3 ^ { ^ / ~ ~ { { ~ ~ ^ ^ ^ ^ { ^ ^ ^ ^ ^ ^ ^ ^ ~ ~ ~ ^ { ^ { ~ ~ ~ { ~ { ~ ~ ~ ~ ~ ~ ~ ~ { ~ ~ ~ { { ] { { { ~ ~ ^ { ^ ~ ~ ^ ^ ^ ^ { ^ { ^ ^ ^ { ^ ^ ~ ~ ^ ^ ^ ^ ^ 1 ^ ^ ~ ^ ^ ^ ^ { ~ ~ ~ ~ ~ ~ ~ ~ ~ ~ ~ ~ ~ ~ ~ ~ ~ ~ ~ { { ~ ~ ~ ~ ~ ~ ~ { : { { ~ . ",
"  & { ~ { ~ ~ { ~ ~ ~ ~ ~ ~ ~ ~ ~ ~ ~ ~ { { ~ ~ ~ ~ ~ ~ ~ { ^ ~ ~ ~ ^ ^ ^ ^ ^ ^ ^ 2 { ^ { 4 ^ ^ ^ 5 ^ ^ ^ ^ ^ ^ ^ ^ ~ ~ ~ ~ ~ ~ ~ ~ ~ ~ { ~ ~ ~ ~ ~ ~ ~ ~ { ~ ~ { ~ ~ ~ ~ ~ ~ ~ ~ ~ ~ ~ ~ ~ ~ ~ ^ ^ ~ ^ ^ { ^ ^ { ~ ~ ~ ~ ~ ~ ~ ~ ~ ~ ~ ~ ~ ~ ~ ^ ^ ~ ~ ~ { { ^ ^ ^ } ^ ^ { ^ ^ ~ { { ~ ^ ^ ^ ^ ^ ^ { ^ ^ ^ ^ ^ ^ ^ ~ ~ ~ ^ ^ ^ ^ { ~ ~ ~ { ~ { ~ ~ ~ ~ ~ ~ ~ ~ { ~ ~ ~ { { / { { { ~ ~ ^ { ^ ^ ^ ^ ~ ~ ^ { ^ ^ ^ ~ ^ { ^ ^ ^ ^ ^ ^ ~ ~ { { 3 ^ ~ ^ ^ ^ ^ { ^ ~ ~ ~ ~ ~ ~ ~ ~ ~ ~ ~ ~ ~ ~ ~ ~ ~ ~ < { ~ ~ ~ ~ ~ / / / / ] { ~ . ",
"  & { ~ { ~ ~ ~ ~ ~ ~ ~ ~ ~ ~ ~ ~ ~ ~ ~ { { ~ ~ ~ ~ ~ ~ ~ ^ ^ ~ ~ ~ ~ ~ ~ ^ ^ ^ ^ ^ { ^ ^ / [ ^ ^ ^ ^ ^ ^ { { ^ 1 ^ ^ ^ ^ ^ ^ { ~ ~ ~ { ~ { { ~ ~ ~ ~ ~ ~ ~ ~ ^ { ^ ~ ~ ~ { ~ ~ ~ ~ ~ ~ ~ ~ ~ ^ ^ ^ ^ ^ ^ { ^ ^ ^ { ~ ~ ~ ~ ~ ~ ~ ~ ~ ~ ~ ~ ~ ~ ~ ^ ^ ~ ~ ~ { ^ ^ ^ < ~ ^ { ^ { ~ { { ^ ^ ~ ^ { { ^ { ^ ^ ^ < ^ ^ ^ ^ ~ ~ ~ ^ ^ ^ { ~ ~ ~ ~ ~ { ~ ~ ~ ~ ~ ~ ~ : { { ~ ~ { ~ ~ { ~ ~ ~ ^ ^ { ^ ^ ^ ~ ~ ^ ^ ^ ^ ^ ^ ~ ~ ~ ~ ^ ^ ^ ^ ^ ~ ^ { { / [ < ~ ^ ^ ^ ^ ^ ^ ~ ~ ~ ~ ~ ~ ~ ~ ~ ~ { ~ ~ ~ ~ ~ ~ ~ { ^ ~ { ~ ~ : / ~ { { { { . ",
"  & { ~ ~ ~ ~ { ~ ~ ~ ~ ~ ~ ~ ~ ~ ~ ~ ~ { { ~ ~ ~ ~ ~ ~ ~ ~ ~ ~ ~ ~ ~ ^ ^ ^ ^ ^ ^ ^ { ^ / 4 / ^ ^ ^ ^ ^ ^ { { ^ / ^ ^ ^ ^ ^ 1 _ ~ < ~ ~ ~ ~ { ~ ~ ~ ~ ^ { { ^ ^ ^ { ~ { ~ { ~ ~ ~ { ~ ~ ~ { ^ ^ { ^ ^ ^ ^ { { ^ ^ ~ ^ ~ ~ ~ ~ ~ ~ ~ ~ ^ ^ ^ ~ ~ ~ ^ ^ ^ ~ ^ { { ^ ^ / { / / / { { { { ^ ^ 1 ^ { { ^ { ^ ~ ~ ~ ^ ^ ^ ^ ^ ^ ^ ^ ^ ^ ~ ~ ~ ~ ~ ~ { ~ ~ ~ ~ ~ ~ ~ ~ ~ ~ ~ ~ ~ ~ ~ ~ ~ ~ { ^ { { ^ ^ ~ ~ { ^ ^ { ^ ^ ^ ~ ~ ~ ^ ^ ^ ^ ^ ^ ^ ^ { { ^ ~ ~ { ^ ^ ~ ~ ^ ^ ^ ~ ~ ~ ~ ~ ~ ~ ~ ~ { ~ ~ ~ ~ ~ ~ ~ ~ ^ ~ { ~ ~ : ~ { ~ { { ~ . ",
"  & { ~ ~ ~ ~ { ~ ~ ~ ~ ~ ~ ~ ~ ~ ~ ~ ~ ~ ~ ~ ~ ~ ~ ^ ^ ~ ^ ^ ~ ~ ~ ~ ^ ^ ^ ^ ^ ^ { { ^ / / / ^ ^ ^ ^ ^ ^ { { ^ ( 6 ^ ^ ^ ^ ^ ~ ~ { ~ ~ ~ ~ ~ ~ ~ ~ ^ ^ { ^ ^ ^ ^ ^ ~ { ~ { ~ ~ ~ { ^ ^ ^ { ^ { { ^ ^ ^ ^ { ^ { ^ ^ ~ ~ ~ ~ ~ ~ ~ ~ ~ ~ ^ ^ ^ ~ ~ ~ ~ ^ ~ ~ { ^ ^ [ / { / { / { / { { 2 ^ 7 ^ { { ^ { { ^ ^ ^ ^ ~ ^ ^ ^ ^ ^ ^ ~ ~ ~ ~ ~ ^ ~ ~ ~ ~ ~ ~ ~ ~ ~ ~ ~ ~ ~ ~ < : ~ ^ ~ ~ ~ { ^ { { ^ ^ ~ ~ ^ ^ ^ { ^ ^ ^ ~ ~ ~ ^ ^ ^ ^ ^ ^ ^ ^ { { { ~ { { ^ ^ ^ ^ ^ ^ ^ ^ ~ ~ ~ ^ ~ ~ ~ ^ { ~ ~ ~ ~ ~ { ~ { ~ ~ { ~ ~ ~ ~ { { { { ~ . ",
"  & { { ~ ~ ~ { ~ ~ ~ ~ ~ ~ ~ ~ ~ { ~ ^ ~ ~ ~ ~ ~ ~ ^ ^ ^ ^ ^ ~ ~ ~ ~ ~ ^ ^ ^ ^ ^ ^ ^ 2 5 / / ^ ^ ^ ^ ^ ^ ^ ^ ^ ^ ^ ^ ^ ^ ^ ^ ^ ~ ^ ~ ~ { { { { ~ { ^ ^ ^ ^ ^ ^ ~ ^ ^ ^ ~ { { ~ ^ ^ ^ ^ ^ ^ ^ ^ ^ ^ [ ^ ^ { ^ { { ^ ~ ~ ~ ~ ~ ~ ~ ~ ~ ~ ^ ^ ^ ~ ~ ~ ^ ^ ~ ~ { ^ ^ ^ 2 / / { / { { { / / / / ^ { ^ ^ { { { ^ ^ ^ ^ ^ ^ ^ ^ ^ { ~ ~ ~ ~ ^ ^ ~ ~ ~ ~ ~ ~ ~ ~ ~ ~ ~ { { ~ < < ~ / ^ { ^ { ~ ^ { ^ ^ ~ ^ ^ ^ ^ { ~ ^ ^ ^ ~ ^ ^ ^ ^ ^ ^ ^ ^ ^ { } { ~ { { ^ ^ ^ ^ ^ ^ ^ ^ ~ ~ ~ ^ ^ ~ ~ ^ { ~ ~ ~ ~ ~ { ~ { ~ ~ { ~ ~ ~ { { { { { ~ . ",
"  * { { { ~ ~ { ~ ~ ~ ~ ~ ~ ~ ~ ~ ~ ^ ~ ~ ~ ~ ~ ~ ~ ^ ^ ^ ^ ^ ^ ^ ~ ~ ~ ^ ^ ^ ^ ^ ^ ^ ^ ^ 4 / ^ ^ ^ ^ ^ ^ ^ ^ ^ ^ ^ ^ ^ ^ ^ ^ ^ ~ ^ ^ ~ { { { { ^ ^ ^ ^ { { ^ ^ ^ ^ ^ ^ ^ ~ { ^ { ^ ^ ^ ^ { ^ ^ ^ ^ ^ ^ ^ { ^ { { ^ ~ ^ ~ ~ ~ ~ ~ ~ ~ ~ ^ ~ ~ ~ ~ ~ ~ ~ ^ ~ ~ ^ ^ ^ ^ ^ / { { { / ] { / / / ^ { ^ ^ { { { ^ ^ ^ ~ ^ ~ ~ ] / / ~ ~ ~ ~ ^ ~ ~ ~ ~ ~ ~ ^ { ~ { ~ ~ { { ~ { < ^ / < { { { ~ { { ^ ^ ^ ^ ^ ^ ^ { ~ ~ ^ ^ ^ ^ ^ ^ ^ ^ ^ ^ ^ ^ { / { ^ ^ { { ^ ^ ^ ^ ^ ^ ^ ^ ^ ^ ^ ^ ^ ~ ~ ~ ~ ~ ~ ~ ~ { ~ { ~ ~ { ~ ~ ~ ~ { { { { ~ . ",
"  * { { { ~ ~ { ~ ~ ~ ~ { ~ ~ ~ ~ ~ ~ ~ ~ ~ { ~ ~ ~ ^ ^ ^ ^ ^ ^ ^ ^ ~ ~ ^ ^ ^ ^ ^ ^ { ^ ^ ^ ^ ^ ^ ^ { ^ ^ ^ ^ ^ ^ ^ ^ ~ ^ ^ ^ ^ ^ ^ ^ ~ { { { { ^ ^ ^ { { { ^ ^ ^ ^ ^ ^ ^ ~ { ^ { ~ ^ ^ ^ { ^ { ^ ^ ^ ^ ^ { ^ { { ^ ^ ~ ~ ~ ~ ~ ~ ~ ~ ~ ^ ^ ^ ^ ^ ^ ~ ~ ^ ^ ~ ^ ^ ^ ^ ^ { { { { { / / / / / 8 ^ ^ ^ { ^ { ^ ^ ^ ~ ^ ^ ~ ~ / / / ^ ~ ~ ~ ~ ~ { ~ ~ ~ ^ { ~ { ~ ~ { { { ~ / / / { { { { { { { / ^ ^ ^ 6 ^ ^ ^ ~ ~ ^ ^ ^ { ^ ^ ^ ^ ^ ^ ^ ~ { : ~ ^ ^ { { ^ ^ ^ ^ ^ { ^ ^ ^ ^ ^ ^ ^ ^ ~ ~ ~ ~ ~ ~ ~ ~ ~ { ~ ~ ~ ~ ~ ~ ~ { { { { ~ . ",
"  & { { ~ ~ ~ ~ ~ ~ ~ ~ { ~ ~ { ~ ~ ~ ~ ~ ~ ] ~ ~ ~ ~ ^ 9 ~ / ^ ^ ^ ^ ^ ^ ^ ^ ^ ^ ^ ^ ^ ^ ^ ^ ^ ^ ^ { ^ { ^ ^ ^ ~ ^ ^ ^ ^ ^ ^ ^ ^ { ^ ~ { { ^ { ^ ^ ^ { { ^ ^ ^ ^ ^ ^ { ^ ~ ~ ^ { ^ ^ ^ ^ ^ ^ ^ ^ ^ { { ^ { ^ { { ^ ^ ~ ~ ~ ^ ^ ^ ~ ~ ^ ^ ^ ^ ^ ^ ^ ^ ^ ^ ^ ^ ^ ^ ^ ^ / { / { / { { / 3 / / ^ ^ ^ ^ { ^ ^ ^ ^ ~ ~ ^ ^ ^ ^ { / ( ^ { ^ ~ ~ ~ ~ ~ ~ ~ ~ { ~ ~ ~ ~ { { ~ ~ / / / ^ { { { / { { / / | ^ ^ ^ ^ ^ ^ ^ ^ ^ ^ ^ ^ ^ ^ ^ 9 ^ ~ ~ { 7 ^ ^ { { { 0 [ 2 ^ ^ { ^ ^ ^ ^ ^ ^ ^ ^ ^ ^ ~ ~ ~ ~ ~ { ~ { ~ ~ { ~ ~ ~ ~ { { { { < . ",
"  & { { ~ ~ ~ ~ ~ ~ ~ ~ ~ ~ ~ { ~ ~ ~ ~ ~ ~ ~ ~ ~ ~ ~ ( [ ~ 2 ^ ^ 1 ^ ~ ^ ^ ^ ^ ^ ^ ^ ^ ^ ^ ^ ^ ~ ^ ^ ^ { [ ^ ^ ^ ^ ^ ^ ^ ^ ^ ^ ^ ^ ^ ~ ~ { ^ ^ ^ ^ ^ { { ^ ^ ^ ^ ^ ^ { ^ ^ ^ ^ ^ { { ^ ^ ^ ^ ^ ^ ^ ^ ^ ^ { ^ { { ^ ^ ~ ~ ~ ^ ^ ^ ~ ~ ^ ^ ^ ^ ^ ^ ^ ^ ^ { ^ ^ ^ { ^ ^ { / / { { { { a / / a ^ ^ ^ ^ { { ^ ^ ^ ^ ^ ^ ^ ^ ^ { ^ ^ ^ { ^ ^ ^ ^ ~ ~ ~ ~ ~ { ] } ~ ~ ~ { ~ ~ { ^ 8 ^ { { { / { / ^ ^ ^ ^ { ^ ^ ^ ^ { ^ ^ ^ ^ ^ ^ ^ / / 3 ^ ^ { ^ ( / { { ^ / / ^ ^ / ^ ^ ^ ^ ^ ^ ^ ^ ^ ^ { ~ ~ ~ ~ ~ { ^ { ~ ~ ~ < ~ ~ ~ { ~ { { { . ",
". & { { ~ ~ ~ ~ ~ ~ ~ ~ ~ ~ ~ { ~ ~ ~ ^ ^ ~ ~ ^ ^ ~ ~ ~ ^ ^ ( ^ ^ ^ ^ ~ ^ ^ ^ ^ ^ ^ ^ ^ ^ ^ ^ ^ ^ ^ ^ ^ { [ a ^ ^ ^ ^ ^ ^ ^ ^ ^ ^ { ^ ~ ~ ^ ^ ^ ^ ^ ^ { ^ ^ ^ ^ ^ ^ ^ ^ ^ ^ ^ ^ ^ ^ { ^ ^ ^ ^ ^ ^ ^ ^ ^ ^ { ^ { { ~ ^ { ~ ^ ^ ^ ^ ~ ~ { ^ ^ ^ ^ ^ ^ ^ ^ { ( { 3 ^ ^ / { / / { / / { / { 4 ^ ^ ^ ^ ^ { { ^ ^ ^ ^ ^ ^ ^ ^ 4 ^ ^ ^ ^ { ~ ~ ^ ^ ~ ~ ~ ~ ^ { ~ ~ ~ ~ { ~ ~ ~ { ^ ^ ^ { { ( / { 1 ^ ^ ^ ^ { ^ ^ ^ ^ ^ ^ ^ ^ ^ ^ ^ 2 / / ^ ^ ^ { ^ 1 / / { ^ ^ ^ ^ ^ 4 3 ^ ^ ^ ^ ^ ^ ^ ^ { ^ ^ ~ ~ ~ ~ { ^ ~ ~ ~ ~ ~ ~ ~ ~ { ~ { { { . ",
". * { { ~ ~ { ~ ~ ~ ~ ~ { : : { ~ ~ ~ ~ ^ ^ ] ^ ^ b ] { ~ ^ ^ ^ ^ ^ ~ ~ ^ ^ ^ ^ ^ { ^ ^ ^ ^ ^ ^ ^ ^ ^ ^ ^ ^ ^ ^ ^ ^ ^ ^ ^ ^ ^ ^ ^ { ^ { { ^ { ^ ^ ^ ^ ^ { ^ ^ ^ ^ ^ ^ ^ ^ ^ ^ ^ ^ ^ { 2 2 ^ ^ ^ ^ ~ ~ ^ ^ { ^ { { ~ ^ ^ { ^ ^ ^ ^ ^ ~ ^ ^ { ^ ^ ^ ( / ^ { / { ^ ^ ^ / { / / / / / { 6 { ~ ^ ^ ^ ^ ^ { { { ^ ^ 3 / ^ ^ 5 / ^ ^ ^ ^ { ~ ^ ^ ^ ~ { ^ ^ ^ { ~ ~ ~ ^ { ~ { : { ^ ^ ^ { ^ ^ 2 { ^ ^ ^ { ^ { ^ ^ { ^ ^ ^ ^ ^ ^ ^ ^ ^ ^ ^ ^ ^ ^ { ^ ^ b a { / ^ ^ ^ 8 0 ^ ^ ^ ^ ^ ^ ^ ^ ^ ^ { ^ ^ ~ ~ ~ ~ ~ ~ ~ ~ ~ ~ ~ ~ { ~ { { { { . ",
". & { ~ ~ ~ { { ~ ~ ^ ~ ~ / / / { ~ ~ ~ : ~ ~ ~ ~ / / < ~ ^ ^ ^ ^ ^ ~ ~ ~ ^ ^ ^ ^ { ^ ^ ^ ^ ^ ^ ^ ^ ^ ^ { ~ ^ ^ ^ ^ ^ ^ ^ ^ ^ ^ ^ { ^ ~ { { 6 ^ ^ ~ ^ ^ { ^ ^ ^ ^ ^ ^ ^ ^ ^ ^ ^ ^ ^ ^ ^ ^ ^ ^ ^ ^ ^ ~ ~ ^ { { { { ^ ~ ^ ^ ^ ^ ^ ^ ^ ^ ^ ^ ^ ^ 8 ^ a / / { / { { ^ ^ ~ / / / / 4 { ^ ^ { 3 ^ ^ ^ ^ ^ ^ ^ { ^ ^ { ^ ^ ^ ^ [ ^ ^ ^ 0 { ^ [ ^ ^ ^ { ^ ^ ~ ~ ~ ~ ~ ^ { < { < { ^ ^ ^ { { ^ ^ { ^ ^ ^ ^ ^ ^ ^ ^ { ^ ^ ^ ^ ^ ^ ^ ^ ^ ^ ^ ^ ^ ^ { ^ ^ ^ ^ { ( 2 ^ ^ ^ ^ ^ ^ ^ ^ ^ ^ ^ ^ ^ ^ { ^ ~ ~ ~ ~ ~ ~ ~ ~ ~ ~ ~ ~ ~ { ~ { { { / . ",
". & { { ~ ~ { { ~ ~ ~ ~ ~ { / ] / / / / / { ~ ~ ~ < / } ~ ^ ^ ^ ^ ^ ~ ~ ~ ^ ^ ^ ^ ^ ^ ^ ^ ^ ^ ^ ^ ^ ^ ^ { ~ ^ ^ ^ ^ ^ ^ ^ ^ ^ ^ ^ { ^ ~ { { { ^ ^ ~ ~ ^ ^ ^ ^ ^ ^ ^ ^ ^ ^ ^ ^ ^ ^ ^ ^ ^ ^ ^ ^ ^ ^ ^ { ~ ^ { ^ { { ^ ^ ^ ^ ^ ^ ^ ^ ^ ~ ^ ^ / / ( { / / / / / / { ^ ^ ^ | / / / 4 ^ ^ ^ ^ 2 ^ ^ [ 1 ^ ^ ^ { ^ ^ { ^ 4 ^ ^ ^ ^ ^ ^ / / ~ ~ ^ ^ ~ { ^ / ~ : ~ ~ ^ { { / { ~ ~ ~ ^ ^ { { ^ ^ { ^ ^ ^ { ^ ^ ^ ^ { ^ ^ ^ ^ ^ { ^ ^ ^ ^ ^ ^ ^ ^ { ^ ^ ^ { { { ^ ^ ^ ^ ^ ^ ^ ^ ^ ^ ^ ^ ^ ^ ^ ^ ^ ~ ^ ~ ~ ~ ~ ~ ~ ^ ~ ~ ~ ~ { ~ ~ ~ { { . ",
"  * ~ { ~ ~ ~ { ~ ~ ~ ~ ~ ~ : { ] ~ ~ / / / ~ ~ ~ ~ ~ ~ ^ ^ ^ ^ ^ ^ ^ ~ ~ ^ ^ ^ ^ ^ ^ ^ ~ ^ ^ ^ ^ ^ ^ ^ { ^ ^ ^ ^ ^ ^ ^ ^ ^ ^ ^ ^ ^ ^ ~ { { { ^ ^ { { ^ ^ ^ ^ ^ ^ ^ ^ ^ ^ ^ ^ ^ ^ ^ ^ { ^ ^ ^ ^ ^ ^ { ^ ^ { ^ { ^ ^ ^ ^ ^ ^ ^ ^ ^ ^ ^ ^ / / / / / / / / / / ^ { ( ^ ^ ^ | 7 ~ ~ { ^ ^ ^ ^ ^ ^ ^ / 7 { ^ ^ ^ ^ { ^ ^ ^ c { ^ ^ ^ ~ { ~ ~ ~ ^ ~ ~ } / ~ } / { / / { / { { { ^ ^ ^ { { ^ { { ^ ^ ^ ^ ^ ^ ^ ^ { ^ ^ ^ { { { ^ ^ ^ ^ ^ ^ ^ ^ { ^ ^ ^ ^ ^ ^ ^ ^ ^ ^ ^ ^ ^ ^ ^ ^ ^ ^ ^ ^ ^ ^ ^ ^ ^ ~ ~ ~ ~ ~ ~ ^ ~ ~ ~ ~ ~ ~ ~ ~ { { . ",
". * { { ~ ~ ~ ~ ~ ~ ~ ~ ~ ~ ~ { / ] ~ ~ : ~ ^ ^ ~ ~ ^ ^ ^ ^ ^ ^ ^ ^ ^ ^ ^ ^ ^ ^ ^ ^ ^ ^ ^ ^ ^ ^ ^ ^ ^ ^ { ^ ^ ^ ^ ^ ^ ^ ^ ^ ^ ^ ^ ^ ^ ^ { { ^ { ^ { { { ^ { ^ ^ ^ ^ ^ ^ ^ ^ ^ ^ ^ ^ ^ { { ( 5 ^ ^ ^ ^ ^ ^ { ^ { ^ ^ ^ ^ ^ ^ ^ ^ ^ ^ ^ ^ ^ { / / / / / / / / ^ ^ / { ^ ^ ^ ^ ~ ~ ^ ^ { ^ ^ ^ ^ ^ ( 6 ^ ^ ^ ^ ^ ^ ^ ^ ^ ^ { / ~ ^ ^ ^ ~ ~ ^ ^ ~ ~ ] / / / / / / / { / { { { ^ ^ ^ { { ^ ^ { ^ ^ ^ ^ ^ ^ ^ ^ { ^ ^ ^ { { { ^ ^ ^ ^ ^ ^ ^ ^ { ^ ^ ^ ^ ^ ^ ^ ^ ^ ^ { ^ ^ ^ ^ ^ ^ ^ ^ ^ ^ ^ ^ ^ ^ / ~ ~ ~ ~ ~ ^ ^ ~ ~ ~ ~ ~ { { { { . ",
". & ~ { ~ ~ ~ ~ ~ ~ ~ ~ ~ ~ { { { ] } ~ ~ ^ ^ ^ { ^ ^ ^ ^ ^ ^ ^ ^ ^ ^ ^ ^ ^ ^ ^ ^ ^ ^ ^ ^ ^ ^ ^ ^ ^ ^ ~ { ^ ^ ^ ^ ^ ^ ^ ^ ^ ^ ^ ^ ^ ^ ~ ~ ^ { { ^ ^ ^ { ^ { ^ ^ ^ ^ ^ ^ ^ ^ ^ ^ ^ ^ ^ { ^ ^ ^ | ^ ^ ^ ^ ^ { ^ ^ ^ ^ ^ { ^ ^ ^ ^ ^ ^ ^ ^ ^ { / / 3 ^ / / / / ^ ^ | { { { { { < ^ ^ ^ ^ ^ ~ ~ ^ ^ ^ ^ { ^ { ^ ^ ^ ^ ^ ^ ^ ^ ~ ~ ^ ^ ^ ^ ~ { ^ ~ ^ b / / / / / / { { / { { ^ ^ ^ / 2 { ^ ^ { ^ ^ ^ ^ ^ ^ ^ ^ ^ ^ ^ ^ { ^ ^ ^ ^ ^ ^ ^ ^ ^ ^ { ^ ^ ^ ^ ^ ^ ^ ^ ^ ^ ^ ^ ^ ^ ^ ^ ^ ^ ^ { ^ ^ ^ ^ ^ < ~ ~ ~ { ~ ^ ^ ~ ~ ~ ~ ~ { { ~ {   ",
". * ~ { ~ ~ { ~ ~ ~ ~ ~ ~ ~ { { ~ ~ ~ ~ : ~ ^ ^ { ^ ^ ^ ^ ^ ^ ^ ~ ^ ^ ^ ^ ^ ^ ^ ^ { ^ ^ ^ ^ ^ ^ ^ ^ ^ ^ ^ ^ ^ ^ ^ ^ ^ ^ ^ ^ ^ ^ { ^ ^ ~ ~ ^ { ^ ^ ^ ^ { ^ ^ { ^ ^ ^ ^ ^ ^ { ^ ^ ^ ^ ^ { { ^ ^ / ^ ^ ^ ^ ^ { ^ ^ ^ ^ ^ { ^ ^ ^ ^ ^ ^ ^ ^ ^ { { / ^ ^ ^ / / [ ^ ^ ^ ^ { ^ { 2 { ^ ^ ^ ^ ^ { ~ ^ ^ ^ ^ { ^ { ^ { ^ ^ ^ ^ ^ 7 4 ^ { ^ ^ ^ ^ { ^ 8 / / / / / { / / { { / { ^ ^ ^ ^ ^ ^ { ^ ^ ^ ^ ^ ^ ^ ^ { ^ ^ ^ ^ ^ ^ ^ ^ ^ ^ ^ ^ ^ ^ ^ ^ ^ { ^ ^ ^ 6 / 5 ^ ^ ^ ^ ^ ^ ^ ^ ^ ^ ^ ^ ^ { ^ ^ ^ ^ ^ ~ ~ { ~ { ~ ^ ^ ~ ~ ~ ~ { { { ~ ~ . ",
"# * { { ~ ~ { ~ ~ { ~ ~ ~ ~ { { ~ ~ ~ ~ ~ ~ ~ ~ { ~ ^ ^ ^ ^ ^ ~ ~ ^ ^ ^ ^ ^ ^ ^ ^ { ^ ^ ^ ^ ^ ^ ^ ^ ^ ^ ^ ^ ^ ^ ^ ^ ^ ^ ^ ^ ^ ^ ^ ^ ^ ~ ~ ^ ^ { ^ ^ ^ ^ ^ ^ { | ^ ^ ^ { ^ { ^ ^ ^ ^ ^ ^ 0 ^ ^ / b b ^ ^ ^ ^ ^ { ^ ^ ^ ^ ^ ^ ^ ^ ^ ^ ^ ^ ^ { / { ^ ^ ^ ^ ^ ^ [ ^ ^ ^ { 5 ^ ^ { ^ ^ ^ ^ ^ { ^ ^ ^ ^ ^ ^ ^ { ^ { ^ ^ ^ ^ ^ ^ ^ ^ ^ ^ ^ ^ ^ { 4 / / / / / / / / ^ ^ { / { ^ ^ { ^ ^ ^ { ^ ^ ^ ^ ^ ^ ^ ^ ^ ^ { ^ ^ ^ ^ ^ { ^ ^ ^ ^ ^ ^ ^ ^ ^ { ^ ^ ^ { { { ^ ^ ^ ^ ^ ^ ^ ^ ^ ^ ^ ^ ^ ^ ^ ^ ^ ^ ^ ~ ^ { ~ { ~ ^ ^ ~ ~ ~ ~ { ~ { { ~ . ",
". & / { ~ ~ { ~ { { ~ ~ ~ { { { : ~ ~ ~ ~ ~ ~ { { ~ ~ ^ ^ ~ ^ ~ ^ ^ ^ ^ ^ ^ ^ ^ ^ ^ ^ ^ ^ ^ ^ ^ ^ ^ ^ ^ ^ ^ ^ ^ ^ ^ ^ ^ ^ ^ ^ ^ ^ ^ ^ ^ ~ ^ ^ { ^ ^ ^ { ^ ^ ^ / ^ ^ ^ ^ ^ { ^ ^ ^ ^ ^ ^ [ / ^ ^ ^ 1 ^ ^ ^ ^ ^ { ^ ^ ^ ^ ^ ^ ^ ^ b / ( ^ ^ { [ { ^ ^ ^ ^ ^ ^ ^ ^ ^ ^ { { ^ ~ { ^ { { { ^ ~ ( ^ ^ ^ ^ ^ ^ ^ ^ { ^ ^ ^ ^ ^ { ^ ^ ^ ^ ^ ^ 8 / / / / 7 / ^ 7 { ^ ^ ^ { / { ^ ^ ^ ^ / / { ^ ^ ^ ^ ^ ^ ^ ^ ^ ^ { ^ ^ ^ ^ ^ { ^ ^ ^ ^ ^ ^ ^ ^ ^ ^ ^ ^ ^ { ^ { ^ ^ ^ ^ ^ ^ ^ ^ ^ ^ ^ ^ ^ ^ ^ ^ ^ ^ ^ ~ ^ ~ ^ { ~ ~ ~ ~ ~ ~ ^ { ~ { { {   ",
". & { ~ ~ ~ { ~ { { ~ ~ ~ ~ < < { ~ ^ { ~ ~ ~ { { ~ ^ ^ ^ ^ ~ ~ ^ ^ ^ ^ ^ ^ ^ ^ ^ ^ ^ ^ ^ ^ ^ ^ ^ ^ ^ ^ ^ ^ ^ ^ ^ ^ ^ ^ ^ ^ ^ ^ ^ ^ ^ ^ ( ^ ^ { ^ ^ ^ ^ ^ ^ ^ 4 | a ^ ^ ^ ^ 8 ^ ^ ^ ^ ^ ^ a ^ ^ ^ ^ 1 ^ ^ ^ ^ ^ ^ ^ ^ ^ ^ ^ ^ ^ 5 / ^ ^ ^ { ^ { ^ ^ ^ 1 ^ ^ ^ ^ ^ ^ { { { { ^ ^ { { { ^ ~ ^ [ ^ ^ ^ { ^ ^ ^ ^ ^ ^ ^ ^ ^ { ^ ^ ^ ^ ^ ^ [ { / / { { ^ ^ / { ^ ^ ^ { / { / ^ ^ ^ { 8 { ^ ^ ^ ^ ^ { ^ ^ ^ ^ ^ ^ ^ ^ ^ { { ^ ^ ^ ^ ^ ^ ^ ^ ^ { ^ ^ ^ { ^ ^ ^ ^ { ^ ^ ^ ^ ^ ^ ^ ^ ^ ^ ^ ^ ^ ^ ^ ~ ~ ~ ~ ~ ~ ~ ~ ~ ~ ~ ~ { { { { { {   ",
". ) ] ~ ~ ~ ~ ~ ~ ~ ~ ~ ~ ~ ~ ~ { ~ ~ ~ ~ ~ ~ { ~ ^ ^ ^ ^ ^ ^ ^ ^ ^ ^ ^ ^ ^ ^ ^ ^ ^ ^ ^ ^ ^ ^ ^ ^ ^ ^ ^ ^ ^ ^ ^ ^ ^ ^ ^ ^ ^ ^ ^ ^ ^ 8 1 ^ ^ ^ { ^ ^ ^ ^ ^ ^ ^ ^ b / ^ ^ ^ { 7 ^ ^ { ^ ^ ^ { ^ ^ ^ ^ / ^ ^ { ^ { ^ ^ ^ ^ ^ ^ ^ { ^ ^ ^ ^ ^ { ^ ^ ^ / ^ [ ^ ^ ^ ^ ~ ^ { { { { ^ ^ { ~ { ^ ^ / / ^ ^ ^ { ^ ^ ^ ^ ^ { ^ ^ ^ { ^ ^ ^ ^ ^ ^ ^ { 3 ^ / { ^ ^ / { ^ ^ { { | { ^ ^ ^ ^ { ^ { ^ { ^ ^ ^ ^ ^ ^ ^ ^ ^ ^ ^ ^ ^ { ^ ^ ^ ^ ^ { ^ ^ ^ ^ { ^ ^ ^ { ^ ^ ^ ^ ^ ^ ^ ^ ^ ^ ^ ^ ^ ^ { { ^ ^ ^ ^ ~ ~ ~ ~ ~ ~ ~ ~ ~ ~ ~ { { ~ ~ ~ { {   ",
". = / / { ~ ~ ~ ~ ~ ~ ~ ~ ~ { ~ { ~ ~ ~ ~ ~ ~ ^ ^ ^ ^ ^ ^ ^ ^ ^ ^ ^ ^ ^ ^ ^ ^ ^ ^ ^ ^ ^ ^ ^ ^ ^ 8 ^ ^ ^ { ^ ~ ~ ^ ^ ^ / 5 1 ^ ^ ^ ^ ^ ^ ^ 1 ^ ^ ^ ^ ^ ^ { ^ ^ ^ { / ^ ^ ^ ^ b ^ ^ { ^ { ^ ^ ^ ^ 1 / { / ^ { ^ { ^ ^ ^ ^ ^ ^ ^ ^ ^ ^ ^ ^ ^ ^ ^ ^ ^ ^ 8 3 ^ ^ 2 ^ ~ ^ { { { { { ^ { ^ { ^ ^ / / ^ ^ { { ^ ^ ^ ^ ^ ^ ^ ^ { { ^ ^ ^ ^ ^ { ^ { ^ ^ 2 | ^ ^ ^ ^ ^ ^ { { / { ^ ^ ^ ^ { ^ { ^ { ^ ^ ^ ^ ^ ^ ^ ^ ^ ^ ^ ^ ^ ^ ^ ^ ^ ^ ^ ^ ^ ^ ^ ^ { ^ ^ { ^ ^ { ^ ^ ^ ^ { ^ { ^ ^ ^ ^ ^ { { ^ ^ ^ ^ ~ ~ ~ ~ ~ ~ ~ ~ ~ ~ ~ { { ~ ^ ~ ~ {   ",
". = { / ~ ~ ~ ~ ~ ~ ~ ~ ~ ~ { ~ ~ ~ ~ { ^ ^ ^ ^ ^ ^ ^ ^ ^ ^ ^ ^ ^ ^ ^ ^ ^ ^ ^ ^ ^ ^ ^ ^ ^ ^ ^ ^ ^ ^ ^ ^ ^ ^ ~ ~ ^ ^ ^ ^ ^ ^ 1 ^ ^ ^ ^ ^ ^ / [ ^ ^ ^ ^ { { ^ ^ ^ / ^ ^ ^ ^ ^ / ^ ^ { ^ ^ { ^ ^ ^ 6 / / / ^ { ^ ^ ^ ^ ^ ^ ^ ^ ^ ^ ^ ^ ^ ^ ^ ^ ^ ^ ^ ^ b / ^ ^ ^ ^ ^ ^ { { { { { ^ { ^ { ^ ^ ^ 5 ^ ^ { { ^ ^ ^ { ^ ^ ^ ^ { { ^ ^ ^ ^ ^ { ^ { ^ 3 [ ^ ^ ^ ^ ^ ^ ^ { 2 { { ^ ^ ^ / { ^ { ( { ^ ^ ^ { ^ ^ { ^ ^ { ^ ^ ^ ^ ^ ^ ^ { ^ ^ ^ ^ ^ ^ { ^ ^ ^ ^ ^ ^ ^ ^ ^ ^ { ^ ^ ^ ^ ^ ^ ^ ^ { { ^ ^ ^ ^ ^ ~ { ~ ~ ~ ~ ~ ~ ~ { ~ { { { { {   ",
". * { ~ ~ ~ { ~ ~ ~ ~ ~ ~ ~ ~ ~ ~ ~ ~ ~ ~ ^ ^ { ^ ^ ~ ^ ^ ^ ^ ^ ^ ^ ^ ^ ^ ^ ^ ^ ^ ^ ^ ^ ^ ^ ^ 1 ^ ^ ^ ^ ^ ^ ^ ^ ^ ^ ^ ^ ^ ^ ^ ^ ^ ^ ^ ^ ^ { / 7 ^ ^ ^ ^ ^ ^ ^ 1 / ^ ^ ^ ^ / / 8 ^ { ^ ^ ^ ^ ^ ^ ^ ^ 3 ^ ^ { ^ ^ ^ ^ ^ ^ 8 ^ ^ 1 ^ ^ ^ ^ ^ ^ ^ ^ ^ | / ^ { ^ ^ { ^ ^ { { { { { ^ { ^ { ^ ^ ^ ^ ^ ^ { { ^ ^ ^ { ^ ^ ^ ^ ^ { ^ ^ ^ ^ ^ ^ ^ ^ ^ ^ { ^ ^ ^ ^ ^ ^ ^ { ^ ^ ^ ^ ^ ( / { ^ { / { { ^ ^ ^ ^ ^ ^ ^ ^ { ^ ^ { ^ ^ ^ ^ { ^ ^ ^ ^ ^ ^ { ^ ^ ^ ^ ^ ^ ^ ^ ^ { { ^ ^ ^ ^ ^ ^ ^ ^ { { ^ ^ { ^ ^ ^ { ~ ^ ~ ~ ~ ~ ~ { ~ { { { { {   ",
". & { ~ ~ ~ { ~ / / { ~ { ~ ~ ~ ~ ~ ~ ~ ~ ^ ~ { ^ ^ ^ ^ ^ ^ ^ ^ ^ ^ ^ ^ ^ ^ ^ ^ ^ ^ ^ ^ ^ ^ ^ 2 ^ { ^ ^ ^ ^ ^ ^ ^ ^ ^ ^ ^ ^ ^ ^ ^ ^ ^ ^ ^ ^ 1 ^ ^ ^ ^ ^ { ^ ^ ^ [ 1 ^ ^ 5 / / ^ ^ { ^ { ^ ^ ^ ^ ^ ^ / ^ ^ ^ ^ { ^ ^ ^ ^ / ^ ^ ^ ^ ^ ^ ^ ^ ^ ^ ^ ^ ^ ^ ^ { ^ { { ^ ^ ^ { { { ^ ^ { ^ { ^ ^ ^ ^ ^ ^ { { ^ ^ ^ { ^ ^ ^ ^ { ^ ^ ^ ^ / 6 ^ ^ ^ ^ ^ { ^ ^ { ^ ^ ^ ^ { ^ { ^ ^ ^ b / { { { / ^ ^ ^ ^ ^ ^ ^ ^ ^ ^ ^ ^ ^ { { ^ ^ ^ { ^ ^ ^ ^ ^ ^ ^ ^ ^ ^ ^ ^ 5 7 { ^ { { ^ ^ ^ ^ ^ ^ ^ ^ { { ^ ^ { ^ ^ ^ { ^ ^ ~ ~ ~ ~ ~ { ~ { { { ~ {   ",
". & { ~ ~ ~ { { : ~ ~ ~ { ~ ~ ~ ~ ~ ~ ~ ~ ~ ~ { ^ ^ ^ ^ ^ ^ ^ ^ ^ ^ ^ ^ ^ ^ ^ ^ ^ ^ ^ ^ ^ ( 2 ^ ^ { ^ ^ ^ ^ ^ ^ ^ ^ ^ ^ ^ ^ ^ ^ ^ ^ ^ { ^ ^ ^ ^ 8 ^ ^ ^ { ^ { { 1 a ^ ^ ^ / 4 ^ ^ ^ ^ { ^ ^ ^ ^ ^ 8 / ^ ^ ^ ^ { ^ ^ ^ ^ / ^ ^ ^ ^ ^ ^ / 8 ^ ^ ^ ^ ^ ^ ^ ^ ^ ^ { ^ ^ { { { { ^ ^ { ^ { ^ ^ ^ ^ ^ ^ [ { ^ ^ ^ ^ ^ ^ ^ ^ { ^ ^ ^ ^ ^ ^ ^ ^ ^ ^ ^ ^ ^ ^ ^ ^ ^ ^ ^ { { { ^ ^ ^ b / { { { ^ ^ ^ ^ ^ ^ ^ ^ ^ ^ ^ ^ ^ ^ { { ^ ^ ^ { ^ ^ ^ ^ ^ ^ ^ ^ ^ ^ { ^ ^ ^ { ^ { { ^ ^ ^ ^ ^ ^ ^ ^ ^ ^ ^ ^ { ^ ^ ^ { ^ ^ ~ ~ ~ ~ ~ { ~ { { { { {   ",
". & ~ ~ ~ ~ { ~ ~ ~ ~ ~ { ~ ~ ~ ~ ~ ~ ~ ~ ~ ~ { ^ ^ ^ ^ ^ ^ ^ ^ ^ ^ ^ ^ ^ ^ ^ ^ ^ ^ ^ ^ ^ ^ ^ ^ ^ { ^ ^ ^ ( ^ ^ ^ { ^ ^ ^ ^ ^ { ^ ^ ^ { { ^ ^ ^ ^ ( ^ { { ^ ^ ^ ^ ^ ^ ^ ^ ^ ^ ^ ^ { ^ { ^ { ^ ^ ^ ^ { ^ ^ ^ ^ { ^ ^ ^ { ^ ^ ^ ^ ^ ^ ^ ( / ^ ^ ^ ^ ^ ^ ^ { ^ ^ ^ ^ ^ { { { { ^ ^ ^ ^ { ^ ^ ^ ^ ^ ^ { { ^ ^ ^ ^ ^ ^ ^ ^ ^ ^ ^ ^ ^ ^ ^ ^ ^ { ^ ^ ^ ^ ^ ^ ^ ^ ^ ^ { ^ { ^ ^ ^ ^ ^ { { { ^ { { ^ ^ { ^ ^ { ^ { ^ ^ ^ { ^ ^ ^ ^ { ^ ^ ^ ^ ^ ^ ^ ^ ^ ^ { ^ ^ ^ 7 1 { { ^ ^ ^ ^ ^ ^ ^ ^ ^ ^ ^ ^ { ^ ~ ~ { ~ ~ ~ ~ ~ ~ ~ { ~ { { { { ~   ",
". & ~ ~ ~ ~ { ~ ~ ~ ~ ~ ~ ~ { ~ ~ ~ ~ ~ ^ ^ ^ { ^ ^ ^ ^ ^ ^ ^ ^ ^ ^ ^ ^ ^ ^ ^ ^ ^ ^ ^ ^ ^ ^ ^ ^ ^ 1 1 ^ 2 / ^ ^ ^ ^ ^ ^ ^ ^ ^ { { ^ ^ { { ^ ^ ^ { ^ ^ ^ { ^ ^ ^ ^ ^ ^ ^ { ^ ^ ^ ^ ^ ^ { ^ { ^ ^ ^ ^ ^ ^ ^ ^ ^ { ^ ^ ^ ^ ^ ^ ^ ^ ^ ^ ^ ^ ^ ^ ^ ^ ^ ^ ^ ^ ^ ^ ^ ^ ^ ^ ^ ^ { { ^ ^ ^ ^ ^ ^ ^ ^ ^ ^ ^ { { ^ ^ ^ { ^ ^ ^ ^ ^ ^ ^ ^ ^ ^ ^ ^ ^ { ^ { ^ ^ ^ ^ 1 ^ ^ ^ { ^ { { { ^ ^ ^ { { { ^ { { ^ ^ { ^ ^ { ^ ^ ^ ^ ^ ^ ^ ^ ^ ^ { ^ ^ ^ ^ ^ ^ ^ ^ ^ ^ { ^ ^ ^ / / ^ ^ ^ ^ ^ ^ ^ ^ { ^ { ^ ^ ^ { ^ ^ ~ ~ ~ ~ { ~ ~ ~ ~ { ~ ~ { { { ~   ",
". & ~ ~ ~ ~ { ~ ~ ~ ~ ~ ~ ~ ~ ~ ~ < ~ ~ ~ { ^ { ^ ^ ^ ^ ^ ^ ^ ^ ^ ^ ^ ^ ^ ^ ^ ^ ^ ^ ^ ^ ^ ^ ^ 2 ^ 3 a [ c ^ 2 { ^ ^ ^ ^ ^ ^ ^ ^ ^ ^ ^ { { { ^ ^ { ^ { 1 { ^ ^ ^ ^ ^ { ^ { ^ ^ ^ { ^ { { ^ ^ ^ ^ ^ ^ ^ ^ ^ ^ ^ { ^ ^ ^ ^ ^ ^ ^ ^ ^ ^ ^ ^ ^ ^ ^ { ^ ^ ^ ^ ^ ^ ^ ^ ^ ^ ^ ^ { { ^ ^ 5 ^ ^ ^ ^ ^ ^ ^ ^ ^ ^ ^ ^ ^ ^ ^ ^ ^ ^ ^ ^ ^ ^ ^ ^ ^ ^ ^ ^ ^ { ^ ^ 1 c 2 / ^ ^ { { ^ ^ { ^ ^ ^ { ^ ^ ^ { { ^ { ^ ^ ^ { ^ { ^ ^ ^ ^ { ^ ^ ^ { ^ ^ ^ ^ ^ ^ ^ ^ ^ ^ ^ ^ ^ ^ | [ ^ ^ ^ ^ ^ ^ { ^ { ^ { { ^ ^ { ^ ^ ^ ~ ~ ~ { ~ ~ ~ { { ~ { { ~ { ~   ",
". * ~ ~ ~ ~ ~ ~ ~ ~ ~ ~ ~ ~ ~ ~ ^ ~ ~ ~ ^ ^ ^ ^ ^ ^ ^ ^ ^ ^ ^ ^ ^ ^ ^ ^ ^ ^ ^ ^ ^ ^ ^ ^ ^ 7 2 ^ 5 / [ ^ ^ ^ ^ { ^ ^ ^ ^ ^ ^ ^ ^ ^ ^ ^ { { { ^ ^ { ^ { { { ^ { ^ ^ ^ ^ ^ { ^ ^ ^ { ^ ^ { ^ ^ ^ ^ ^ ^ ^ ^ { ^ ^ { ^ ^ ^ ^ ^ ^ ^ ^ ^ ^ { ^ ^ { ^ { ^ ^ ^ ^ ^ ^ ^ ^ ^ ^ ^ ^ { { ^ ^ / / { ^ ^ ^ ^ 0 2 ^ 6 ^ ^ ^ ^ ^ ^ ^ ^ ^ ^ ^ ^ ^ ^ ^ ^ ^ ^ ^ { ^ { / c / ^ ^ ^ { ^ ^ ^ ^ ^ ^ ^ { ^ ^ ^ { { 1 7 ^ ^ ^ { ^ { ^ ^ ^ ^ { ^ ^ ^ ^ ^ ^ ^ ^ ^ ^ ^ ^ ^ ^ ^ ^ ^ ^ { ^ ^ ^ ^ ^ ^ ^ { ^ { ^ { ^ ^ ^ ^ ^ ^ ^ ~ ~ ~ { ~ ~ ~ { { ~ ~ { ~ { {   ",
". * ~ ~ ~ ~ ~ ~ ~ ~ ~ ~ ~ / ~ ~ ~ ~ ^ ^ ^ ^ ^ ^ ^ ^ ^ ^ ^ ^ ^ ^ ^ ^ ^ ^ ^ ^ ^ ^ ^ ^ ^ ^ ( ^ ^ ^ ^ [ 8 1 ( ^ ^ { ^ ^ ^ ^ ^ ^ ^ ^ ^ ^ ^ ^ ^ ^ ^ ^ ^ ^ ^ { { ^ ^ ^ ^ ^ ^ ^ { ^ ^ ^ { ^ ^ { ^ ^ ^ ^ ^ ^ ^ ^ { ^ ^ { ^ ^ ^ ^ ^ 2 ^ ^ ^ ^ { ^ { ^ ^ ^ ^ ^ ^ ^ ^ ^ ^ ^ ^ ^ ^ ^ { { ^ ^ { { / / | 7 ^ ^ ^ ^ ^ ^ ^ ^ ^ ^ ^ ^ ^ ^ ^ ^ ^ ^ ^ ^ ^ ^ ^ ^ { ^ ^ / / | ^ ^ ^ { b 3 ^ ^ ^ ^ ^ { ^ ^ ^ { ^ ^ ^ ^ ^ ^ ^ ^ { ^ ^ ^ { { 2 / [ ^ ^ ^ ^ ^ ^ ^ ^ ^ ^ ^ ^ ^ ^ ^ { ^ { ^ ^ ^ ^ ^ { ^ { ^ { ^ ^ ^ ^ ^ ^ ~ ~ ^ ~ ~ ~ ~ ~ { { ~ { ~ { { {   ",
". * ~ ~ ~ ~ ~ ~ ~ ~ ~ ~ / { ~ { ~ ~ ^ ^ ^ ^ ^ ^ ^ ^ ^ ^ ^ ^ ^ ^ ^ ^ ^ ^ ^ ^ ^ ^ ^ ^ ^ ^ ^ ^ ^ 2 1 ^ ^ ^ / ^ ^ { ^ ^ ^ ^ ^ ^ ^ ^ ^ ^ ^ ^ ^ ^ ^ ^ ^ ^ ^ ^ { { ^ ^ ^ ^ ^ ^ ^ ^ ^ ^ ^ ^ { { ^ ^ ^ ^ ^ ^ ^ ^ { ^ ^ { ^ ^ ^ ^ ^ [ ^ ^ ^ ^ ^ ^ ^ ^ ^ ^ ^ ^ ^ ^ ^ ^ ^ ^ ^ 1 [ | { { ^ ^ ^ [ / ^ ^ ^ ^ ^ ^ ^ ^ ^ 7 { { ^ ^ ^ ^ ^ ^ ^ ^ ^ ^ ^ ^ ^ ^ ^ { ^ ^ / / 1 { ^ { ^ ^ ^ ^ ^ ^ ^ ^ { ^ ^ ^ { / ^ ^ ^ ^ ^ ^ ^ { ^ ^ ^ ^ { [ c { { ^ ^ ^ ^ ^ ^ ^ ^ ^ ^ ^ ^ ^ ^ { ^ { ^ ^ ^ ^ ^ ^ ^ { ^ { { ^ ^ { ^ ~ ^ ~ ^ ^ ^ ^ ^ ~ ~ { ~ { ~ { ~ {   ",
". * ~ ~ ~ ~ ~ ~ { ~ ~ ~ ] { { { ^ ~ ^ ^ ^ ^ ^ ^ ^ ^ ^ ^ ^ ^ ^ ^ ^ ^ ^ ^ ^ ^ ^ ^ ^ ^ ^ ^ ^ 1 6 1 ^ ^ ^ ^ c ^ { { ^ ^ ^ ^ ^ ^ ^ { ^ ^ ^ { ^ ^ ^ ^ ^ ^ { ^ { ^ ^ ^ ^ ^ { ^ { ^ ^ ^ { ^ { { ^ ^ ^ ^ ^ ^ ^ ^ ^ ^ ^ ^ ^ ^ { ^ ^ ^ ^ ^ ^ ^ ^ ^ ^ ^ ^ ^ ^ ^ ^ ^ ^ ^ { ^ ^ / 2 2 { { ^ ^ ^ / { ^ ^ 4 ^ ^ ^ ^ ^ ^ c { { ^ ^ ^ ^ ^ ^ ^ ^ ^ ^ ^ ^ ^ { ^ ^ ^ ^ ^ ^ 1 8 ^ ^ 5 ^ { { ^ { ^ ^ { ^ / / { { ^ ^ ^ ^ ^ ^ / { 2 ^ ^ ^ { ^ ^ { { ^ ^ ^ ^ ^ ^ ^ ^ ^ ^ ^ ^ ^ ^ { ^ ^ ^ ^ ^ ^ ^ ^ ^ { ^ { ^ ^ ^ { ^ ~ ^ ^ ^ ~ ^ ^ ^ ~ ~ { ~ { ~ ~ ~ {   ",
". & ~ ~ ~ ~ ~ ~ { ~ ~ ~ / { ~ { ^ ^ ^ ^ ^ ^ ^ { ^ ^ ^ ^ ^ ^ ^ ^ ^ ^ ^ ^ ^ ^ ^ ^ ^ ^ ^ ^ ^ ^ ^ ^ ^ ^ b / { ^ ^ { ^ ^ ^ ^ ^ ^ ^ { ^ ^ ^ { { ^ ^ ^ ^ { { { { { { ^ ^ { { ^ { ^ ^ ^ { { ^ { ^ ^ ^ ^ ^ ^ ^ ^ ^ ^ ^ ^ ^ ^ { ^ ^ ^ ^ ^ ^ ^ ^ ^ { ^ ^ ^ ^ ^ ^ ^ ^ ^ ^ ^ ^ ^ { ^ 0 { ^ ^ { { ^ 1 { / 2 ^ ^ { ^ ^ ^ ^ ^ ^ ^ ^ ^ ^ ^ { ^ ^ ^ ^ ^ / 6 ^ ^ ^ ^ ^ ^ / { ^ [ { ^ { { 1 { ^ ^ { ^ / ^ { { ^ ^ ^ { ^ ^ / / / 5 ^ 3 | ^ ^ { { ^ ^ ^ ^ ^ ^ ^ ^ ^ ^ ^ ^ ^ ^ { ^ ^ ^ ^ { ^ { ^ ^ { ^ { { ^ ^ { ~ ~ ^ ^ ~ ~ ~ { ^ ~ ~ ~ ~ { ~ ~ { {   ",
". & { ~ ~ ~ ~ ~ { ~ ~ ~ / { : ^ ^ ^ / ^ ^ ^ ^ { ^ ^ ^ ^ ^ ^ ^ ^ ^ ^ ^ ^ ^ ^ ^ ^ ^ ^ ^ ^ ^ ^ 2 ^ 8 6 / / ^ ^ ^ { ^ ^ ^ ^ ^ ^ ^ { ^ ^ ^ { { ^ ^ 6 { 9 { ^ ^ ^ ^ ^ ^ ^ { ^ ^ ^ ^ ^ ^ { ^ { ^ ^ ^ ^ ^ ^ ^ ^ ^ ^ ^ { ^ ^ { ^ ^ ^ ^ ^ ^ ^ ^ ^ ^ ^ ^ ^ ^ ^ ^ ^ { ^ ^ ^ ^ ^ ( ^ 2 ^ ^ ^ { { { / { ( 7 ^ ^ { ^ ^ ^ { ^ ^ ^ ^ ^ ^ ^ { ^ ^ ^ { ^ / / 4 { ^ ^ 1 / / { 2 ^ ^ ^ { 3 ^ { ^ ^ ^ ^ b ^ { { / { 2 { ^ ^ / | ^ ^ ^ / / / 2 ^ ^ ^ ^ ^ ^ ^ ^ ^ ^ ^ ^ ^ ^ ^ ^ { ^ { ^ ^ ^ ^ { ^ ^ { ^ ^ ^ ^ ^ ^ ^ ^ ^ ~ ~ ~ ~ ~ ~ ~ ^ ~ ~ { { ~ { ~   ",
". & / ~ ~ { ~ { ~ ~ : : / { ~ / ^ ^ ( 8 ^ ^ ^ { ^ ^ ^ ^ ^ ^ ^ ^ ^ ^ ^ ^ ^ ^ ^ ^ ^ ^ ^ ^ ^ 1 ^ ^ { / 4 3 ^ ^ { { ^ ^ ^ ^ ^ ^ ^ ^ ^ ^ ^ { { ^ ^ 1 ^ ^ { ^ ^ ^ ^ ^ ^ ^ { ^ ^ ^ ^ ^ ^ ^ ^ ^ ^ ^ ^ ^ ^ ^ ^ ^ ^ ^ ^ { ^ ^ ^ ^ ^ ^ ^ ^ ^ ^ ^ ^ ^ ^ ^ ^ ^ ^ ^ / { { ^ ^ ^ ^ 0 6 a { ^ ^ { { [ ^ { ^ / / / { ^ ^ ^ ^ ^ ^ ^ ^ ^ ^ ^ { { ^ ^ { ( / / ^ { ^ ^ / / / / ^ ^ ^ { { ^ ^ ^ ^ ^ { ^ ^ ^ { / / / / ^ ^ ^ ^ { ^ ^ ( 7 4 [ ^ ^ ^ ^ ^ ^ ^ ^ ^ ^ ^ ^ ^ ^ ^ ^ ^ { ^ { ^ ^ ^ ^ { ^ { ^ ^ ^ ^ ^ ^ ^ ^ ^ ^ ^ ~ { ~ ~ ~ ~ ^ ~ ~ ~ { { { {   ",
". * ~ ] ~ { ~ ~ { : ] / / { { ~ ^ ^ / / 1 ^ ^ { ^ ^ ^ ^ ^ ^ ^ ^ ^ ^ ^ ^ ^ ^ ^ ^ ^ ^ / / ^ 1 ^ ^ / b | 1 ^ ^ { { ^ ^ ^ ^ ^ ^ ^ ^ ^ ^ ^ { { ^ ^ 1 / ^ ^ ^ ^ ^ ^ ^ ^ ^ { ^ ^ ^ ^ ^ ^ ^ ^ ^ ^ ^ ^ ^ ^ ^ ^ ^ ^ | ^ { ^ ^ ^ ^ ^ ^ ^ ^ ^ ^ ^ ^ ^ ^ ^ { ^ ^ ^ 2 ^ ^ ^ ^ ^ ^ 5 2 1 { ^ ^ / / 5 ^ ^ ^ / 2 ^ { ^ ^ ^ ^ ^ ^ ^ ^ ^ ^ ^ { ^ ^ ^ { [ ^ ( | { ^ ^ ^ ^ ^ / / ^ { 7 ^ ^ ^ ^ ^ ^ { ^ ^ ^ ^ ( / { / ^ ^ ^ ^ { ^ ^ ^ ^ ^ ^ ^ ^ ^ ^ ^ ^ ^ ^ ^ ^ ^ ^ ^ ^ ^ ^ ^ { ^ { ^ ^ ^ ^ { ^ { ^ ^ ^ ^ ^ ^ { ^ ^ ^ ^ ^ { ^ { ~ ~ ~ ~ ~ { { { { ~ . ",
". & ~ ~ ~ { ~ ~ { < < / < { { 2 / 8 / / ^ ^ ^ { ^ ^ ^ ^ ^ ^ ^ ^ ^ ^ ^ ^ ^ ^ ^ ^ ^ ^ / / ^ ( ^ 0 / a / ^ ^ ^ { ^ ^ ^ { ^ ^ ^ 2 1 ^ ^ { { { 5 2 ^ / { ^ ^ ^ ^ { ^ ^ ^ { | { ( ^ ^ ^ ^ ^ { ^ ^ ^ ^ ^ ^ / 2 b 3 ^ { ^ ^ ^ ^ ^ { ^ ^ ^ ^ ^ ^ ^ ^ ^ ^ ^ ^ ^ { ^ ^ { ^ ^ ^ 7 b 5 { ^ 0 9 / ^ ^ ^ ^ ^ ^ { { ^ ^ ^ ^ ^ ^ ^ ^ ^ ^ c { ^ { ^ { / / 4 ^ { ^ ^ { ^ { / / / { ^ ^ ^ ^ ^ ^ ^ ^ { { ^ ^ ^ ^ 5 7 1 ^ ^ ^ { ^ ^ ^ ^ ^ ^ ^ ^ ^ ^ ^ ^ ^ ^ ^ ^ ^ ^ ^ ^ ^ ^ { { ^ { ^ ^ ^ ^ ^ ^ ^ ^ ^ ^ { ^ { { ^ ^ ~ ~ ^ { ^ ^ ^ ~ ~ ~ ~ ~ { ~ ~ ~ . ",
". & ~ ~ ~ ~ ~ ~ ~ / { / / { { ^ { ^ ^ ^ ^ ^ 2 ^ ^ ^ ^ ^ ^ ^ ^ ^ ^ ^ ^ ^ 8 ^ ^ ^ ^ ^ ^ / / / / / 8 ^ ^ ^ ^ ^ { ^ ^ ^ { ^ ^ ^ ^ ^ ^ ^ { { { 7 ( ^ 2 { / | b / { ^ ^ { { / { ^ ^ ^ ^ ^ { { ^ ^ ^ ^ ^ ^ / a 7 ^ ^ ^ ^ ^ ^ ^ ^ ^ ^ ^ ^ ^ ^ ^ ^ ^ ^ ^ ^ ^ { ^ ^ ^ { ^ ^ | b a / ^ ( 7 ^ 2 ^ ^ ^ ^ ^ ^ { { ^ ^ ^ ^ ^ ^ ^ ^ ^ a ^ { ^ { ^ ^ / / ^ ^ { ^ ^ { ^ ^ { ^ [ { { ^ ^ ^ ^ ^ ^ ^ { { ^ { ^ ^ ^ ^ ^ ^ ^ ^ ^ ^ ^ ^ ^ { ^ ^ ^ ^ ^ ^ ^ ^ ^ ^ ^ ^ ^ ^ ^ ^ ^ { ^ ^ { ^ { ^ ^ ^ ^ ^ ^ ^ { ^ ^ { { ^ ~ ~ ~ ^ ^ ^ ^ ^ { ~ ~ ~ ~ { ~ ~ ~ . ",
". * ~ ~ ~ ~ ~ ~ ~ ~ ~ ~ ^ { { ^ { ^ ^ ^ ^ ^ ^ ^ ^ ^ ^ ^ ^ ^ ^ ^ ^ ^ ^ ^ / ^ ^ ^ ^ ^ 1 / / / | / / ^ ^ ^ ^ ^ ^ ^ ^ ^ ^ ^ ^ ^ ^ { ^ ^ { { ^ ^ ^ ^ ^ { 2 / ( 1 { ^ { { { / / / ^ ^ ^ ^ { { ^ ^ ^ ^ ^ ^ ^ / ^ ^ ^ ^ ^ ^ ^ ^ ^ ^ ^ ^ ^ ^ ^ ^ ^ ^ ^ ^ ^ ^ { { { ^ { ^ ^ ^ ^ ^ { { ^ ^ ^ ^ ^ { ^ ^ ^ ^ ^ ^ ^ ^ ^ ^ ^ ^ ^ ^ / / ^ { ^ { ^ ^ / / ^ ^ { ^ ^ ^ ^ ^ ^ ^ / { { ^ ^ ^ ^ 2 a { { { ^ { ^ ^ ^ ^ ^ ^ ^ ^ { ^ ^ ^ ^ ^ ^ ^ ^ ^ ^ ^ ^ ^ ^ ^ ^ ^ ^ ^ ^ ^ ^ { ^ ^ ^ ^ ^ ^ ^ ^ ^ ^ ^ ^ { ^ ^ { ^ ^ ~ ~ ~ ~ ~ ^ ^ ^ ~ ~ ~ ~ ~ ~ ~ ~ ~   ",
". * ~ ~ ~ ~ ~ { ~ ~ ~ ^ ^ { { ^ { ^ ^ ^ ^ ^ ^ { ^ ^ ^ ^ ^ ^ ^ ^ ^ ^ ^ ^ 6 7 ^ 5 ^ ^ ^ / / / 1 / { b ^ ^ ^ ^ ^ ^ ^ ^ ^ ^ ^ ^ ^ { ( 7 { ^ ^ ^ ^ { ^ { { ^ ^ ^ { ^ ^ { { ^ / 4 ^ ^ { { { { ^ ^ / ^ b / / ^ ^ ^ ^ ^ ^ ^ ^ ^ ^ ^ { ^ ^ ^ ^ ^ ^ ^ ^ { ^ ^ { { { { { ^ { { { ^ ^ ^ ^ ^ { { ^ { ^ { ^ ^ ^ ^ ^ ^ ^ ^ ^ ^ 1 ( 1 [ ^ { ^ ^ ^ ^ / / ^ { { ^ ^ ^ ^ ^ ^ ^ { { { ^ 7 ^ ^ { { { { ^ ^ ^ ^ ^ ^ ^ ^ ^ ^ ^ { ^ ^ ^ ^ ^ ^ ^ ^ ^ ^ ^ ^ ^ ^ ^ ^ ^ ^ { ^ ^ ^ { ^ { { ^ ^ ^ ^ ^ ^ ^ b 3 { ^ ^ ^ ~ ^ ~ ~ ~ ~ ~ ~ ^ ~ ~ ~ ~ ~ ~ ~ ~ ~ ~   ",
". & ~ ~ ~ ~ ~ ~ ~ { ^ ^ ^ { { ^ ^ ^ ^ ^ ^ ^ ^ ^ ^ ^ ^ ^ ^ ^ ^ ^ ^ ^ ^ ^ ^ / 6 ^ ^ ^ 2 / / 4 8 ^ { / ^ ^ ^ ^ ^ ^ ^ ^ ^ ^ ^ ^ ^ { 1 ( 1 ^ ^ ^ ^ { ^ { ^ ^ ^ ^ { ^ ^ ^ ^ ^ / a ^ ^ ^ { { { ^ / ^ ^ 7 ^ { ^ 1 ^ ^ ^ ^ ^ ^ ^ { ^ ^ ^ ^ ^ ^ ^ ^ ^ ^ { ^ { { ^ { ^ { ^ ^ { ^ ^ ^ ^ ^ ^ { { ^ { ^ ^ ^ ^ ^ ^ ^ ^ ^ ^ ^ 1 8 ^ ^ ^ ^ { ^ ^ ^ ^ / a ^ { { ^ ^ ^ ^ ^ { 2 { { ^ ^ ^ { ^ { { { { ^ ^ ^ ^ ^ ^ ^ ^ ^ ^ ^ { ^ ^ ^ ^ ^ ^ ^ ^ ^ ^ ^ ^ ^ ^ ^ ^ ^ { { ^ ^ ^ ^ { { ^ ^ ^ ^ ^ ^ ^ ^ / ^ b ^ ^ ^ ^ ~ ~ ~ ^ ~ ^ { { ~ ~ ~ ~ { ~ { ~ ~ ~   ",
". & ~ ~ ~ { ~ ~ ~ { ^ ^ ^ { { ^ ^ ^ ^ ^ ^ ^ ^ ^ 8 ^ ^ ^ ^ ^ ^ ^ ^ ^ ^ ^ ^ ( / ( ^ 9 / / | / | ^ ^ ^ ^ ^ ^ ^ { 2 ^ ^ ^ ^ ^ ^ ^ b 4 ^ / ^ ^ ^ ^ { { { ^ ^ ^ ^ ^ ^ ^ { ^ ^ ^ ^ ^ ^ { { { / / / / ^ ^ ^ ^ ^ ^ ^ ^ ^ ^ ^ ^ ^ { ^ ^ ^ ^ ^ ^ ^ ^ ^ ^ { ^ { { ^ ^ ^ ^ ^ ^ ^ ^ ^ ^ ^ ^ ^ { { ^ ^ ^ ^ ^ ^ ^ ^ ^ ^ ^ { ^ ^ ^ ^ ^ ^ ^ { ^ ^ ^ ^ / / ^ { { ^ ^ ^ ^ { { ^ { { ^ a 3 { ^ ^ { { { ^ ^ { ^ ^ ^ ^ { ^ ^ ^ ^ ( ^ ^ ^ ^ ^ ^ ^ ^ ^ ^ ^ ^ ^ ^ ^ ^ { { ^ ^ { { { { ^ ^ ^ ^ ^ ^ ^ ^ ^ ^ ^ ^ ^ ^ ^ ^ ^ ^ ^ ~ ~ ~ { ~ ~ ~ { ~ ~ ~ ~ ~ ~   ",
". & ~ ~ ~ { ~ { ~ ^ ^ ^ ^ { { ^ ^ ^ ^ ^ ^ ^ ^ ^ ^ ^ ^ ^ ^ ^ ^ ^ ^ ^ ^ ^ ^ ^ ( 3 / / / 3 ^ / | ^ { 1 ^ ^ { ^ { ^ ^ ^ 1 ^ ^ ^ ^ ^ 4 / / ^ ^ ^ ^ { { { ^ ^ ^ ^ ^ ^ ^ ^ ^ ^ ^ ^ ^ ^ ^ ^ { { / / b ^ ^ ^ ^ ^ ^ ^ ^ ^ ^ ^ ^ { { ^ ^ ^ ^ ^ ^ ^ ^ ^ ^ ^ ^ { { ^ { ^ ^ ( 8 ^ ^ ^ ^ { ^ ^ { { ^ ^ ^ ^ ^ ^ ^ { { ^ ^ { ^ ^ ^ ^ ^ ^ ^ { ^ ^ ^ ^ / / ( { { ^ ^ ^ ^ { { ^ { ^ ^ ^ ^ { ^ ^ { { ^ ^ ^ { ^ ^ { ^ { ^ ^ ^ ^ ^ ^ ^ ^ { ^ ^ ^ ^ ^ ^ ^ ^ ^ ^ ^ ^ { { ^ ^ ^ { { { ^ ^ ^ ^ ^ ^ ^ ^ ^ ^ ^ ^ ^ ^ ^ ^ ^ ^ ~ ~ ~ { { ^ ^ ^ { ~ ~ ~ ~ ~ ~   ",
". & ~ ~ ~ { ~ ~ ^ { ^ { ^ { { ^ ^ ^ ^ ^ ^ ^ ^ ^ ^ ^ ^ ^ ^ ^ ^ ^ ^ ^ ^ ^ ^ ^ ^ ^ ^ / 5 / ( / ( ^ ^ ^ ^ ^ { ^ ^ ^ ^ ^ ^ ^ ^ ^ ^ ^ ^ a ^ ^ ^ ^ { ^ ^ ^ ^ ^ ^ ^ ^ ^ ^ ^ ^ ^ ^ ^ ^ ^ ^ ^ ^ { 4 / 7 ^ ^ { ^ ^ ^ ^ ^ ^ ^ ^ ^ ^ ^ ^ ^ ^ ^ ^ ^ ^ ^ ^ ^ ^ ^ ^ ^ ^ { { ^ ^ ^ ^ ^ ^ ^ ^ ^ ^ ^ ^ ^ ^ ^ ^ ^ ^ ^ ^ { ^ ^ { ^ ^ ^ ^ ^ ^ ^ ^ ^ ^ { ^ ^ ^ ^ ^ ^ ^ ^ ^ ^ { ^ ^ { 2 ^ ^ ^ { ^ ^ { ^ ^ ^ ^ { ^ { { / { 0 ^ ^ ^ ^ ^ ^ ^ { ^ ^ ^ ^ ^ ^ ^ ^ ^ ^ ^ ^ { { ^ ^ ^ { { { ^ ^ ^ ^ ^ ^ ^ ^ ^ ^ { ^ ^ { ^ ^ ^ ^ ^ ~ ~ ~ ~ ~ ~ ^ { { { { ~ ~ ~ . ",
". * ~ ~ { { ~ ~ ^ { ^ { ^ { ^ ^ ^ ^ ^ ^ ^ ^ ^ ^ ^ ^ ^ ^ ^ ^ ^ 5 ^ ^ ^ ^ ^ ^ ^ ^ 3 4 ^ ^ ^ ^ ^ ^ ^ ^ ^ ^ ^ ^ ^ ^ ^ ^ ^ ^ ^ ^ ^ / / / { { { ^ { { ^ { ^ ^ ^ ^ ^ ^ ^ { ^ ^ ^ ^ ^ ^ { ^ ^ ^ / b 1 ^ ^ ^ ^ ^ ^ ^ ^ ^ ^ ^ ^ ^ ^ ^ ^ ^ ^ ^ ^ ^ ^ ^ ^ ^ ^ ^ ^ ^ { { ^ ^ ^ ^ ^ ^ ^ ^ ^ ^ { ^ ^ ^ ^ ^ ^ ^ ^ ^ { ^ { { ^ ^ ^ ^ { ^ ^ ^ ^ ^ ^ ^ ^ ^ ^ ^ ^ ^ ^ ^ ^ { ^ / { 6 / ^ ^ ^ ^ ^ { / / | ^ { ^ { { / { | 3 b ^ ^ ^ ^ ^ ^ ^ ^ ^ ^ ^ ^ ^ ^ ^ ^ ^ ^ { { { ^ ^ ^ ^ { ^ ^ / 9 ^ { ^ ^ ^ ^ { ^ ^ ^ ^ ^ ^ ^ ^ { ~ ~ ~ ~ ~ ~ ~ ~ { { ~ ~ ~ . ",
"  * ~ ~ { { ~ ~ ^ { ^ ^ { { ^ ^ ^ ^ ^ ^ ^ ^ ^ ^ ^ ^ ^ ^ ^ ^ ^ ( ^ ^ ^ ^ ^ ^ 1 1 b 7 ^ ^ ^ ^ ^ ^ ^ ^ ^ ^ ^ ^ ^ ^ ^ ^ ^ ^ ^ ^ ^ ^ ^ | { { { { ^ ^ ^ { ^ ^ ^ { { { { { ^ ^ ^ ^ ^ ^ { { ^ ^ ^ ^ ^ / 7 ^ ^ { ^ ^ ^ ^ ^ ^ ^ ^ ^ ^ ^ ^ ^ ^ ^ ^ { ^ ^ ^ ^ ^ ^ ^ ^ { { ^ ^ ^ ^ ^ ^ ^ ^ ^ ^ ^ ^ { ^ ^ { ^ ^ ^ ^ ^ { { ^ ^ ^ ^ ^ ^ ^ ^ ^ ^ ^ ^ ^ ^ ^ ^ ^ ^ ^ ^ ^ ^ 8 ^ { / / ^ ^ ^ ^ ^ { / / 4 ^ { ^ { 7 / { a ^ ( ^ ^ ^ ^ { ^ ^ ^ ^ ^ ^ ^ ^ ^ ^ ^ ^ ^ { { { ^ ^ ^ { { ^ ^ / ^ { { ^ ^ ^ ^ { ^ ^ ^ ^ ^ ^ ^ ^ ^ ^ ^ ^ ~ ~ ~ ~ ~ { { ~ ~ ~ . ",
"  * ~ ~ { ~ ~ ~ ~ ~ ^ ^ { ^ ^ ^ ^ ^ ^ ^ ^ ^ ^ ^ ^ ^ ^ ^ ^ ^ ^ ( ^ ^ ^ ^ ^ ^ ^ / / ^ ^ ^ ^ ^ ^ ^ ^ ^ ^ ^ [ 2 ^ ^ ^ { ^ ^ ^ ^ ^ ^ ^ 2 / { { { ^ ^ ^ { { { ^ { { ^ ^ { { ^ ^ ^ ^ ^ { ^ ^ ^ ^ ^ ^ / / ^ ^ ^ ^ ^ ^ ^ ^ ^ ^ ^ 0 ( ^ ^ ^ ^ ^ ^ { ^ ^ ^ ^ ^ { ^ ^ { { ^ ^ ^ ^ ^ ^ ^ ^ ^ ^ ^ ^ ^ { ^ { ^ ^ ^ ^ ^ { ^ ^ ^ ^ ^ ^ ^ ^ ^ ^ ^ ^ ^ ^ ^ ^ { ^ ^ ^ ^ ^ ^ 2 3 { 0 / ^ ^ ^ ^ ^ 4 { / | 3 { ^ ^ ^ { { / / ^ ^ ^ ^ ^ ^ ^ ^ ^ ^ ^ ^ ^ ^ ^ ^ ^ ^ ^ { ( ^ ^ ^ ^ { { ^ ^ ^ ^ ^ { ^ ^ ^ ^ { ^ ^ ^ ^ ^ ^ ^ ^ ^ ^ ^ ^ ^ ^ ~ { ~ { { ~ ~ ~ . ",
"  * ~ ~ ~ ~ ~ ~ ~ { ^ ^ ^ ^ { ^ ^ ^ ^ ^ ^ ^ ^ ^ ^ ^ ^ ^ ^ ^ ^ ^ ^ ^ ^ ^ ^ ^ ^ [ / ^ ^ ^ ^ ^ ^ ^ ^ ^ ^ { / / ^ ^ ^ { ^ ^ ^ ^ ^ ^ ^ 7 3 / | { ^ ^ ^ { { { ^ { { ^ ^ { { ^ ^ ^ ^ ^ { { ^ { ^ ^ ^ ^ / 2 ^ ^ ^ ^ ^ ^ ^ ^ ^ ^ [ ^ ^ ^ ^ ^ ^ ^ { ^ ^ ^ { ^ { ^ ^ { { ^ ^ ^ ^ ^ ^ { ^ ^ ^ ^ ^ ^ { ^ ^ ^ ^ ^ ^ ^ { ^ ^ ^ ^ ^ ^ ^ { ^ ^ ^ ^ ^ ^ ^ ^ { ^ ^ ^ ^ ^ ^ 3 / / / 3 ^ ^ ^ ^ ^ ^ / / / / { / ^ ^ { { ^ ^ ^ ^ ^ ^ ^ { ^ ^ ^ ^ ^ ^ ^ ^ ^ ^ ^ ^ ^ { ^ ^ ^ ^ ^ ^ { ^ ^ ^ 6 ^ { ^ ^ ^ ^ { ^ ^ ^ ^ ^ ^ ^ ^ ^ ^ ^ ^ ^ ^ ^ { { { { { { { . ",
"  * ~ ~ { ~ ~ { ^ { ~ ~ { ^ ^ ^ ^ ^ ^ ^ ^ ^ ^ ^ ^ ^ ^ ^ ^ ^ ^ ^ ^ ^ ^ ^ ^ ^ ^ ^ 2 ^ ^ ^ ^ ^ ^ ^ ^ ^ ^ { ^ ^ ^ ^ ^ ^ ^ ^ ^ ^ ^ { ^ 9 ^ / { ^ ^ ^ { ^ ^ { ^ { ^ ^ ^ { ^ ^ ^ ^ ^ ^ { { ^ { { ^ ^ ^ ^ ^ ^ ^ ^ ^ ^ ^ ^ ^ ^ ^ ^ ^ ^ ^ ^ ^ ^ ^ ^ ^ ^ ^ { ^ { ^ ^ { ^ { ^ { ^ ^ ^ ^ ^ ^ ^ ^ ^ ^ ^ ^ ^ ^ ^ ^ ^ ^ { ^ ^ ^ ^ ^ ^ ^ { { ^ ^ ^ ^ ^ ^ ^ ^ ^ ^ ^ ^ ^ ^ ^ ^ b b { ^ ^ ^ 2 ^ ^ / | / / / / / 3 ^ ^ ^ ^ ^ ^ ^ 3 5 { ^ ^ ^ ^ ^ ^ ^ ^ ^ ^ ^ { ^ { { ^ ^ ^ ^ ^ { ^ ^ { 1 ^ { ^ ^ ^ ^ ^ ^ ^ { ^ ^ ^ ^ ^ ^ ^ ^ ^ ^ ^ ^ ^ { { { { { { . ",
"  * ~ ~ { ~ ~ { ^ { ~ ~ { ^ ^ ^ ^ ^ ~ ^ ^ ^ ^ ^ ^ ^ ^ ^ ^ ^ ^ ^ ^ ^ ^ ^ ^ ^ ^ ^ ^ ^ ^ ^ ^ ^ ^ ^ { ^ ^ { ^ ^ ^ ^ ^ ^ ^ ^ ^ ^ ^ ^ 4 3 ^ { { / ^ ^ ^ ^ ^ { { { ( { ^ ^ ^ ^ ^ ^ ^ { { ^ ^ ^ ^ ^ ^ ^ ^ ^ ^ ^ ^ ^ ^ ^ ^ ^ ^ ^ ^ ^ ^ ^ ^ ^ ^ ^ ^ ^ ^ ^ { ^ { ^ ^ { ^ { { { ^ ^ ^ { ^ ^ ^ ^ ^ ^ ^ ^ ^ ^ ^ ^ ^ ^ ^ ^ ^ ^ ^ ^ ^ ^ { ^ ^ ^ / / 1 ^ ^ ^ ^ ^ ^ ^ ^ ^ ^ ^ ^ b { ^ { { ^ ^ 4 5 ^ 2 { / / b ^ ^ ^ ^ [ 1 2 / / / ^ ^ ^ ^ ^ ^ ^ ^ ^ ^ ^ ^ { ^ ^ ^ ^ ^ ^ ^ ^ ^ ^ ^ { ^ ^ ^ ^ ^ ^ ^ ^ ^ ^ { ^ ~ ^ ^ ^ ^ ^ ^ ^ ^ ^ ^ ^ { { { ~ ~ ~ . ",
". & ~ ~ { ~ ~ { ~ { { ~ { ^ ^ ^ ^ ^ ^ ~ ^ ^ ^ ^ ^ ^ ^ ^ ^ ^ ^ ^ ^ ^ ^ ^ ^ ^ ^ ^ ^ ^ ^ ^ ^ ( ^ ^ { ^ ^ { ^ ^ ^ 5 ^ ^ ^ ^ ^ ^ ^ 2 5 ^ { { { { ^ ^ { ^ ^ { 4 { / { ^ ^ { ^ ^ ^ ^ { { ^ ^ ^ ^ ^ 1 ( ^ ^ ^ ^ ^ ^ { 4 ^ 6 ^ { ^ ^ ^ ^ { ^ ^ ^ { ^ ^ ^ { ^ ^ ^ ^ { ^ { ^ ^ ^ ^ ^ ^ ^ ^ ^ ^ { { { ^ ^ ^ ^ ^ ^ ^ ^ ^ ^ ^ ^ ^ ^ ^ ^ 1 ^ 7 9 / ^ ^ ^ ^ ^ ^ ^ ^ ^ { ^ { ^ ^ ^ ^ { { / | ( ^ ^ ^ { ( 6 [ ^ ^ { ^ ^ 2 ^ / 2 ^ ^ ^ ^ ^ ^ ^ ^ 5 ^ ^ ^ ^ ^ ^ ^ ^ ^ ^ ^ { ^ { ^ { { 1 ^ ^ ^ ^ ^ ^ ^ ^ ^ ^ ~ ~ ~ ~ ~ ~ ^ ^ ^ ^ ^ ^ ^ { ~ { ~ { ~   ",
". & ~ ~ ~ ~ ~ ~ ~ { ^ ^ { { { ^ ^ ^ ^ ^ ^ ^ ^ ^ ^ ^ ^ ^ ^ ^ ^ ^ ^ ^ ^ ^ ^ ^ ^ ^ ^ ^ ^ ^ ^ 7 [ 2 { ^ ^ ^ ^ ^ ^ a a { ^ ^ ^ ^ ^ ^ ^ ^ ^ { { { ^ { ^ ^ ^ ^ { ^ ( ^ { ^ { ^ ^ ^ ^ ^ ^ ^ ^ ^ c 1 / c ^ ^ ^ ^ ^ / { b ^ ^ 2 { ^ ^ ^ ^ ^ ^ ^ ^ { ^ ^ ^ { ^ ^ ^ ^ { ^ { ^ ^ ^ ^ ^ ^ ^ ^ { ^ { { { ^ ^ ^ ^ ^ ^ ^ ^ ^ ^ ^ ^ ^ ^ ( ^ ^ ^ / / / ( ^ ^ ^ ^ ^ ^ ^ ^ { ^ { ^ ^ ^ ^ { { ^ ^ ^ ^ ^ ^ { { / / ^ ^ { ^ ^ ^ ^ ^ 1 ^ ^ ^ ^ ^ ^ ^ ^ ^ ^ ^ ^ ^ ^ ^ ^ { ^ ^ ^ { ^ { ^ { { ^ ^ ^ ^ ^ ^ ^ ^ ^ ^ { ^ ~ ~ ~ ~ ~ ^ ^ ^ ^ ^ ^ ^ { ~ { ~ ~ ~   ",
". * ~ ~ { ~ ~ ~ ~ { ^ ^ { { ^ ^ ^ ^ ^ ^ ^ ^ ^ ^ ^ ^ ^ ^ ^ ^ ^ ^ ^ ^ ^ ^ ^ ^ ^ ^ ^ ^ ^ ^ ^ ^ ^ ^ { ^ ^ ^ ^ ^ ^ ^ ^ ^ ^ ^ ^ ^ ^ ^ ^ ^ ^ ^ { ^ ^ ^ ^ ^ ^ ^ ^ ^ 4 / { ^ { ^ ^ { ^ ^ ^ ^ ^ / ( [ / 2 ^ ^ ^ ^ ^ 7 { ^ ^ ^ ( 2 ^ ^ ^ ^ ^ ^ ^ ^ { ^ ^ ^ { ^ ^ ^ ^ ^ ^ { ^ ^ ^ ^ ^ ^ ^ ^ { ^ { { ^ ^ ^ ^ { ^ ^ ^ ^ ^ ^ ^ ^ ^ / / ( ^ ^ ^ ^ ^ 3 ^ ^ ^ ^ ^ ^ ^ ^ { ^ { ^ ^ ^ ^ { ^ ^ ^ ^ { ^ ^ ^ { ^ { 2 ^ { ^ ^ ^ ^ ^ / ^ ^ ^ ^ ^ ^ ^ ^ ^ ^ ^ ^ ^ ^ 1 ^ ^ ^ ^ { { ^ { ^ ^ ( 5 { ^ ^ { ^ ^ ^ ^ ^ ^ ^ ^ ^ ~ ^ ^ ^ ^ ~ ~ ^ ~ ^ ~ ~ ~ ~ ~ {   ",
"  * ~ ~ { ~ ~ ~ { { ^ ^ { { ^ [ ^ ^ ^ ^ ^ ^ ^ ^ ^ ^ ^ ^ ^ ^ ^ ^ ^ ^ ^ ^ ^ ^ ^ ^ ^ ^ ^ ^ ^ ^ ^ ^ { ^ ^ ^ ^ ^ ^ ^ { ^ ^ ^ ^ ^ ^ ^ ^ { ^ { { { ^ ^ ^ ^ { ^ ^ { 7 7 ^ ^ ^ ^ ^ ^ ^ ^ ^ { ^ { ^ / / ^ ^ ^ ^ ^ ^ ^ { { { { 1 / ^ ^ ^ ^ { ^ ^ ^ { ^ ^ ^ ^ ^ ^ ^ ^ { ^ { ^ { ^ ^ ^ ^ ^ ^ { ^ { { { ^ ^ ^ { ^ 4 ^ ^ ^ ^ ^ ^ ^ ^ ^ ^ ^ ^ ^ ^ ^ ^ ^ ^ ^ ^ ^ ^ ^ ^ { ^ { ^ ^ { ^ ^ ^ ^ ^ ^ { ^ ^ { ^ 0 { { ^ { ^ ^ ^ ^ ^ 0 ^ ^ ^ ^ ^ ^ ^ ^ ^ ^ ^ ^ ^ ^ ^ ^ ^ ^ ^ ^ ^ { { ^ ^ ^ ^ { ^ { { ^ ^ ^ ^ ^ ^ ^ ^ ^ ^ ^ ^ ^ ^ ^ ^ ^ ~ ~ ~ ~ ~ ~ ~ { . ",
"  & ~ ~ { ~ ~ ~ { { ^ ^ { { 7 / 1 ^ ^ ^ ^ ~ ^ ^ ^ ^ ^ ^ ^ ^ ^ ^ ^ ^ ^ ^ ^ ^ ^ ^ ^ ^ ^ ^ ^ ^ ^ ^ ^ ^ ^ ^ ^ ^ ^ ^ { ^ ^ ^ ^ ^ ^ ^ ^ ^ { { { { ^ ^ ^ ^ { ^ ^ { ^ ^ ^ ^ ^ ^ { { ^ ^ ^ { ^ ( / ^ ^ ^ ^ ^ ^ ^ ^ ^ b / { { / { ^ ^ ^ ^ { ^ ^ ^ { ^ ^ ^ ^ ^ { ^ ^ { ^ { ^ ^ ^ ^ ^ ^ ^ ^ { ^ ^ ^ { ^ ^ ^ { ^ 1 ^ ^ ^ ^ ^ ^ ^ ^ ^ ^ ^ ^ ^ ^ ^ ^ ^ ^ { ^ ^ ^ ^ ^ { ^ { ^ ^ ^ ^ { ^ ^ ^ ^ { ^ ^ { ^ ^ ^ { ^ { ^ ^ ^ ^ ^ 5 ^ ^ ^ ^ ^ ^ ^ ^ ^ ^ ^ ^ ^ ^ ^ ^ ^ ^ ^ ^ ^ { { ^ ^ ^ ^ ^ ^ ^ ^ ^ ^ ^ ^ ^ ^ ^ ^ ^ ^ ^ ^ b / ^ ^ ~ ~ { { ~ { ~ ~ { . ",
"  & ~ ~ { ~ ~ ~ { { ^ ^ / { / / 0 ^ ^ ^ ^ ~ ~ ^ ^ ^ ^ ^ ^ ^ ^ ^ ^ ^ ^ ^ ^ ^ ^ ^ ^ ^ ^ ^ ^ ^ ^ ^ ^ ^ ^ ^ ^ ^ ^ ^ { ^ ^ ^ ^ ^ ^ ^ ^ ^ ^ { { { { ^ { ^ { ^ ^ { { ^ ^ ^ ^ ^ 6 ^ { ^ ^ { ^ ^ ^ ^ ^ ^ ^ ^ ^ ^ ^ 1 3 2 ^ ^ { { ^ ^ ^ ^ ^ ^ ^ ^ { ^ ^ ^ ^ ^ ^ ^ ^ { ^ { ^ ^ ^ ^ ^ ^ ^ ^ { ^ { ^ { ^ ^ ^ { ^ ^ ^ { ^ ^ ^ ^ ^ { ^ ^ ^ ^ ^ ^ ^ ^ ^ ^ { ^ ^ ^ ^ ^ { ^ { ^ { { ^ { ^ ^ ^ ^ { ^ ^ { [ ^ ^ { ^ { ^ ^ ^ ^ 4 2 ^ { ^ ^ ^ ^ ^ ^ ^ ^ ^ ^ ^ ^ ^ ^ ^ ^ ^ ^ ^ ^ { { { ^ ^ ^ ^ ^ ^ ^ ^ ^ ^ { ^ ^ ^ ^ ^ ^ a 5 / / ^ ^ ^ { { ~ { ~ ~ {   ",
"  & ~ ~ { ~ } ~ { { ^ ^ { { / ^ ^ ^ ^ ^ ^ ^ ^ ^ ^ ^ ^ ^ ^ ^ ^ ^ ^ ^ ^ ^ ^ ^ ^ ^ ^ ^ ^ ^ ^ ^ ^ ^ { ^ ^ ^ ^ ^ ^ ^ ^ ^ ^ ^ ^ ^ ^ ^ ^ { ^ { { ^ { ^ { ^ { { ^ { { 0 { ^ ^ ^ ^ ^ ^ ^ { { ^ ^ ^ ^ ^ ^ { ^ ^ ^ ^ ^ ^ ^ ^ ^ { { ^ ^ ^ ^ ^ ^ ^ ^ ^ ^ ^ ^ { ^ ^ ^ ^ { ^ { ^ { ^ ^ ^ ^ ^ ^ ^ ^ { { { ^ ^ ^ { ^ ^ ^ { ^ { ^ ^ ^ { ^ { ^ ^ ^ ^ ^ ^ ^ ^ { ^ ^ ^ ^ ^ { ^ ^ ^ { { ^ { 3 ^ ^ ^ { { ^ ^ ^ ^ ^ { ^ ^ ^ ^ ^ ^ ^ ^ ^ { ^ ^ ^ ^ ^ ^ ^ ^ ^ ^ { ^ { { { ^ ^ ^ ^ ^ ^ { { ^ ^ ^ ^ ^ ^ ^ ^ ^ ^ { ^ ^ ^ ^ ^ ^ ^ ^ ^ a ^ ^ ^ ^ ~ ~ { ~ ~ ~   ",
"  & ~ ~ { ~ / / ~ ^ ^ { { { ^ ^ ^ ^ { ^ ^ ^ ^ ^ ^ ^ ^ ^ ^ ^ ^ ^ ^ ^ ^ ^ ^ ^ ^ ^ ^ ^ ^ ^ ^ ^ ^ ^ { ^ ^ ^ ^ ^ ^ ^ ^ ^ ^ ^ ^ ^ ^ ^ ^ { { { { ^ { ^ { ^ { ^ ^ { { ( { ^ ^ ^ ^ ^ ^ ^ { { ^ ^ ^ ^ ^ ^ { ^ 2 2 ^ ^ ^ ^ ^ ^ [ { ^ ^ ^ ^ ^ ^ ^ ^ ^ ^ ^ ^ ^ ^ { ^ ^ { { { { { ^ ^ ^ ^ ^ ^ { ^ { { { ^ ^ ^ { ^ ^ ^ { ^ { ^ ^ ^ { ^ { ^ ^ ^ ^ ^ ^ ^ ^ ^ ^ ^ ^ ^ ^ { ^ { ^ { { { { ^ ^ ^ ^ { { ^ ^ ^ ^ ^ ^ ^ 5 ^ ^ ^ ^ ^ ^ ^ { ^ ^ { ^ ^ ^ ^ ^ ^ ^ ^ ^ { ^ ^ ^ ^ ^ ^ ^ { { ^ ^ ^ ^ ^ ^ ^ ^ ^ ^ ^ { ^ ^ ^ ^ ^ ^ { ^ ^ ^ ^ ^ ^ { ~ ~ { ~ ~ ~   ",
"  & ~ ~ { ~ / / { { 2 { { { ^ ^ ^ ^ ^ ^ ^ ^ ^ ^ ^ ^ ^ ^ ^ ^ ^ ^ ^ ^ ^ ^ ^ ^ ^ ^ ^ ^ ^ ^ ^ ^ ^ ^ ^ ^ ^ { 5 / ^ ^ ^ ^ ^ ^ ^ ^ ^ ^ ^ { ^ ^ { { { ^ { ^ { a / { { { { ^ ^ ^ ^ ^ { ^ ^ ^ ^ ^ ^ ^ ^ ^ { { 7 b ^ { ^ ^ ^ { ^ ^ ^ ^ ^ ^ ^ ^ ^ ^ ^ ^ ^ { { ^ { ^ ^ { { { { ^ ^ ^ ^ ^ ^ ^ { ^ { { { ^ ^ ^ { ^ ^ ^ { ^ { ^ ^ ^ ^ ^ ^ ^ ^ ^ ^ ^ ^ ^ ^ ^ ^ ^ ^ ^ { { ^ { ^ { { { ^ ^ ^ ^ | { { { ^ ^ ^ ^ ^ ^ 8 ^ ^ ^ ^ ^ ^ ^ { ^ / { ^ 6 5 4 ^ ^ ^ ^ ^ ^ ^ ^ ^ ^ { ^ ^ ^ ^ ^ ^ ^ ^ ^ ^ ^ ^ ^ ^ ^ ^ ^ ^ ^ ^ ^ ^ { { ^ ^ ^ ^ ^ ^ ~ ~ { ~ ~ ~   ",
"  & ~ ~ { ~ / / { { ^ ^ { ^ ^ ^ ^ ^ ~ ~ ~ ~ ~ ^ ^ ^ ^ ^ ^ ^ ^ ^ ^ ^ ^ ^ ^ ^ ^ ^ ^ ^ ^ ^ ^ ^ ^ ^ ^ ^ { { ^ ^ 1 ^ ^ ^ ^ ^ ^ ^ ^ ^ ^ { { ^ { { { ^ { ^ { { { / { { { c ^ ^ ^ ^ ^ ^ { ^ ^ ^ ^ ^ ^ ^ { { ^ ^ ^ { ^ ^ ^ ^ ^ ^ ^ ^ ^ ^ ^ ^ ^ ^ ^ ^ ^ { { ^ { ^ ^ { { { { ^ ^ ^ ^ ^ ^ ^ { ^ ^ { { ^ ^ ^ ^ ^ ^ ^ { ^ ^ ^ ^ ^ ^ ^ { ^ ^ ^ ^ ^ ^ ^ { ^ ^ ^ ^ ^ { ^ ^ { { ^ { ^ ^ ^ ^ ^ ^ { { { ^ ^ ^ ^ [ 6 ( ^ ^ ^ ^ ^ ^ ^ { ^ / { ^ 1 ^ ^ ^ ^ 8 { ^ { { ^ ^ ^ { { ^ ^ ^ ^ ^ ^ ^ ^ ^ ^ ^ ^ ^ ^ ^ ^ ~ ^ ^ ^ ^ ^ { ^ ^ ^ ^ ^ { ~ ~ { ~ { {   ",
"  & ~ ~ { ~ ~ ~ { { ^ ^ { ^ ^ ^ ^ ^ ~ ~ ^ ^ ^ ^ ^ ^ ^ ^ ^ ^ ^ ^ ^ ^ ^ ^ ^ ^ ^ ^ ^ ^ ^ ^ ^ ^ ^ ^ ^ ^ { ^ ^ ^ ^ ^ ^ ^ ^ ^ ^ ^ ^ ^ ^ { { { { { ^ ^ { ^ { ^ { 7 { ^ { ^ ^ ^ ^ ^ ^ ^ ^ ^ ^ ^ ^ 1 b ^ ^ ^ ^ ^ ^ { ^ ^ ^ { ^ ^ ^ ^ ^ ^ ^ ^ ^ ^ ^ ^ ^ { { ^ { ^ ^ ^ { { { { ^ ^ ^ ^ ^ ^ ^ ^ ^ ^ ^ ^ ^ ^ { ^ ^ ^ { ^ ^ ^ ^ ^ ^ ^ { ^ ^ ^ ^ ^ ^ ^ { ^ ^ ^ ^ ^ { { ^ { ^ ^ { ^ ^ ^ ^ ^ ^ { ^ { ^ { ^ ^ 7 3 { ^ ^ ^ ^ ^ ^ ^ { ^ / { ^ ^ ^ ^ ^ ^ ^ ^ ^ { { ^ ^ ^ { { { { ^ ^ ^ ^ ^ ^ ^ ^ ^ ^ ^ ^ ~ ^ ~ ^ ^ ^ ^ ^ { ^ ^ ^ ^ ^ { ~ ~ { ~ ~ {   ",
"  * { ~ { ~ ~ ~ { { ^ ^ { ^ ^ / ^ ^ { / ^ ^ ^ ^ ^ ^ ^ ^ ^ ^ ^ ^ ^ ^ ^ ^ ^ ^ ^ ^ ^ ^ ^ ^ ^ ^ ^ ^ { ^ { ( / { ^ ^ { ^ 3 ^ ^ ^ ^ ^ ^ ^ { ^ { { ^ ^ { ^ { ^ { { { { ^ ^ ^ ^ ^ ^ ^ ^ { { ^ ^ ^ ^ ^ ^ ^ ^ ^ ^ ^ { ^ ^ ^ ^ ^ ^ ^ ^ ^ ^ ^ ^ ^ ^ ^ ^ ^ { { ^ { ^ ^ ^ ^ { { { ^ ^ ^ ^ ^ ^ ^ ^ ^ { ^ ^ ^ ^ { ^ ^ b ^ ^ ^ ^ ^ ^ ^ ^ ^ ^ ^ ^ ^ ^ ^ ^ { ^ ^ ^ ^ ^ ^ ^ ^ { ^ ^ { ^ ^ ^ ^ ^ ^ { ^ { ^ { ^ ^ { 5 { ^ ^ 8 ^ { { ^ ^ 0 | ^ ^ ^ ^ ^ ^ ^ ( ^ ^ ^ ^ ^ ^ ^ { ^ { ^ ^ ^ ^ ^ ^ 1 2 1 ^ ^ ^ ^ ~ ~ ^ ^ ^ ^ ^ ^ { ^ ^ ^ ^ ^ ^ ~ ~ ~ ~ ~ {   ",
"  * { ~ ~ ~ ~ ~ ^ { ^ ^ { { ^ ^ ^ ^ ^ / ^ 1 ^ ^ ^ ^ ^ ^ ^ ^ ^ ^ ^ ^ ^ ^ ^ ^ ^ ^ ^ ^ ^ ^ ^ ^ ^ ^ { ^ { 2 ^ { ^ ^ ^ ^ ^ ^ ^ ^ ^ ^ ^ ^ { { { { { { { ^ { ^ { { { { { ^ ^ ^ ^ { ^ ^ ^ ^ ^ ^ ^ ^ ^ ^ ^ ^ ^ ^ ^ ^ ^ ^ ^ ^ ^ ^ ^ ^ ^ ^ ^ ^ ^ ^ ^ ^ ^ ^ ^ ^ { ^ ^ { ^ ^ ^ { ^ ^ ^ ^ ^ ^ ^ ^ ^ { ^ ^ ^ ^ { ^ ^ ^ ^ ^ ^ ^ ^ ^ ^ ^ ^ ^ ^ ^ ^ ^ ^ ^ ^ ^ ^ ^ ^ ^ ^ ^ ^ ^ ^ ^ { ^ ^ ^ ^ ^ ^ { ^ { ^ ^ ^ ^ { ^ ^ ^ ^ ^ ^ ^ ^ ^ ^ / ^ { ^ ^ ^ ^ ^ ^ ^ ^ ^ ^ { ^ ^ ^ { ^ { ^ ^ ^ ^ { ^ 2 / ^ ^ ^ ^ ^ { ^ ^ ^ ^ ~ ~ ^ { ^ ^ ^ ^ ^ ^ / ~ ~ ~ ~ ~   ",
"  * { ~ ~ ~ ~ ~ ^ { ^ ^ { { ^ ^ ^ ^ ^ ^ 8 1 ^ ^ ^ ^ ^ ^ ^ ^ ^ ^ ^ ^ ^ ^ ^ ^ ^ ^ ( / / ^ ^ ^ ^ ^ ^ / { ^ ^ ^ ^ ^ ^ ^ ^ ^ ^ ^ ^ ^ ^ { ^ { { { { ^ { ^ { ^ { { { { ^ ^ ^ ^ ^ ^ { { { { ^ ^ ^ ^ ^ ^ ^ ^ ^ ^ ^ ^ ^ ^ ^ ^ ^ ^ ^ ^ ^ ^ ^ ^ ^ ^ ^ ^ ^ ^ ^ ^ { ^ { { { ^ ^ { ^ ^ ^ ^ ^ ^ ^ ^ { { ^ ^ ^ ^ { 1 ^ ^ ^ ^ ^ ^ ^ ^ ^ { { ^ ^ ^ ^ ^ ^ ^ { ^ ^ ^ ^ ^ ^ ^ ^ ^ ^ ^ ^ ^ ^ ^ ^ ^ ^ { ^ { ^ ^ ^ ^ { ^ ^ ^ ^ 1 ^ ^ ^ ^ { b ( { ^ ^ ^ ^ ^ ^ ^ { ^ ^ ^ ^ ^ ^ { ^ ^ ^ ^ ^ ^ ^ ^ ^ { ^ ^ ^ ^ ^ { ^ ^ ^ ^ ^ ^ ^ { ^ ^ ^ ^ ^ ^ ~ ~ ~ ~ { {   ",
". * ~ ~ ~ ~ ~ ~ ^ { ^ ^ { { ^ ^ ^ ^ ^ [ / [ ^ ^ ^ ^ ^ ^ ^ ^ ^ ^ ^ ^ ^ ^ ^ ^ [ ^ 5 b / ^ ^ ^ ^ ^ ^ / / ( ^ ^ ^ ^ ^ 8 ^ ^ ^ ^ ^ ^ ^ { ( 2 a [ { ^ { ^ { ^ { { { { { ^ ^ ^ ^ ^ { { { ^ { ^ ^ ^ ^ ^ ^ ^ ^ ^ ^ ^ ^ ^ ^ ^ ^ ^ ^ ^ ^ ^ { ^ ^ ^ ^ ^ ^ ^ ^ ^ ^ ^ { { { ^ ^ { ^ ^ ^ ^ ^ ^ ^ ^ { { ^ ^ ^ ^ { ^ ^ ^ { ^ ^ ^ ^ ^ ^ { { ^ ^ ^ ^ ^ ^ ^ { ^ ^ ^ ^ ^ ^ ^ ^ ^ ^ ^ ^ ^ ^ ^ 5 ^ ^ { ^ { { ^ ^ { { ^ ^ ^ ^ ^ ^ ^ ^ ^ { ^ ^ { ^ ^ ^ ^ ^ ^ ^ ^ { ^ ^ ^ ^ ^ ^ ^ ^ { ^ ^ ^ ^ ^ ^ ^ ^ ^ ^ ^ ^ { ^ ^ ^ ^ ^ ^ ^ { ^ ^ ~ ~ ~ ^ { ~ ~ ~ { {   ",
". * ~ ~ ~ ~ ~ ~ ^ { ^ ^ { { ^ ^ ^ ^ 7 / { ^ ^ ^ ^ ^ ^ ^ ^ ^ ^ ^ ^ ^ ^ ^ ^ ^ ^ / / | 4 ^ 1 ^ ^ ^ ^ 8 ^ ^ ^ ^ ^ ^ / ^ ^ ^ ^ ^ ^ ^ ^ { 0 { { ^ { ^ { ^ { ^ { ^ { ^ ^ ^ ^ { ^ ^ { { { ^ { ^ ^ ^ ^ ^ ^ ^ ^ ^ ^ ^ ^ ^ ^ ^ ^ ^ ^ ^ ^ ^ { ^ ^ ^ ^ ^ ^ ^ ^ ^ ^ ^ { { { ^ ^ { ^ ( ^ ^ ^ ^ { ^ { ^ ^ ^ ^ 2 { ^ ^ ^ ^ ^ ^ ^ ^ ^ ^ { { ^ ^ ^ ^ ^ ^ ^ { ^ ^ ^ ^ ^ ^ ^ ^ ^ ^ { ^ ^ ^ ^ ^ ^ ^ { 6 { { ^ ^ { { ^ ^ ^ ^ 5 ^ ^ ^ ^ 3 ^ ^ { ^ ^ ^ ^ ^ ^ ^ ^ { ^ { ^ ^ ^ { ^ { { ^ { ^ ^ ^ ^ { ^ ^ ^ ^ ^ ^ ^ ^ ^ ^ ^ { ^ ^ ^ ^ ~ ~ ^ { { ~ ~ ~ { {   ",
"  * ~ ~ { ~ ~ ~ { ^ ^ ^ { ~ ^ ^ ^ ^ 7 ^ / ^ ^ ^ ^ ^ ^ ^ ^ ^ ^ ^ ^ ^ ^ ^ ^ ^ ^ ^ ^ ^ ^ ^ ^ ^ ^ 5 5 ^ 1 ^ ^ ^ ^ ^ ^ ^ ^ ^ ^ ^ ^ ^ ^ { ( / { ^ ^ ^ { ^ { ^ ^ ^ { ^ ^ ^ ^ { ^ ^ { { { ^ { ^ [ 2 ^ ^ ^ ^ ^ ^ ^ ^ ^ ^ ^ ^ ^ ^ ^ ^ ^ ^ { ^ ^ ^ ^ ^ ^ ^ ^ ^ ^ [ { { ^ ^ ^ { 1 ( ^ ^ ^ ^ { { { ^ ^ ^ ^ 4 { ^ 8 8 ^ ^ ^ ^ ^ ^ ^ { { ^ ^ ^ ^ ^ ^ ^ { ^ ^ ^ ^ ^ ^ ^ ^ { ^ { ^ { { ^ ^ ^ ^ { ^ { { ^ ^ { { ^ ^ ^ 5 7 ^ ^ ^ { ^ ^ ^ ^ ^ ^ ^ ^ ^ ^ ^ ^ ^ ^ { ^ ^ ^ { { { { { { ^ ^ ^ ^ { ^ ^ ^ ^ ^ ^ ^ ^ ^ ^ ^ { ^ { ^ ^ ~ ^ ^ { { ~ ~ ~ { {   ",
". * ~ ~ { ~ { ~ { ~ ^ ^ { ^ ^ ^ ^ { 2 ^ / ^ ^ ^ ^ ^ ^ ^ ^ ^ ^ ^ ^ ^ ^ ^ ^ ^ ^ ^ ^ ^ ^ ^ ^ ^ ^ 1 / 7 b ^ ^ ^ ^ ^ ^ 3 ( ^ ^ ^ ^ ^ ^ { { ^ { ^ ^ ^ { ^ { ^ ^ ^ { ^ ^ ^ ^ ^ ^ ^ ^ ^ { ^ { / / ^ ^ ^ ^ ^ ^ ^ ^ ^ ^ ^ ^ ^ ^ ^ ^ ^ ^ ^ ^ ^ ^ ^ ^ ^ ^ ^ ^ ^ 5 ^ ^ ^ ^ { ^ ^ ^ ^ ^ ^ ^ ^ { { { ^ ^ ^ ^ ^ { ^ ^ { ^ ^ ^ ^ ^ ^ { { ^ ^ ^ { ^ ^ ^ ^ { ^ ^ ^ { ^ ^ ^ ^ { { { ^ ^ ^ ^ { { ^ { ^ { 4 { ^ { { ^ ^ ^ ^ ^ ^ ^ ^ { ^ ^ ^ ^ ^ ^ ^ ^ ^ ^ ^ { { ^ { ^ ^ ^ { ^ { ^ { { ^ { ^ ^ { ^ ^ ^ { ^ ^ ^ ^ ^ ^ ^ { ^ { ^ ^ ~ ^ { { ~ ~ ~ ~ { ~   ",
". * ~ ~ { ~ { ~ { { ^ ^ { ^ ^ ^ ^ { ^ ^ / ^ ^ ^ ^ ^ ^ ^ ^ ^ ^ ^ [ 2 ^ ^ ^ ^ ^ ^ ^ ^ ^ ^ 2 1 ^ ^ / 7 { ^ ^ ^ ^ ^ { / / c ^ ^ ^ ^ ^ { { ^ { 3 ( ^ { ^ ^ ^ { ^ { ^ ^ ^ ^ ^ ^ { { ^ { / / [ ^ ^ ^ ^ ^ ^ ^ ^ ^ ^ ^ ^ ^ ^ ^ ^ ^ ^ ^ ^ ^ ^ ^ ^ ^ ^ ^ ^ ^ 5 7 ^ ^ ^ ^ { ^ ^ ^ ^ ^ ^ ^ ^ { { ^ ^ ^ ^ ^ ^ { ^ ^ { ^ ^ ^ ^ ^ ^ { { ^ ^ ^ { ^ ^ ^ ^ { ^ ^ ^ { { ^ ^ ^ { { { ^ ^ ^ ^ { { ^ { ^ { / { ^ { ^ ^ ^ ^ ^ ^ ^ ^ ^ { { ^ ^ { ^ ^ ^ ^ ^ ^ { { { ^ { ^ ^ { ^ ^ { ^ { ^ ^ { ^ ^ { ^ ^ ^ ^ ^ { ^ ^ ^ ^ ^ { ^ { _ ~ ^ ^ { { ~ ~ ~ ~ { ~   ",
". * ~ ~ { ~ { ~ { ^ ^ ^ { ^ ^ ^ ^ { ^ ^ / ^ ^ ^ ^ ^ ^ ^ ^ ^ ^ ^ [ / / ^ ^ ^ ^ ^ ^ ^ ( 7 [ 2 ^ ^ ^ ^ { 5 ^ ^ ^ { { / | 2 ^ ^ ^ ^ ^ { { ^ { 6 / ^ ^ ^ { ^ { ^ { ^ ^ ^ ^ ^ ^ { { / / / [ ^ { ^ ^ ^ ^ ^ ^ ^ ^ ^ ^ ^ ^ ^ ^ ^ ^ ^ ^ ^ ^ ^ ^ ^ ^ ^ ^ ^ ^ ( 1 ^ ^ ^ ^ { ^ ^ ^ ^ ^ ^ ^ ^ { { ^ { ^ ^ ^ 4 { ^ 1 { { ^ ^ ^ ^ ^ { { { ^ ^ { { ^ ^ ^ { { ^ ^ ^ ^ [ ^ ^ { ^ { ^ { ^ ^ { { ^ { ^ { ^ { ^ ^ ^ ^ ^ ^ ^ ^ ^ ^ ^ { ^ ^ ^ { ^ ^ ^ ^ ^ ^ { ^ ^ ^ { ^ ^ { ^ ^ { ^ { ^ ^ { ^ ^ { ^ ^ ^ ^ ^ { ^ ^ ^ ^ ^ { ^ 7 | : ^ ^ { ^ ~ ~ ~ ~ { {   ",
". * ~ ~ { ~ ~ { { ^ ^ ^ { ^ ^ ^ ^ ^ ^ ^ / ^ ^ ^ ^ ^ ^ ^ ^ ^ ^ ^ ^ ^ ^ ^ ^ ^ ^ ^ ^ ^ / 5 ^ ^ ^ ^ ^ ^ { ^ / ^ ^ { { / / a ^ ^ ^ ^ ^ { { ^ ^ { / 8 ^ ^ { ^ { ^ d e e e e e e d f g g g e e d e e e e e e e e e d e e e e e e e e e e e e e e e e e e e e e e e e d e e e e e e e e d d e d e e e f e e h e e f e e e e e d d e e d d e e e d d e e e e g e d d e d e i ^ ^ { { ^ { ^ { ^ ^ ^ { ^ ^ ^ ^ ^ ^ ^ ^ ^ ^ ^ ^ ^ { ^ ^ ^ ^ ^ ^ ^ ^ ^ { { ^ ^ { ^ ^ ^ ^ { ^ ^ { ^ ^ { ^ ^ ^ ^ ~ ^ ^ ^ ^ ^ ~ { ^ b / / / ~ ~ ^ ~ ~ ~ ~ { {   ",
". * ~ ~ { ~ ~ { ~ ^ ^ ^ { ^ ^ ^ ^ ^ ^ ^ ^ ~ ^ ^ ^ ^ ^ ^ ^ ^ ^ ^ ^ ^ ^ ^ ^ ^ ^ ^ ^ ^ / / ^ ^ ^ ^ ^ ^ ^ ^ / 2 ^ { ^ 3 / 9 ^ ^ ^ ^ ^ { { ^ ^ { ^ ^ { { { ^ { e j k k k k j k k k k k k k k k k k k k k k k k k j k k k k k k k k k k k k k k k k j k k k k k k k j k k k k k k k k k j k j k k k k k k l k m l k k k k k j k k k j j k k k j j k k k n m k j j j j k j e ^ ^ ^ ^ { ^ { ^ ^ ^ { ^ ^ ^ ^ ^ ^ ^ ^ ^ ^ ^ ^ ^ { ^ ^ ^ ^ ^ ^ ^ ^ ^ { { ^ ^ ^ ^ ^ ^ ^ { ^ ^ { ^ ^ { ^ ^ ^ ^ ^ ^ ^ ^ ^ ^ ~ ~ ^ ^ b [ 0 < ~ ~ ~ ~ ~ { { {   ",
". * ~ ~ { ~ { { ~ ^ ^ ^ { ^ ^ ^ ^ ^ ^ ^ ^ ^ ^ ^ ^ ^ ^ ^ ^ ^ ^ ^ ^ ^ ^ ^ ^ ^ ^ ^ ^ ^ | ^ ^ ^ ^ ^ ^ ^ ^ ^ ^ ^ ^ { ^ 8 / ^ ^ ^ ^ ^ ^ { ^ ^ ^ { ^ ^ { { ^ ^ d k j ^ ^ ^ ^ { ^ ^ ^ ^ ^ ^ { ^ ^ ^ ^ ^ ^ ^ ^ ^ ^ ^ { ^ ^ ^ ^ ^ ^ ^ ^ ^ ^ ^ ^ ^ ^ ^ ^ { ^ ^ ^ ^ ^ ^ ^ { ^ ^ ^ ^ ^ ^ ^ ^ ^ { { { ^ ^ ^ ^ ^ ^ ^ { { 1 2 ^ ^ ^ ^ { { ^ ^ ^ ^ ^ ^ ^ { ^ ^ ^ ^ ^ ^ ^ { ^ { { ^ j k e ^ ^ ^ ^ { { ^ ^ ^ { ^ ^ ^ ^ ^ ^ ^ ^ ^ { ^ ^ ^ { ^ ^ ^ ^ ^ ^ ^ ^ { { ^ { ^ { { { ^ ^ { ^ ^ ^ ^ ^ ^ c ^ ^ ~ ^ ^ 1 [ ~ ^ ^ ^ ^ ^ ^ ^ ^ ^ ^ ^ ~ ~ ~ { { { . ",
". * ~ ~ ~ ~ { { ~ ^ ^ ^ { ^ ^ ^ ^ ^ ^ ^ ^ ^ ^ ^ ^ ^ ^ ^ ^ ^ ^ ^ ^ ^ ^ ^ ^ ^ ^ ^ ^ ^ ( ^ ^ ^ ^ ^ ^ ^ ^ ^ ^ ^ ^ { ^ ^ b ^ ^ ^ ^ ^ ^ ^ ^ ^ { { ^ ^ { ^ ^ e j k ^ ^ ^ ^ { { ^ ^ ^ ^ ^ ^ ^ { ^ ^ ^ ^ ^ ^ ^ ^ ^ ^ ^ ^ { ^ ^ ^ ^ ^ ^ ^ ^ ^ ^ ^ ^ ^ ^ { ^ ^ ^ ^ ^ ^ ^ { ^ ^ ^ ^ ^ ^ ^ ^ ^ { { { ^ ^ ^ ^ ^ ^ ^ { ^ ^ [ 2 ^ ^ ^ { { ^ { ^ ^ ^ ^ ^ { ^ ^ ^ ^ ^ ^ ^ { ^ { { ^ { k k e { ^ { ^ { { ^ ^ ^ ^ ^ ^ ^ ^ ^ ^ ^ ^ { ^ ^ ^ { ^ ^ ^ ^ ^ 2 ^ ^ { { ^ { ^ { { { ^ ^ { ^ ^ ^ 3 ( / / | ^ ^ ^ ^ ^ 1 ~ ~ ^ ^ ^ ^ ^ ~ ^ ^ ^ ^ ~ ~ ~ { { {   ",
". * ~ ~ ~ ~ ~ { { ~ ^ ^ ^ ^ ^ ^ ^ ^ ^ ^ ^ ^ ^ ^ ^ ^ ^ ^ ^ ^ ^ ^ ^ ^ ^ ^ ^ ^ ^ ^ ^ ^ ^ 5 | ^ ^ ^ ^ ^ { ^ ^ ^ ^ { ^ ^ 4 ^ ^ ^ ^ ^ ^ ^ ^ { { ^ ^ { { ^ e k j 3 ^ ^ ^ ^ { { ^ ^ ^ ^ ^ ^ ^ { ^ ^ ^ ^ ^ ^ ^ ^ ^ ^ ^ ^ { ^ ^ ^ ^ ^ ^ ^ ^ ^ ^ ^ ^ ^ ^ ^ ^ ^ ^ ^ ^ ^ ^ { ^ ^ ^ ^ ^ ^ ^ ^ ^ { { ^ ^ ^ ^ ^ ^ ^ ^ { ^ ^ { ^ 1 | c { ^ ^ ^ ^ ^ { ^ ^ { ^ ^ ^ ^ { { ^ { ^ { { ^ { ^ k k d { { ^ { { ^ { ^ ^ ^ ^ ^ ^ ^ ^ ^ ^ ^ ^ ^ ^ { ^ ^ ^ ^ ^ ^ ^ ^ { { ^ { ^ { { { ^ ^ { ^ ^ ^ a [ / / / / / b ^ ^ ^ ^ ^ ^ ^ ^ ^ ~ ~ ~ ^ ^ ^ ~ ~ ~ ~ { { . ",
". * ~ ~ ~ ~ ~ { { ~ ^ ^ ^ ^ ^ ^ ^ ^ ^ ~ ^ ^ ^ ^ ^ ^ ^ ^ ^ ^ ^ ^ ^ ^ ^ ^ ^ ^ ^ ^ ^ ^ ^ b / ^ ^ ^ ^ ^ { ^ ^ ^ ^ { ^ ^ ^ ^ ^ ^ ^ ^ ^ ^ { { { ^ / { ^ e j k { 9 { ^ ^ ^ ^ ^ ^ ^ ^ ^ ^ ^ ^ ^ ^ ^ ^ ^ ^ ^ ^ ^ ^ ^ ^ { { ^ ^ ^ { ^ ^ ^ ^ ^ ^ ^ ^ ^ ^ { ^ ^ ^ ^ ^ ^ ^ { ^ ^ ^ ^ ^ ^ ^ ^ ^ { { ^ ^ ^ ^ ^ ^ ^ ^ ^ 3 2 { ^ ^ 7 ^ { ^ ^ ^ ^ ^ { ( ^ ^ ^ ^ ^ { { { ^ ^ ^ { { 5 ^ ^ ^ j k e { ^ ^ ^ ^ { ^ ^ ^ ^ ^ ^ ^ ^ ^ ^ ^ ^ ^ ^ ^ ^ ^ ^ ^ ^ ^ ^ ^ { { ^ ^ ^ ^ ^ ^ ^ ^ { ^ ^ b 4 ^ / / / / / { { ^ ^ ^ ^ ^ ^ ~ ~ ~ ~ ~ ^ ^ ^ ~ ~ ~ ~ { ~ . ",
"  * ~ ~ ~ ~ ~ ~ ~ ~ ^ ^ { ^ ^ ^ ~ ~ ~ ~ ^ ^ ^ ^ ^ ^ ^ ^ ^ ^ ^ ^ ^ ^ ^ ^ ^ ^ ^ ^ ^ ^ ^ / 3 ^ ^ ^ ^ ^ ^ ^ ^ ^ ^ { ^ ^ ^ ^ ^ ^ ^ ^ ^ ^ { ^ ^ / / { g m j ^ b / { ^ ^ ^ { ^ ^ { { ^ ^ ^ ^ ^ ^ ^ ^ ^ ^ ^ ^ ^ ^ ^ ^ ^ { ^ ^ ^ { ^ ^ ^ ^ ^ ^ ^ 5 [ ^ ^ ^ ^ ^ ^ { ^ ^ { ^ ^ ^ ^ ^ ^ ^ ^ ^ ^ { ^ ^ ^ ^ ^ ^ ^ ^ ^ ^ ^ { ^ ^ ^ ^ { ^ ^ ^ ^ 5 { ^ ^ ^ ^ ^ { { ^ ^ ^ { ^ { { ^ ^ ^ ^ { k k d { ^ ^ ^ { ^ ^ ^ ^ ^ ^ ^ ^ ^ ^ ^ ^ ^ ^ ^ ^ ^ ^ ^ ^ ^ ^ ^ { { ^ ^ ^ ^ ^ ^ ^ ^ { ^ ^ ^ ^ ^ 5 ^ / 2 ^ { { ^ ^ ^ ^ ^ { ~ ~ ~ ^ ^ ^ ^ ~ ~ ~ { ~ { ~   ",
"  * ~ ~ ~ ~ ~ ~ ~ ~ ~ ^ ^ ^ ^ ^ ~ ~ ~ ^ ^ ^ ^ ^ ^ ^ ^ ^ ^ ^ ^ ^ ^ ^ ^ ^ ^ ^ ^ ^ 4 1 ( 4 7 ^ ^ ^ ^ ^ ^ ^ ^ ^ ^ { ^ ^ ^ ^ ^ ^ ^ ^ ^ { { { { { / g m m / ^ ^ { ^ ^ ^ { { { ^ ^ ^ ^ ^ ^ { ^ ^ ^ ^ ^ ^ ^ ^ ^ ^ ^ ^ { ^ ^ ^ ^ { ^ ^ ^ ^ ^ ^ ^ ^ ^ ^ ^ ^ ^ ^ ^ { { ^ { ^ ^ ^ ^ ^ ^ ^ ^ ^ ^ { ^ ^ ^ ^ ^ ^ ^ ^ ^ ^ ^ ^ ^ ^ ^ ^ { ^ ^ ^ { ^ { ^ ^ { ^ { ^ { ^ ^ ^ { ^ { { ^ ^ ^ 1 { { k j d ^ ^ ^ ^ ^ ^ ^ ^ ^ ^ ^ ^ ^ ^ ^ ^ ^ ^ ^ ^ ^ ^ ^ ^ ^ ^ { { { ^ ^ ^ { { ^ ^ ^ { ^ ^ ^ ^ ^ ^ ^ ^ ^ ^ ^ { ^ ^ ^ ^ ^ ~ ~ ^ ^ ^ ^ ^ { ~ ~ ~ { ~ { ~ . ",
"  * ~ ~ ~ ~ ~ { ~ ~ < ^ ^ ^ ^ ^ ^ ^ ^ ^ ^ ^ ^ ^ ^ ^ ^ ^ ^ ^ ^ ^ ^ ^ ^ ^ ^ ^ ^ ^ | 7 1 2 ^ ^ ^ ^ ^ ^ ^ ^ ^ ^ 7 { ^ ^ ^ ^ ^ ^ ^ ^ ^ { { { / { g m m / / ^ ^ ^ ^ ^ ^ { { ^ ^ ^ ^ ^ ^ ^ ^ ^ ^ ^ ^ { ^ ^ ^ ^ ^ ^ ^ ^ ^ ^ ^ ^ { ^ ^ ^ ^ ^ ^ ^ ^ ^ ^ a ^ ^ ^ ^ { { ^ { ^ ^ ^ ^ ^ ^ ^ ^ ^ ^ ^ ^ ^ ^ ^ ^ ^ ^ ^ ^ ^ ^ ^ ^ ^ ^ ^ { ^ ^ ^ { ^ { ^ ^ { ^ { 7 { ^ ^ ^ { 0 { { ^ ^ 3 / ^ { { j j d ^ ^ ^ { ^ ^ ^ ^ ^ ^ ^ [ ^ ^ ^ ^ ^ ^ ^ ^ ^ ^ ^ ^ ^ { { { ^ ^ { { { ^ ^ ^ { ^ ^ { ^ ^ ^ ^ ^ ^ ^ { { ~ ^ ^ ^ ^ ~ ~ ^ ^ ^ ^ ^ { ^ ~ ~ { ~ { ~ . ",
"  * ~ ~ ~ ~ ~ { ~ ~ / ^ ^ ^ ^ ^ ^ ^ ^ { ^ ^ ^ ^ ^ ^ ^ ^ ^ ^ ^ ^ ^ ^ ^ ^ ^ ^ ^ ^ 7 ^ 2 ( ^ ^ ^ ^ ^ ^ ^ ^ ^ ^ / { 7 ^ ^ ^ ^ ^ ^ ^ ^ { { { / g m j / { / ^ 3 ^ ^ ^ ^ { { { ^ ^ { ^ ^ ^ ^ { ^ ^ ^ { ^ ^ ^ ^ ^ ^ ^ ^ { ^ ^ ^ { ^ ^ ^ ^ ^ ^ ^ ^ ^ ^ / ^ ^ ^ { ^ ^ ^ { ^ ^ ^ ^ ^ ^ ^ ^ ^ ^ ^ ^ ^ ^ ^ ^ ^ ^ ^ ^ ^ { ^ ^ ^ ^ ^ { ^ ^ ^ ^ ^ { ^ ^ { ^ { ^ ^ ^ ^ 7 { { { ^ ^ ^ a / { { { { j k e ^ ^ ^ ^ ^ ^ ^ ^ ^ ^ / 1 ^ ^ ^ ^ ^ ^ ^ ^ ^ ^ ^ { { { { ^ { { { { { ^ ^ { ^ ^ { ^ ^ ~ ^ ^ ^ ^ { { ~ ~ ^ ^ ^ { ~ ^ ^ ^ ~ ^ { ^ ~ ~ { ~ ~ ~ . ",
"  * ~ ~ ~ ~ ~ ~ { ~ < ^ ^ ^ ^ ^ ^ ^ ^ { ^ ^ ^ ^ ^ ^ ^ ^ ^ ^ ^ ^ ^ ^ ^ ^ ^ ^ ^ ^ ^ / ^ ^ ^ ^ ^ ^ ^ ^ ^ ^ ^ ^ ^ { ^ ^ ^ ^ ^ ^ ^ ^ ^ { { ^ g m l { ^ { ^ ^ / ^ ^ ^ 2 { ^ { | / { ^ ^ ^ ^ ^ ^ ^ ^ ^ ^ ^ ^ ^ ^ ^ ^ ^ { ^ 1 ^ ^ ^ ^ ^ ^ ^ ^ ^ ^ ^ ^ ^ ^ ^ ^ { ^ ^ 2 ^ ^ ^ ^ ^ ^ ^ ^ ^ ^ ^ ^ ^ ^ ^ ^ ^ ^ ^ ^ ^ ^ { ^ ^ ^ ^ 7 { 1 ^ ^ ^ ^ { ^ ^ { ^ ^ ^ ^ ^ ^ ^ { { { 5 ^ ^ ( 6 ^ ^ { { ^ k j d ^ ^ ^ ^ ^ ^ ^ ^ ^ ^ ^ ^ ^ ^ ^ ^ ^ ^ ^ ^ ^ ^ { { { ^ ^ ^ ^ { { { ^ { { ^ ^ { ^ ~ ^ ^ ^ ~ ~ { ~ ~ ~ ^ ^ ^ ~ ^ ^ ^ ^ ~ ~ { ^ ~ ~ { ~ ~ ~ . ",
"  * ~ ~ ~ ~ ~ ~ { ~ ~ ~ ~ ~ ^ ~ ~ ^ ^ ^ ^ ^ ^ ^ ^ ^ ^ ^ ^ ^ ^ ^ ^ ^ ^ ^ ^ ^ ^ ^ ^ ( 1 ^ ^ ^ ^ ^ ^ ^ ^ ^ ^ ^ ^ ^ ^ ^ ^ ^ ^ ^ ^ ^ ^ { { e k k ^ { ^ { ^ ^ ^ ^ ^ ^ ^ / ^ { ^ / / ^ ^ { { ^ ^ ^ ^ ^ ^ ^ ^ ^ ^ ^ ^ ^ { ^ ^ ^ ^ ^ ^ ^ ^ 1 ^ ^ ^ ^ ^ ^ ^ ^ ^ ^ ^ ^ ^ ^ 2 ^ ^ ^ ^ ^ ^ ^ ^ { { ^ ^ ^ ^ ^ ^ ^ ^ ^ ^ ^ ^ ^ ^ ^ | { ^ ^ { ^ ^ ^ ^ ^ { ^ ^ { ^ 3 [ 2 { { { ( ^ { ^ ^ ^ ^ { { ^ ^ k j d { ^ ^ ^ ^ ^ ^ ^ ^ ^ ^ ^ ^ ^ ^ ^ ^ ^ ^ ^ ^ { ^ ^ ^ ^ ^ ^ { { { ^ { { ^ ^ ^ ^ ^ ^ ^ ~ ~ ~ ~ ~ ~ ^ ^ ^ ^ ^ ^ { ^ ~ ~ ~ { ^ ~ ~ ~ ~ ~ ~   ",
"  * ~ ~ ~ ~ ~ ~ { ~ ~ ~ ~ ~ ~ ~ ~ ~ ^ ^ ^ ^ ^ ^ ^ ^ ^ ^ 1 ^ ^ ^ ^ ^ ^ ^ ^ ^ ^ ^ ^ ^ ^ ^ ^ ^ ^ ^ ^ ^ ^ ^ ^ ^ ^ ^ ^ ^ ^ ^ ^ ^ ^ ^ ^ ^ d k k { ^ { { { ^ ^ ^ ^ { ^ ^ a ^ ^ ^ ^ / b ^ { ^ { ^ ^ | / / [ ^ ^ { ^ ( ^ { ^ ^ ^ ^ ^ ^ ^ [ ^ ^ ^ ^ ^ { ^ ^ ^ ^ { ^ ^ ^ ^ / ^ ^ ^ ^ ^ ^ ^ ^ { { ^ ^ ^ ^ ^ ^ ^ ^ ^ ^ ^ ^ { ^ 8 4 { ^ ^ { { ^ ^ ^ ^ { ^ ^ { ^ ^ / 7 { { { ^ ^ { ^ ^ ^ ^ { ^ ^ ^ ^ j j e ^ ^ ^ ^ ^ ^ ^ ^ ^ ^ ^ ^ ^ ^ ^ ^ ^ ^ ^ { { { ^ ^ ^ ^ { { { { ^ { { { ^ ^ ^ ^ ^ ^ ~ ~ ~ ~ ~ ^ ^ ^ ^ ^ ^ ^ { ~ ~ ~ ~ ^ ^ ~ ~ ~ ~ ~ ~   ",
"  * ~ ~ ~ ~ ~ { { ~ ~ ^ ~ ^ ~ ~ ~ ^ ^ ^ ^ ^ ^ ^ ^ ^ ^ ^ a ^ ^ ^ ^ ^ ^ ^ ^ ^ ^ ^ ^ ^ ^ ^ ^ ^ ^ ^ ^ ^ ^ ^ ^ ^ ^ ^ ^ ^ ^ ^ ^ ^ ^ ^ ^ e k k ^ ^ ^ { { { ^ ^ { ^ ^ ^ ^ { ^ { ( { { ^ ^ { ^ { ^ / b / / / 3 6 { ^ ^ ^ ^ ^ ^ ^ ^ ^ ^ ^ 1 / ^ ^ ^ ^ { ^ ^ ^ ^ { ^ { ^ ^ ^ ^ ^ ^ ^ ^ ^ ^ ^ { { ^ ^ ^ ^ ^ ^ ^ ^ ^ ^ { ^ { ^ ^ ^ ^ ^ ^ { { { ^ ^ ^ { ^ ^ { { { / { { ( { ^ ^ { ^ ^ ^ ^ { ^ ^ { ^ ^ j k e ^ ^ ^ ^ ^ ^ ^ ^ ^ ^ ^ { ^ ^ ^ ^ ^ ^ { { { ^ ^ ^ ^ { { { { ^ ^ { { ^ { ^ ^ ^ ~ ^ ^ ~ { ~ ^ ^ ^ ^ ^ ^ ^ ^ ~ ~ ~ ~ ^ ^ ~ ~ ~ ~ ] / @ ",
"@ , ~ ~ ~ ~ ~ { { ~ ~ ~ ~ ~ ~ ~ ~ ^ ^ ^ ^ ^ ^ ^ ~ ^ ^ ^ / ( ^ ^ ^ ^ ^ ^ ^ ^ ^ ^ ^ ^ ^ ^ ^ ^ ^ ^ ^ ^ ^ ^ ^ ^ ^ ^ ^ ^ ^ ^ ^ ^ ^ 8 o j k { ^ { ^ ^ ^ ^ { { ^ ^ ^ ^ ^ { { { [ { ^ ^ ^ { ^ ^ | / / / 4 / ( ^ ^ ^ { ^ { ^ ^ ^ ^ ^ ^ ^ ^ ^ ^ ^ ^ ^ { ^ ^ ^ ^ ^ ^ { ^ 1 ^ ^ ^ ^ ^ ^ ^ ^ ^ { { ^ ^ ^ ^ ^ ^ ^ ^ ^ ^ { ^ ^ ^ ^ ^ ^ ^ ^ ^ ^ ^ ^ ^ ^ ^ ^ ^ { { { 2 { { ^ { ^ ^ { ^ ^ ^ ^ { { ^ { { ^ { k k e ^ ^ ^ ^ ^ ^ ^ ^ ^ ^ { ^ ^ ^ ^ ^ ^ { ^ { ^ ^ ^ { { { { ^ ^ ^ { { 4 { ^ ^ 6 ^ ^ ^ ^ ^ ~ ^ ^ ^ ^ ^ { ^ ^ ~ ~ ~ ~ { ^ ~ : { / { / @ ",
"@ = ~ ~ ~ ~ ~ { ~ ^ ^ ^ ^ ^ ~ ~ ^ ^ ~ ^ ^ ~ ^ ~ ~ ^ ^ ^ ^ 8 ^ ^ ^ ^ ^ ^ ^ ^ ^ ^ ^ ^ ^ ^ ^ ^ ^ ^ ^ ^ ^ ^ ^ ^ ^ ^ ^ ^ ^ ^ ^ ^ / g m j ^ { ^ { ^ ^ { ^ { ^ { ^ ^ ^ ^ { ^ { / { ^ ^ ^ { ^ ^ ^ ^ ^ 2 [ ^ ^ ^ { ^ ^ ^ ( / ^ ^ ^ ^ ^ ^ ^ ^ ^ ^ ^ ^ { ^ ^ ^ ^ ^ ^ { 1 { ^ ^ ^ ^ ^ ^ ^ ^ ^ ^ ^ ^ ^ ^ ^ ^ ^ ^ ^ ^ ^ { ^ ^ ^ { ^ ^ ^ ^ ^ { { ^ ^ ^ ^ ^ ^ { { { ^ { { ^ { ^ ^ ^ ^ ^ ^ ^ { { ^ { { ^ { ^ k k e ^ ^ ^ ^ ^ ^ ^ ^ ^ { ^ ^ ^ ^ ^ ^ { ^ { ^ ^ ^ ^ { ^ { ^ ^ ^ ^ ^ 7 { ^ ^ ~ ^ ^ ^ ^ ~ ^ ~ ~ ~ ~ ~ { ^ ~ ~ ~ ~ ~ ~ ^ ~ / { / { / @ ",
"  * ~ ~ ~ ~ ~ ~ ~ ^ ^ ^ ^ ^ ~ ~ ^ ~ ~ ~ ^ ~ ~ ~ ~ ^ ^ ^ ^ ^ ^ ^ ^ ^ ^ ^ ^ ^ ^ ^ ^ ^ ^ ^ ^ ^ ^ ^ ^ ^ ^ ^ ^ ^ ^ ^ ^ ^ ^ ^ ^ ^ g m m { { { { ^ ^ ^ { ^ { ^ { ^ { ^ ^ { { { / 7 ^ ^ ^ { ^ ^ ^ ^ ^ ^ ^ ^ ^ ^ { ^ ^ ^ / / ^ ^ ^ ^ ^ ^ ^ ^ ^ ^ ^ ^ { ^ ^ ^ ^ ^ ^ { ^ ^ ^ ^ ^ ^ ^ ^ ^ ^ ^ ^ ^ ^ ^ ^ ^ ^ ^ ^ ^ ^ ^ { ^ ^ { { ^ ^ { ^ ^ { { ^ ^ { ^ ^ ^ { { { ^ { { ^ { ^ ^ { ^ 1 ^ ^ { { ^ { { ^ { ^ ^ k k e ^ ^ ^ ^ ^ ^ ^ ^ ^ ^ ^ ^ ^ ^ ^ { ^ ^ ^ ^ ^ ^ { ^ { ^ ^ { ^ ^ 2 { ^ ^ ^ ^ ^ ^ ^ ^ ~ ~ ~ ~ ~ ^ { ~ ~ ~ ~ ~ ~ { ^ ~ / { / { / . ",
"  * ~ ~ ~ ~ ~ { ~ ^ ^ ~ ~ ~ ~ ~ ~ ~ ~ { ~ ~ ~ ~ ~ ^ ^ ^ ^ ^ ^ ^ ^ ^ ^ ^ ^ ^ ^ ^ ^ ^ ^ ^ 5 ( ^ ^ ^ ^ ^ ^ ^ ^ ^ ^ ^ ^ ^ ^ ^ h k k 7 / ^ { { ^ ^ ^ { ^ ^ { ^ ^ { ^ ^ { { { / ( ^ ^ ^ { { { ^ ^ ^ ^ ^ ^ ^ ^ ^ ^ ^ ^ ^ 5 ^ ^ ^ ^ ^ ^ ^ ^ ^ ^ ^ ^ { ^ ^ ^ ^ { ^ { ^ ^ ^ ^ ^ ^ ^ ^ ^ ^ ^ ^ { ^ ^ ^ ^ ^ ^ ^ ^ ^ ^ ^ ^ ^ ^ { ^ ^ ^ ^ { { { ^ ^ { ^ ^ ^ { { ^ ^ 5 { ^ ^ ^ ^ { ^ ^ ^ ^ { { ^ { ^ ^ { ^ ^ ^ k k e ^ ^ ^ ^ ^ ^ ^ ^ ^ ^ ^ ^ ^ ^ { ^ ^ ^ ^ ^ ^ { ^ ^ { ^ { ^ ^ ^ { ^ ^ ^ ^ ^ ^ ^ ^ ^ ^ ~ ~ ^ ^ ~ ~ ~ ~ ~ ~ ^ { ^ ~ ~ { { { / . ",
"  * ~ ~ ~ ~ ~ { ~ ^ ^ ~ ~ ~ ~ ~ ^ ~ ~ { ~ ~ ^ ~ ~ ~ ^ ^ ^ ^ ^ ^ ^ ^ ^ ^ ^ ^ ^ ^ ^ ^ ^ ^ ^ ^ ^ ^ ^ ^ ^ ^ ^ ^ ^ ^ ^ ^ ^ ^ e k k ^ ^ / ^ { ^ ^ ^ ^ { ^ ^ ^ ^ ^ ^ ^ ^ { ^ ^ { 0 ^ ^ ^ { { { ^ ^ ^ ^ ^ ^ ^ ^ ^ ^ ^ ^ ^ { ^ ^ ^ ^ ^ ^ ^ ^ ^ ^ ^ ^ ^ ^ ^ ^ ^ { ^ ^ ^ ^ ^ ^ ^ ^ ^ ^ ^ ^ ^ { { ^ ^ ^ ^ ^ ^ ^ ^ ^ ^ ^ ^ ^ { ^ ^ ^ ^ ^ { { { ^ ^ { ^ { ^ { ^ ^ ^ { ^ ^ ^ ^ ^ { ^ ^ ^ ^ { { ^ ^ { ^ { ^ ^ ^ ^ k k e ^ { ^ ^ ^ ^ ^ 5 ^ ^ ^ ^ ^ { ^ ^ { ^ 5 { { ^ { ^ ^ { { 4 ^ { ^ ^ ^ ^ ^ ~ ~ ~ ^ ^ ~ ~ ^ ^ ^ ~ ~ ~ ~ ~ ^ ^ ^ ~ ~ ~ { { { . ",
"  * ~ ~ ~ ~ ~ { ~ ^ ~ ~ ~ ^ ^ ~ ^ ^ ^ { ^ ^ ^ ^ ^ ^ ^ ^ ^ ^ ^ ^ ^ ^ ^ ^ ^ ^ ^ ^ ^ ^ ^ ^ ^ ^ ^ ^ ^ ^ ^ ^ ^ ^ ^ ^ ^ ^ ^ e k k 2 0 1 / / { { { ^ ^ ^ ^ ^ ^ ^ ^ ^ ^ ^ { ^ ^ { ^ { ^ ^ ^ ^ ^ ^ ^ ^ ^ ^ ^ ^ ^ ^ ^ ^ ^ ^ ^ ^ ^ ^ ^ ^ ^ ^ ^ ^ ^ ^ ^ { ^ ^ ^ ^ { ^ ^ ^ ^ ^ ^ ^ ^ ^ ^ ^ ^ ^ ^ ^ ^ ^ ^ ^ ^ ^ ^ ^ ^ ^ ^ ^ ^ ^ ^ ^ ^ ^ ^ { { { ^ ^ ^ ^ { ^ { { ^ ^ ^ ^ ^ ^ ^ ^ { ^ ^ ^ ^ { { ^ ^ { ^ { ^ ^ ^ ^ ^ k k e { ^ ^ ^ ^ ^ ^ ^ ^ ^ ^ ^ { ^ / { ^ ^ { { ^ { ^ ^ { { ^ ^ ^ ^ ^ ^ ^ ^ ~ ~ ~ / ( < ~ ^ ^ ^ ^ ~ ~ ~ ~ ^ ^ ^ ~ ~ ~ { ~ ~   ",
"  * ~ ~ ~ ~ ~ { ~ ~ ~ ~ ^ ^ ^ ^ ^ ^ ^ { ^ ^ ^ ^ ^ ^ ^ ^ ^ ^ ^ ^ ^ ^ ^ ^ ^ ^ ^ ^ ^ ^ ^ a 0 ^ ^ ^ ^ ^ ^ ^ ^ ^ ^ ^ ^ ^ e k k 2 / / / / / { { ^ ^ ^ ^ ^ ^ ^ ^ ^ ^ / { { ^ 8 { ^ { ^ ^ ^ ^ ^ ^ ^ ^ ^ ^ ^ ^ ^ ^ ^ ^ ^ ^ ^ ^ ^ ^ ^ ^ ^ ^ ^ ^ ^ ^ ^ { ^ ^ ^ ^ { ^ { ^ ^ ^ ^ ^ ^ ^ ^ ^ ^ ^ ^ ^ ^ ^ ^ ^ ^ ^ ^ ^ ^ ^ ^ ^ ^ { ^ ^ ^ ^ ^ { ^ { ^ ^ { ^ { ^ { { ^ ^ { { ^ ^ ^ ^ { ^ ^ ^ ^ { { ^ { { ^ { ^ ^ ^ ^ ^ ^ k k e ^ ^ ^ ^ ^ ^ ^ { ^ ^ ^ { 8 { { ^ ^ { { ^ { ^ ^ { { ^ ^ ^ ^ ^ c ^ ~ ~ / / / 7 / ~ ~ : ~ ^ ~ ~ ~ ~ ~ ~ ~ ~ ~ ~ { ~ ~   ",
"  * ~ ~ ~ ~ ~ { ~ ~ ^ ^ ^ ^ ~ ~ ^ ~ ^ { ^ ^ ^ ^ ^ ^ ^ ^ ^ ^ ^ ^ ^ ^ ^ ^ ^ ^ ^ ^ ^ ^ / / ^ ^ ^ ^ ^ ^ ^ ^ ^ ^ ^ ^ ^ e k k ^ ^ / / / / / { { { / / ^ ^ ^ ^ ^ ^ ^ ^ { { ^ ^ { ^ { ^ ^ ^ ^ ^ ^ ^ ^ ^ ^ ^ ^ ^ ^ ^ ^ ^ ^ ^ ^ ^ ^ ^ ^ ^ ^ ^ ^ ^ ^ ^ { ^ ^ ^ ^ { ^ { ^ ^ ^ ^ ^ ^ ^ ^ ^ ^ ^ ^ 1 ( ^ ^ ^ ^ ^ ^ ^ ^ ^ ^ ^ { { ^ ^ ^ ^ ^ ^ ^ { ^ ^ ^ ^ ^ ^ ^ { ^ { { { ^ ^ ^ ^ { ^ ^ ^ ^ { { { { { { { ^ ^ ^ ^ { ^ ^ k k e ^ ^ ^ ^ ^ ^ { ^ ^ ^ ^ 8 { { ^ ^ { { ^ { ^ ^ { { a ^ ^ ^ ^ ^ ^ { < 5 < ^ ~ ~ ~ ~ ~ ~ ~ ~ ~ ~ ~ ~ ~ ~ ~ ~ ~ { ~ ~   ",
"  * ~ ~ ~ ~ ~ { ~ ~ ^ ^ ^ ~ ~ ~ ~ ~ ~ { ^ ^ ^ ^ ^ ^ ^ ^ ^ ^ ^ ^ ^ ^ ^ ^ ^ ^ ^ ^ ^ 7 / | ^ 2 ^ ^ / / ^ ^ ^ ^ ^ ^ e k k ^ ^ ^ ^ / / / { / { { / / { { ^ { ^ ^ ^ ^ { { ^ / { ^ { ^ ^ { ^ ^ ^ ^ ^ ^ ^ ^ ^ ^ ^ ^ ^ ^ ^ ^ ^ ^ ^ ^ ^ ^ ^ ^ ^ ^ ^ ^ { ^ ^ ^ ^ ^ ^ { ^ ^ ^ ^ ^ ^ ^ ^ ^ ^ ^ ^ ( ^ ^ ^ ^ 1 ^ ^ ^ ^ ^ ^ ^ { ^ ^ ^ ^ ^ ^ { ^ { ^ ^ { ^ ^ ^ ^ ^ ^ ^ ^ { ^ ^ ^ { { ^ ^ ^ ^ { { { { { { { ^ ^ ^ ^ { ^ ^ ^ k k e ^ ^ ^ ^ ^ { ^ ^ ^ ^ ^ / ^ ^ ^ { { ^ { ^ { ^ { ^ 8 ^ ^ ^ 1 ^ ^ 9 : ~ ~ ~ ~ ~ ~ ~ ~ ~ ~ ~ ~ ~ ~ ~ ~ ~ { { { ~ ~   ",
"  * ~ ~ ~ ~ ~ ~ ~ ~ ^ ^ ~ ~ ~ ~ ~ ~ { { ^ ^ ~ ~ ~ ^ ^ ^ ^ ^ ^ ^ ^ ^ ^ ^ ^ ^ ^ ^ ^ / / ^ ^ ^ ^ / / / b ^ ^ ^ ^ e k k ^ ^ ^ ^ ^ ^ ^ { { / { { 8 / ^ { ^ { ^ ^ ^ ^ { { ^ 8 ^ ^ { ^ ^ { ^ ^ ^ ^ ^ ^ ^ ^ ^ ^ ^ ^ ^ ^ ^ ^ ^ ^ ^ ^ ^ ^ ^ ^ ^ ^ ^ ^ { ^ ^ ^ ^ ^ ^ ^ ( ^ ^ ^ ^ ^ ^ ^ ^ ^ ^ ^ ^ ^ ^ ^ ^ ^ ^ ^ ^ ^ ^ ^ ^ ^ ^ { ^ { ^ ^ { ^ { ^ ^ { ^ ^ ^ { ^ ^ ^ ^ ^ ^ { ^ { { { ^ ^ ^ { { { { { { { ^ ^ ^ ^ { ^ ^ ^ ^ k k e ^ ^ ^ ^ ^ ^ ^ ^ ^ 6 / ^ ^ ^ { { ^ { ^ { { { ^ ^ ^ ^ ^ ~ ^ c ~ ~ ~ ~ ~ ^ ~ ~ ~ ~ ~ ~ ~ ^ ~ ~ ~ ~ ~ ~ ~ ~ ~ ~   ",
"  * ~ ~ ~ ~ ~ ~ ~ ^ ~ ~ ~ ~ ~ ~ ~ ~ { { ~ ~ ~ ~ ^ ^ ^ ^ ^ ^ ^ ^ ^ ^ ^ ^ ^ ^ ^ ^ ^ ^ ^ ^ ^ ^ / / / / ^ ^ ^ ^ e k k ^ ^ ^ ^ ^ ^ ^ ^ { { ^ { { ^ 6 ^ { ^ { ^ ^ ^ ^ ^ { ^ ^ { ^ ^ ^ ^ ^ ^ ^ ^ ^ ^ ^ ^ ^ ^ ^ ^ ^ ^ ^ ^ ^ ^ ^ ^ ^ ^ ^ ^ ^ ^ ^ ^ ^ ^ ^ ^ ^ ^ 5 ^ ^ ^ ^ ^ ^ ^ ^ ^ ^ ^ ^ ^ ^ ^ ^ ^ ^ ^ ^ ^ ^ ^ ^ ^ ^ ^ ^ ^ ^ { ^ ^ ^ { ^ { ^ ^ { ^ ^ ^ ^ ^ ^ ^ ^ { ^ ^ ^ { ^ { ^ ^ ^ { { { { { ^ ^ ^ ^ ^ ^ ^ ^ ^ ^ ^ ^ k k e ^ ^ ^ ^ ^ ^ ^ { 5 7 ^ ^ ^ { { ^ { ^ { { { ^ ^ ^ ^ ~ ~ ~ ~ ~ ~ ^ ^ ~ ~ ^ ^ ~ ~ ~ ~ ~ ^ ~ ~ ~ ~ ~ ~ ~ ~ ~ {   ",
"  * ~ ~ ~ ~ ~ ~ ~ ~ ~ ~ ~ ~ ~ ~ ~ ~ { ^ ~ ~ ~ ^ / ( / | ^ ^ ^ ^ ^ ^ ^ ^ ^ ^ ^ ^ ^ ^ ^ ^ ^ ^ / / / / ^ ^ ^ e k k ^ ^ ^ ^ ^ ^ ^ ^ ^ { { ^ { ^ ^ ^ ^ { ^ { ^ ^ ^ ^ ^ { ^ ^ ^ ^ ^ ^ ^ ^ ^ ^ ^ ^ ^ ^ ^ ^ ^ ^ ^ ^ ^ ^ ^ ^ ^ ^ ^ ^ ^ ^ ^ ^ ^ ^ ^ ^ ^ 1 ^ ^ ^ ( ^ ^ ^ ^ ^ ^ ^ ^ ^ ^ ^ ^ ^ ^ ^ ^ ^ ^ ^ ^ ^ ^ ^ ^ ^ { ^ ^ ^ ^ ^ ^ ^ ^ { ^ { ^ ^ { ^ ^ ^ ^ ^ ^ ^ ^ ^ ^ ^ ^ { ^ { ^ ^ ^ { { ^ { { ^ { ^ ^ ^ ^ ^ ^ ^ ^ ^ ^ ^ k k e ^ { ^ ^ ^ ^ { { ^ ^ ^ ^ ^ { ^ { ^ { { ^ ^ ^ ^ ^ ~ ~ ~ ~ ~ ~ ~ ~ ~ ~ ~ ~ ~ ~ ~ ~ ~ ~ ~ ~ ~ ~ ~ { ~ { ~ {   ",
"  * ~ ~ ~ ~ ~ { ~ ~ ~ ~ ~ ^ ^ ^ ^ ^ ^ ^ ~ ^ ^ / / / / / ^ ^ ^ ^ ^ ^ ^ ^ ^ ^ ^ ^ ^ ^ ^ ^ ^ ^ / / / / / ^ e k k ^ ^ ^ ^ ^ ^ { ^ ^ ^ { ^ ^ { ^ { ^ ^ { ^ ^ ^ ^ { ^ ^ ^ { ^ ^ ^ ^ ^ ^ ^ ^ ^ ^ ^ ^ ^ ^ ^ ^ ^ ^ ^ ^ ^ ^ { ^ ^ ^ ^ ^ ^ ^ ^ ^ ^ ^ ^ ^ ^ ^ ^ ^ ^ ^ ^ ^ ^ ^ ^ ^ ^ ^ ^ ^ ^ ^ ^ ^ ^ ^ ^ ^ ^ ^ ^ ^ ^ ^ ^ 1 ^ ^ ^ ^ ^ ^ ^ ^ { { ^ { ^ ^ ^ ^ ^ ^ ^ ^ ^ { ^ ^ ^ ^ ^ ^ ^ ^ { { ^ ^ { ^ ^ { ^ ^ ^ ^ ^ ^ ^ ^ ^ ^ ^ ^ k k e { ^ ^ ^ ^ { { ^ { ^ ^ { { ^ { ^ { ^ ^ ^ ^ ^ ^ ^ ~ ~ ~ ~ ~ ~ ~ ~ ~ ~ ~ ~ ~ ~ ~ ~ ~ ~ ~ < ~ ~ { ~ { ~ {   ",
"  * ~ ~ ~ ~ ~ ~ ~ ^ ~ ~ ~ ^ ^ ^ ^ ^ ^ ^ ^ ^ ^ / / / / / ^ ^ ^ ^ ^ ^ ^ ^ ^ ^ ^ ^ ^ ^ ^ ^ ^ ^ / / / / / e k k ^ ^ ^ ^ ^ ^ ^ { ^ ^ ^ ^ ^ ^ { ^ ^ ^ ^ { { ^ ^ ^ ^ ^ ^ ^ { ^ ^ ^ ^ ^ ^ ^ ^ ^ ^ ^ ^ ^ ^ ^ ^ ^ ^ ^ { ^ ^ { ^ ^ ^ ^ ^ ^ ^ ^ ^ ^ 8 [ ^ ^ ^ ^ ^ ^ ^ ^ ^ ^ ^ ^ ^ ^ ^ ^ ^ ^ ^ ^ ^ ^ ^ ^ ^ ^ ^ ^ [ ^ ^ ^ ^ { ^ ^ ^ ^ ^ ^ ^ { { 1 [ { ^ 4 ^ ^ ^ ^ ^ ^ { ^ ^ ^ ^ ^ ^ ^ ^ { { ^ ^ ^ { ^ { ^ ^ ^ ^ ^ ^ ^ ^ ^ ^ ^ ^ ^ k k d ^ { ^ ^ { { ^ { ^ ^ { { ^ { ^ ^ ^ ^ ^ ^ ^ ^ ^ ~ ~ ~ ~ ~ ~ ~ ~ ~ ~ ~ ~ ~ ~ ~ ~ ~ ~ ~ ~ ~ ~ ~ ~ { ~ {   ",
"  * ~ ~ ~ ~ ~ ~ ~ ~ ~ ~ ~ ^ ^ ^ ^ ^ ^ ^ ^ ^ ^ ^ 5 _ | 8 ^ ^ ^ ^ ^ ^ ^ ^ ^ ^ ^ ^ ^ ^ ^ ^ ^ ^ ^ 2 / / g k k ^ ^ ^ ^ ^ ^ ^ ^ { ^ ^ ^ { { ^ { { ^ ^ ^ ^ ^ ^ ^ ^ ^ ^ ^ ^ { ^ ^ ^ ^ ^ ^ { ^ ^ ^ ^ ^ ^ ^ ^ ^ ^ ^ ^ ^ ^ ^ ^ ^ 6 ^ ^ ^ ^ ^ ^ 7 ( ( 1 { ^ ^ ^ c 2 ^ ^ ^ ^ ^ ^ ^ ^ ^ ^ ^ ^ ^ ^ ^ ^ ^ ^ ^ ^ ^ ^ 2 ^ { ^ ^ { { ^ ^ { ^ ^ ^ { { ^ c ^ ^ ^ ^ ^ ^ ^ ^ ^ ^ ^ ^ ^ ^ ^ ^ ^ ^ { ^ ^ ^ { { ^ { ^ ^ ^ ^ ^ ^ ^ { ^ ^ ^ ^ ^ ^ k j e { ^ ^ { { ^ ^ ^ ^ { { ^ { { { ^ ^ ^ ^ ^ ^ ^ ^ ~ ~ ~ ~ ~ ^ ~ ~ ~ ~ ~ ~ ~ ~ ~ ~ ~ ~ ~ ~ ~ ~ ~ { ~ {   ",
"  * ~ ~ ~ ~ ~ ~ ~ ~ ~ ~ ~ ^ ^ ^ ^ ^ ^ ^ ^ ^ ^ ^ / / 4 1 ^ ^ ^ ^ ^ ^ ^ ^ ^ ^ ^ ^ ^ ^ ^ ^ ^ ^ ^ ^ / g m k ^ ^ ^ ^ ^ ^ ^ ^ ^ { { ^ ^ ^ { ^ { { ^ ^ ^ ^ ^ ^ ^ ^ { ^ ^ ^ ^ ^ ^ ^ ^ ^ ^ { { ^ ^ ^ ^ ^ ^ ^ ^ ^ ^ ^ ^ ^ ^ ^ ^ ^ ^ ^ ^ ^ ^ ^ ^ 5 1 ( { ^ ^ ^ ^ ( ^ ^ ^ ^ ^ ^ ^ ^ ^ ^ ^ ^ ^ ^ ^ ^ ^ ^ ^ ^ ^ ^ ^ ^ { ^ ^ { { ^ ^ { ^ ^ ^ { { ^ ^ ^ ^ ^ { ^ ^ ^ ^ ^ ^ ^ ^ ^ { ^ ^ { ^ { { ^ { { { ^ { ^ ^ ^ ^ ^ ^ ^ { ^ ^ ^ ^ ^ ^ ^ j k d ^ ^ ^ ^ { ^ ^ ^ { { ^ { { { 3 ^ ^ ^ ^ ^ ^ ~ ~ ~ ~ { ~ ~ ~ ~ ~ ~ ~ ~ ~ ~ / ~ ~ ~ ~ ~ ~ ~ ~ { ~ {   ",
"  * ~ ~ ~ ~ ~ ~ ~ ~ ~ ~ ~ ^ ^ ^ ^ ^ ^ ^ ^ ^ ^ ^ 5 / | ^ ^ ^ ^ ^ ^ ^ ^ ^ ^ ^ ^ ^ ^ ^ ^ ^ ^ ^ { ^ e m k ^ ^ ^ ^ ^ ^ ^ ^ ^ ^ ^ ^ ^ ^ ^ { { { { ^ ^ ^ ^ ^ ^ 3 ^ { ^ ^ { ^ ^ ^ ^ ^ ^ ^ ^ { ^ ^ ^ ^ ^ ^ ^ ^ ^ ^ { ^ ^ ^ ^ ^ ^ ^ ^ ^ ^ ^ ^ 7 2 1 ^ { 5 ^ ^ ^ ^ ^ ^ ^ ^ ^ ^ ^ ^ ^ ^ ^ ^ ^ ^ ^ ^ ^ ^ ^ ^ ^ ^ ^ ^ ^ ^ ^ ^ ^ ^ ^ { ^ ^ { ^ ^ ^ ^ ^ ^ ^ { { ^ ^ ^ ^ ^ ^ ^ ^ { ^ ^ ^ ^ { { { ^ { { ^ ^ ^ ^ ^ ^ ^ ^ ^ { ^ ^ ^ ^ ^ ^ ^ { k k e ^ ^ ^ { { ^ ^ { { ^ { { { 1 ^ ^ 4 ^ ^ ^ ~ ~ ~ ~ { ~ ~ ~ ~ ~ ~ ~ ~ ~ ~ ~ ~ ~ ~ ~ ~ ~ ~ ~ { ~ {   ",
"  * ~ ~ ~ ~ ~ ~ ~ ~ ~ ~ ~ ^ ^ ^ ^ ^ ^ ^ ^ ^ ^ ^ ^ / ^ ^ ^ ^ ^ ^ ^ ^ ^ ^ ^ ^ ^ ^ ^ ^ ^ ^ ^ ^ ^ e p k ^ ^ ^ ^ ^ ^ ^ ^ ^ ^ ^ ^ ^ ^ ^ ^ { { ^ ^ ^ ^ ^ ^ ^ { ^ ^ { ^ ^ { ^ ^ ^ ^ ^ ^ ^ ^ { ^ ^ ^ ^ ^ ^ ^ ^ ^ { ^ ^ ^ ^ ^ ^ ^ ^ ^ ^ ^ ^ ( 8 3 ^ ^ ^ ^ ^ ^ ^ ^ ^ ^ ^ ^ ^ ^ ^ ^ ^ ^ ^ ^ ^ ^ ^ ^ ^ ^ ^ ^ ^ ^ ^ ^ ^ ^ ^ ^ ^ ^ ^ ^ ^ ^ ^ ^ ^ ^ { { ^ ^ { ^ ^ ^ ^ ^ ^ ^ ^ ^ { ^ ^ ^ ^ { ^ { { { { ^ ^ ^ ^ ^ ^ ^ ^ ^ ^ ^ ^ ^ ^ ^ ^ ^ { ^ k k e ^ { ^ ^ ^ ^ { { ^ ^ ^ { ^ ^ ^ ( ^ ^ ^ ~ ~ ~ ~ { ~ ~ ~ ~ ~ ~ ~ ~ ~ ~ ~ ~ ~ ~ ~ ~ ~ ~ ~ { ~ {   ",
"  * ~ ~ ~ ~ ~ ~ ~ ~ ~ ~ ~ ^ ^ ^ ^ ^ ^ ^ ^ ^ ^ ^ ~ ^ ^ ^ ^ ^ ^ ^ ^ ^ ^ ^ ^ ^ ^ ^ ^ ^ ^ ^ ^ ^ e k k ^ ^ ^ ^ ^ ^ ^ ^ ^ ^ ^ ^ ^ ^ ^ ^ ^ { ^ ^ ^ ^ ^ ^ { ^ ^ ^ ^ ^ ^ ^ ^ ^ ^ ^ ^ ^ ^ ^ ^ ^ ^ ^ ^ ^ ^ ^ ^ ^ ^ { ^ ^ ^ ^ ^ ^ ^ ^ ^ ^ ^ ^ ^ ^ [ b 9 ^ ^ ^ ^ ^ ^ ^ ^ ^ ^ ^ ^ ^ ^ ^ 1 1 ^ ^ ^ ^ ^ ^ ^ ^ ^ ^ ^ ^ ^ ^ ^ ^ ^ { ^ ^ ^ ^ ^ ^ ^ ^ ^ ^ { ^ ^ { { { ^ ^ ^ ^ ^ ^ ^ { ^ { ^ ^ { ^ ^ { { ^ ^ ^ ^ ^ ^ ^ ^ ^ ^ ^ ^ ^ ^ ^ ^ ^ ^ { ^ ^ k k e { ^ ^ ^ ^ { { ^ { ^ ^ ^ ^ ^ ^ ^ ^ ^ ~ ~ ~ ~ ~ ~ ~ ~ ~ ~ ~ ~ ~ ~ ~ ~ ~ ~ / ~ ~ ~ { ~ { ~ {   ",
"  * ~ ~ ~ ~ ~ ~ ~ ~ ~ ~ ~ ~ ^ ^ ^ ^ ^ ^ ^ ^ ^ ^ ^ ^ ^ ^ ^ ^ ^ ^ ^ ^ ^ ^ ^ ^ ^ ^ ^ ^ ^ ^ ^ e k k ^ ^ ^ ^ ^ ^ ^ ^ ^ ^ ^ ^ ^ ^ ^ ^ ^ ^ ^ { ^ { ^ ^ ^ { ^ ^ ^ ^ ^ ^ ^ ^ ^ ^ { ^ ^ ^ { ^ ^ ^ ^ ^ ^ ^ ^ ^ ^ ^ { ^ ^ ^ ^ ^ ^ ^ ^ ^ ^ ^ ^ ^ 2 3 / / [ ^ ^ ^ ^ ^ ^ ^ ^ { ^ ^ ^ ^ ^ ^ ^ ^ ^ ^ { ^ { ^ ^ c c ^ ^ ^ ^ ^ ^ ^ ^ ^ ^ ^ ^ ^ ^ ^ { ^ { ^ ^ ^ ^ { { { { { ^ ^ ^ ^ { ^ { ^ ^ { ^ ^ { { ^ ^ ^ ^ ^ ^ ^ ^ ^ { ^ ^ ^ ^ ^ ^ ^ ^ { ^ ^ ^ k k e ^ ^ ^ ^ { { { { ^ ^ ^ ^ ^ ^ ^ ^ ^ ~ ~ ~ { { ~ ~ ~ ~ ~ ~ ~ ~ ~ ~ ~ / : / ~ ~ ~ { ~ { ~ ~   ",
"  * ~ ~ ~ ~ ~ ~ ~ ~ ~ ~ ~ ^ ^ ^ ^ ^ ^ ^ ^ ^ ^ ^ ^ ^ ^ ^ ^ ^ ^ ^ ^ ^ ^ ^ ^ ^ ^ ^ ^ ^ ^ ^ e k k ^ ^ ^ ^ ^ ^ ^ ^ ^ ^ ^ ^ ^ ^ ^ ^ ^ ^ ^ ^ { ^ { ^ ^ ^ ^ ^ ^ ^ ^ ^ ^ ^ { ^ ^ ^ ^ ^ ^ ^ ^ ^ ^ ^ ^ ^ ^ ^ ^ ^ ^ ^ ^ ^ ^ ^ ^ ^ ^ ^ ^ ^ ^ ^ ^ ^ b / / ^ ^ ^ ^ ^ ^ ^ ^ ^ { ^ ^ ^ ( ^ ^ ^ ^ ^ ^ { ^ { ^ ^ ^ { ^ ^ ^ ^ ^ ^ ^ ^ ^ ^ ^ ^ ^ ^ ^ { ^ { ^ ^ ^ ^ ^ ^ { { ^ ^ ^ ^ ^ { ^ { ^ ^ { ^ ^ { { ^ ^ ^ ^ ^ ^ ^ ^ ^ ^ ^ ^ ^ ^ ^ ^ ^ ^ ^ ^ ^ ^ ^ j k e ^ ^ ^ { { { { ^ ^ ^ ^ ^ ^ ^ ^ ^ ^ ^ ~ { ~ ~ ~ ~ ~ ~ ~ ~ ~ ~ ~ ~ ~ ~ ~ ~ ~ ~ { ~ { ~ ~   ",
"% * ~ ~ ~ ~ ~ { ~ ~ ~ ~ ~ ^ ^ ^ ^ ^ ^ ^ ^ ^ ^ ^ ^ ^ ^ ^ ^ ^ ^ ^ ^ ^ ^ ^ ^ ^ ^ ^ ^ ^ ^ e k k ^ ^ ^ ^ ^ ^ ^ ^ ^ ^ ^ ^ { ^ ^ ^ ^ ^ ^ ^ ^ ^ { { ^ ^ { { ^ ^ ^ ^ ^ ^ ^ { ^ ^ ^ ^ ^ ^ ^ ^ ^ ^ ^ ^ ^ ^ ^ ^ ^ ^ { ^ ^ ^ ^ ^ ^ ^ ^ ^ ^ ^ ^ ^ ^ ^ ^ 1 ^ ^ ^ ^ ^ ^ ^ ^ ^ ^ ^ ^ ^ ^ ^ ^ ^ ^ ^ ^ ^ ^ ^ ^ ^ ^ { ^ ^ ^ ^ ^ ^ ^ { ^ ^ ^ ^ ^ ^ ^ { ^ ^ ^ ^ ^ ^ ^ ^ { { ^ { ^ ^ ^ { ^ { ^ ^ { ^ ^ { { ^ ^ ^ ^ ^ ^ ^ ^ ^ { ^ { ^ ^ ^ ^ ^ ^ ^ ^ ^ ^ ^ { j k e ^ ^ { ^ { { ^ ^ ^ { ^ ^ ^ ^ ^ ~ ~ ~ { ~ ~ ~ ~ ~ ~ _ ~ ~ ~ ~ ~ ~ ~ ~ ~ ~ ~ { ~ { ~ ~   ",
"% * ~ ~ ~ ~ ~ { ~ ~ ~ ~ ~ ~ ^ ^ ^ ^ ^ ^ ^ ^ ^ ^ ^ ^ ^ ^ ^ ^ ^ ^ ^ ^ ^ ^ ^ ^ ^ ^ ^ ^ e k k ^ ^ ^ ^ { ^ ^ ^ ^ ^ ^ ^ ^ { ^ ^ ^ ^ ^ ^ ^ ^ ^ ^ ^ ^ ^ { ^ { ^ ^ ^ ^ ^ { { ^ ^ ^ ^ ^ ^ ^ ^ ^ ^ ^ ^ ^ ^ ^ ^ ^ ^ { ^ ^ ^ ^ ^ ^ ^ ^ ^ ^ ^ ^ ^ ^ ^ ^ ^ ^ ^ ^ ^ ^ ^ ^ ^ ^ { ^ ^ ^ ^ ^ ^ ^ ^ ^ ^ ^ ^ ^ ^ ^ { { ^ ^ ^ { ^ ^ ^ ^ ^ ^ ^ ^ ^ ^ ^ { ^ ^ ^ ^ ^ ^ ^ ^ { { ^ { ^ ^ ^ { ^ { ^ ^ { ^ ^ ^ { ^ ^ ^ ^ ^ ^ ^ ^ ^ { ^ { ^ ^ ^ ^ ^ ^ ^ ^ ^ ^ ^ { { k k e ^ { ^ { { ^ { ^ { ^ ^ ^ ^ ^ ^ ^ ~ { ~ ~ ~ ~ ~ ~ ~ ~ ~ ~ ~ ~ ~ ~ ~ ~ ~ ~ { ~ { ~ ~ % ",
"% * ~ ~ ~ ~ ~ ~ ~ ~ ~ ~ ~ ~ ^ ^ ^ ^ { ^ ^ ^ ^ ^ ^ ^ ^ ^ ^ ^ ^ ^ ^ ^ ^ ^ ^ ^ ^ ^ ^ e k k ^ ^ ^ ^ { { ^ ^ ^ ^ ^ ^ ^ ^ { ^ ^ ^ ^ ^ ^ ^ ^ ^ ^ ^ ^ ^ { { { ^ ^ ^ ^ { { ^ ^ ^ ^ ^ ^ ^ ^ ^ ^ ^ ^ ^ ^ ^ ^ ^ ^ [ { ^ ^ ^ ^ ^ ^ ^ ^ ^ ^ ^ ^ ^ ^ ^ ^ ^ ^ ^ ^ ^ ^ ^ ^ ^ ^ { ^ ^ ^ ^ ^ ^ ^ ^ | ^ ^ ^ ^ ^ ^ ^ { ^ ^ ^ { ^ ^ ^ ^ ^ ^ ^ ^ ^ ^ { ^ ^ ^ ^ ^ ^ { { { { { ^ { ^ ^ ^ { { { ^ ^ { ^ { { ^ ^ ^ ^ ^ ^ ^ ^ ^ ^ ^ ^ { ^ ^ ^ ^ ^ ^ ^ ^ ^ ^ ^ { { ^ k k d { { ^ { ^ { ^ { ^ ^ ^ ^ ~ ^ ^ ~ { ~ ~ ~ ~ ~ ~ ~ ~ ~ ~ ~ ~ ~ ~ ~ ~ ~ ~ ~ ~ ~ ~ ~ % ",
"% * ~ ~ ~ ~ ~ ~ ~ ~ ~ ~ ~ ~ ^ ^ ^ ^ ^ ^ ^ ^ ^ ^ ^ ^ ^ ^ ^ ^ ^ ^ ^ ^ ^ ^ ^ ^ ^ ^ e k k ^ ^ ^ ^ ^ ^ { ^ ^ ^ ^ ^ ^ ^ ^ ^ ^ ^ ^ ^ ^ ^ ^ ^ ^ ^ ^ ^ ^ { ^ { ^ ^ ^ ^ { ^ ^ ^ ^ ^ ^ ^ ^ ^ ^ ^ ^ ^ ^ ^ ^ ^ ^ ^ / { ^ ^ ^ ^ ^ ^ ^ ^ ^ ^ ^ ^ ^ ^ ^ ^ ^ ^ ^ ^ ^ ^ ^ ^ ^ ^ { ^ ^ ^ ^ ^ ^ ^ ^ ( ^ ^ ^ { ^ ^ ^ { ^ ^ ^ ^ ^ ^ ^ { ^ ^ ^ ^ ^ ^ { { ^ ^ ^ ^ ^ { { { { ^ ^ ^ ^ ^ ^ ^ ^ ^ ^ { { ^ { { ^ ^ ^ { ^ ^ ^ ^ ^ ^ { ^ ^ ^ ^ ^ ^ ^ ^ ^ ^ ^ ^ ^ { { { ^ k j d { { ^ ^ { ^ ^ ^ ^ ^ ^ ~ ~ ^ ~ { ~ ~ ~ ~ ~ ~ ~ ~ ~ ~ ~ ~ ~ ~ ~ ~ ~ ~ ~ ~ ~ ~ ~ % ",
"% * ~ ~ ~ ~ ~ ~ ~ ~ ~ ~ ~ ^ ^ ^ ^ ~ ^ ^ ^ ^ ^ ^ ^ ^ ^ ^ ^ ^ ^ ^ ^ ^ ^ ^ ^ ^ ^ e k k ^ ^ ^ ^ ^ ^ ^ ^ ^ ^ ^ ^ ^ ^ ^ ^ ^ ^ ^ ^ ^ ^ ^ ^ ^ ^ ^ ^ ^ ^ ^ { { ^ ^ ^ ^ { ^ { ^ ^ ^ ^ ^ ^ 2 [ 5 4 / ^ ^ ^ ^ ^ ^ / { 5 ^ ^ ^ ^ ^ ^ ^ ^ ^ ^ ^ ^ ^ ^ ^ ^ ^ ^ ^ ^ ^ ^ ^ ^ { { ^ ^ { ^ ^ ^ ^ ^ ^ ^ ^ ^ ^ ^ { ^ { ^ ^ ^ ^ ^ ^ ^ { ^ ^ ^ ^ ^ ^ ^ { ^ ^ ^ ^ ^ ^ ^ { { { ^ ^ ^ ^ ^ ^ ^ ^ ^ ^ { ^ ^ { ^ ^ ^ ^ ^ ^ ^ ^ ^ ^ { ^ ^ ^ ^ ^ ^ ^ ^ ^ ^ ^ ^ ^ { { { ^ ^ j j d { { { { ^ ^ ^ ^ ^ ^ ~ ~ ~ ^ { ~ ~ ~ ~ ~ ~ ~ ~ ~ ~ ~ ~ ~ ~ ~ ~ ~ ~ ~ ^ { ~ ~ % ",
"% * ~ ~ ~ ~ ~ ~ ~ / ~ ~ ~ ^ ^ ^ ^ ^ ^ ^ ^ ^ ^ ^ ^ ^ ^ ^ ^ ^ ^ ^ ^ ^ ^ ^ ^ ^ e k k ^ ^ ^ ^ ^ ^ ^ ^ ^ ^ ^ ^ { ^ ^ ^ ^ ^ ^ ^ ^ ^ ^ ^ ^ ^ ^ { ^ ^ ^ ^ { { ^ ^ ^ ^ { ^ { ^ ^ ^ ^ ^ / 5 / / 7 / { ^ ^ ^ ^ ^ ^ { / 1 ^ ^ ^ ^ ( ( 2 ^ ^ ^ ^ ^ ^ ^ ^ ^ ^ ^ ^ ^ ^ ^ ^ { ^ ^ ^ { ^ ^ ^ ^ ^ ^ ^ ^ ^ ^ { { { { ^ ^ ^ ^ ^ ^ ^ [ [ ^ ^ ^ ^ ^ ^ ^ ^ ^ { ^ ^ ^ ^ { { { { ^ { ^ { ^ { ^ ^ ^ ^ ^ ^ { ^ ^ ^ ^ ^ ^ ^ ^ ^ ^ ^ 8 ^ ^ ^ ^ ^ ^ ^ { ^ ^ ^ ^ { { { ^ ^ { j j d { { { { ^ ^ ^ ^ ^ ~ ~ ~ ^ { ~ ~ ~ ~ ~ ~ ~ ~ ~ ~ ~ ~ ~ ~ ~ ~ ~ ~ ~ ^ { ^ {   ",
"% * ~ ~ ~ ~ ~ ~ ^ / ~ ~ ~ ~ ~ ~ ^ ^ ^ ^ ^ ^ ^ ^ ^ ^ ^ ^ ^ ^ ^ ^ ^ ^ ^ ^ ^ e k k ^ ^ ^ ^ ^ ^ ^ ^ ^ ^ ^ ^ ^ ^ ^ ^ ^ ^ ^ ^ ^ ^ ^ ^ ^ ^ { ^ ^ ^ { ^ ^ { ^ ^ ^ ^ ^ { ^ { ^ ^ ^ ^ ^ ^ / / / / 3 { ^ ^ ^ ^ ^ ^ { [ ^ [ ^ ^ ^ ^ ^ ^ ^ ^ ^ ^ ^ ^ ^ ^ ^ ^ ^ ^ ^ ^ ^ ^ ^ ^ ^ ^ { ^ ^ ^ ^ ^ ^ ^ ^ ^ ^ { { { { ^ ^ ^ ^ ^ ^ 5 | 1 ^ ^ ^ ^ ^ ^ ^ ^ ^ { ^ ^ ^ ^ { { { { ^ ^ ^ ^ ^ { ^ ^ ^ { ^ ^ ^ ^ ^ ^ 3 ^ ^ ^ ^ ^ ^ ^ ^ ^ ^ ^ ^ ^ ^ ^ ^ ^ ^ ^ ^ ^ { { ^ ^ { { j j e { ^ { ^ ^ ^ ^ ^ ~ ~ ~ ^ { ~ ~ ~ ~ ~ ~ ~ ~ ~ ~ ~ ~ ~ ~ ~ ~ ~ { ~ ^ { ^ {   ",
"% * ~ ~ ~ ~ ~ ~ ~ ^ ~ ~ ~ ~ ~ ^ ^ ^ ^ ^ ^ ^ ^ ^ ^ ^ ^ ^ ^ ^ ^ ^ ^ ^ ^ ^ e k k ^ ^ ^ ^ ^ ^ ^ ^ ^ ^ ^ ^ ^ ^ ^ ^ ^ ^ ^ ^ ^ ^ ^ ^ ^ ^ ^ { ^ ^ { { ^ ^ { ^ ^ ^ ^ ^ ^ ^ ^ ^ ^ ^ ^ ^ ^ 6 / / / / { ^ ^ ^ ^ ^ ^ ^ ^ 5 ^ ^ a ^ ^ ^ ^ ^ ^ ^ ^ ^ ^ ^ ^ ^ ^ ^ ^ ^ ^ ^ ^ ^ ^ ^ ^ ^ ^ ^ ^ ^ { { ^ ^ { ^ { { { ^ ^ ^ ^ ^ ^ ^ ^ ^ ^ ^ ^ ^ ^ ^ ^ ^ ^ { { ^ ^ ^ ^ { { { { ^ { ^ ^ ^ ^ { ^ ^ { ^ ^ ^ ^ ^ ( ^ / 5 ^ ^ { { { ^ ^ ^ ^ ^ ^ ^ ^ ^ ^ ^ ^ ^ ^ { { ^ ^ { { { k k d ^ { ^ { ^ ^ ^ ^ ^ ^ ^ { ~ ~ ~ ~ ~ ~ ~ ~ ~ ~ ~ ~ ~ ~ ~ ~ ~ { ~ ^ { ^ ^ % ",
"% * ~ ~ ~ ~ ~ ~ ~ ^ ~ ~ ~ ~ ^ ^ ^ ^ ^ ^ ^ ^ ^ ^ ^ ^ ^ ^ ^ ^ ^ ^ ^ ^ ^ e k k ^ ^ ^ ^ ^ ^ ^ ^ ^ ^ ^ ^ { ^ { ^ ^ ^ ^ ^ ^ ^ { ^ ^ ^ ^ ^ ^ ^ { { { ^ ^ ^ ^ ^ ^ ^ ^ ^ ^ ^ ^ ^ ^ ^ ^ ^ ^ / / ^ ^ 7 ^ 6 ^ ^ ^ ^ ^ ^ ^ ^ ^ 7 a 8 ^ ^ ^ ^ ^ ^ ^ ^ ^ ^ ^ ^ ^ ^ ^ ^ ^ ^ ^ ^ ^ ^ ^ ^ ^ ^ ^ ^ { ^ ^ { ^ ^ { { { ^ ^ ^ ^ ^ ^ ^ ^ ^ ^ ^ ^ { { { ^ { ^ ^ ^ ^ ^ ^ ^ ^ { { ^ ^ ^ ^ ^ ^ ^ ^ ^ { ^ ^ ^ { / / 1 / 6 ^ ^ ^ { { ^ ^ ^ ^ ^ ^ ^ ^ ^ ^ ^ ^ ^ ^ ^ { ^ ^ { { { ^ k j e { ^ { ^ ^ ^ ~ { ~ ~ { ~ ~ ~ ~ ~ ~ ~ ~ ~ ~ ^ ^ ^ ^ ~ ~ ^ { ^ ^ { ^ ^ % ",
"% * ~ ~ ~ ~ ~ ~ ~ ~ ~ ~ ~ ~ ^ ^ ^ ^ ^ ^ ^ ^ ^ ^ ^ ^ ^ ^ ^ ^ ^ ^ ^ ^ e k k ^ ^ ^ ^ ^ ^ ^ ^ ^ ^ ^ ^ ^ ^ ^ { ^ ^ ^ ^ ^ ^ ^ { ^ ^ ^ ^ ^ { ^ ^ ^ ^ ^ ^ ^ ^ ^ ^ ^ ^ ^ ^ ^ ^ ^ ^ ^ ^ ^ ^ [ / / [ [ ^ [ ^ ^ ^ ^ ^ ^ ^ ^ ^ ^ ^ / ^ ^ ^ ^ ^ ^ ^ ^ ^ ^ ^ ^ ^ ^ ^ ^ ^ ^ ^ ^ ^ { ^ ^ ^ ^ ^ { ^ ^ ^ ^ ^ ^ { { ^ ^ ^ ^ ^ ^ ^ ^ ^ ^ ^ ^ ^ { { ^ ^ { { ^ ^ ^ ^ ^ ^ { { ^ ^ ^ ^ ^ ^ ^ ^ ^ ^ { ^ { / { 4 / / 2 ^ ^ ^ ^ ^ { ^ ^ ^ ^ ^ ^ ^ { ^ ^ ^ ^ ^ ^ ^ { ^ ^ { { ^ ^ ^ j k d ^ { ^ ^ ^ ~ ~ ~ ~ { ~ ~ ~ ~ ~ ~ ~ ~ ~ ~ ^ ^ ^ ^ ~ ~ ~ { ^ ^ { ^ { % ",
"% * ~ ~ ~ ~ ~ ~ ~ ~ ~ ~ ~ ~ ^ ^ ^ { ^ ^ ^ ^ ^ ^ ^ ^ ^ ^ ^ ^ ^ ^ ^ e k k ^ ^ ^ ^ ^ ^ ^ ^ ^ ^ ^ ^ ^ ^ ^ ^ ^ ^ { ^ ^ ^ ^ ^ ^ ^ ^ ^ ^ ^ ^ ^ ^ ^ ^ ^ { ^ ^ ^ ^ ^ ^ ^ ^ ^ ^ ^ ^ ^ ^ ^ ^ / / / 2 a ^ ^ ^ ^ ^ ^ ^ ^ ^ ^ ^ ^ ^ ^ ^ ^ ^ ^ ^ ^ ^ ^ ^ ^ ^ ^ ^ ^ ^ ^ ^ ^ ^ ^ ^ ^ { ^ ^ ^ ^ { ^ ^ ^ ^ ^ ^ ^ ^ 1 ( ^ { ^ ^ ^ ^ ^ ^ ^ ^ ^ { 8 [ ^ { ^ ^ ^ ^ ^ ^ ^ { { { { ^ ^ ^ ^ { ^ ^ ^ { 7 { { { ^ a b ^ ^ ^ ^ ^ ^ { ^ ^ ^ ^ ^ ^ ^ { ^ ^ ^ ^ ^ ^ { { ^ ^ { { ^ ^ ^ { k j e ^ ^ ^ ^ ~ ~ ~ ~ { ~ ~ ~ ~ ~ ~ ~ ~ ~ ~ ~ ~ ^ ^ ^ ^ ~ { ~ ^ { ^ ^ % ",
"% * ~ ~ ~ ~ ~ ^ ~ ~ ~ ~ ~ ^ ^ ^ ^ ^ ^ ^ ^ ^ ^ ^ ^ ^ ^ ^ ^ ^ ^ ^ e k k ^ ^ ^ ^ ^ ^ ^ ^ ^ ^ ^ ^ ^ ^ ^ ^ ^ ^ ^ { ^ ^ ^ ^ ^ ^ ^ ^ ^ ^ { ^ ^ ^ ^ ^ ^ ^ ^ ^ ^ ^ ^ ^ ^ ^ ^ ^ ^ ^ ^ ^ ^ ^ { ^ 7 3 ( ^ { ^ ^ [ ^ ^ ^ ^ ^ ^ ^ ^ ^ ^ ^ ^ ( ^ ^ ^ ^ ^ ^ ^ ^ ^ ^ ^ ^ ^ ^ ^ ^ ^ ^ { { ^ ^ { { ^ ^ ^ ^ ^ ^ ^ ^ ^ ^ ^ ^ ^ ^ ^ ^ ^ ^ ^ ^ ^ { / 8 ^ { ^ ^ ^ { ^ { { { { { { ^ ^ ^ ^ { { ^ ^ { ^ { { ^ a / / ^ ^ ^ ^ ^ { { ^ ^ ^ ^ ^ ^ ^ { ^ ^ ^ ^ ^ ^ { { ^ ^ ^ ^ ^ { ^ { ^ j k e ^ ^ ^ ~ ~ ~ ^ { ~ ~ ~ ~ ~ ~ ~ < ~ ~ ~ ~ ^ ^ ^ ^ ^ { ~ ^ ^ ^ ^ % ",
"% * ~ ~ ~ ~ ~ ~ ~ ~ ~ ~ ~ ^ ^ ^ ^ ^ ^ ^ ^ ^ ^ ^ ^ ^ ^ ^ ^ ^ ^ e k k ^ ^ ^ ^ ^ ^ ^ ^ ^ ^ ^ ^ ^ ^ ^ ^ ^ ^ ^ ^ ^ ^ ^ ^ ^ ^ ^ ^ ^ ^ ^ ^ ^ 5 / ^ ^ 1 ^ ^ ^ ^ ^ ^ ^ ^ ^ ^ ^ ^ ^ ^ ^ ^ ^ { ^ ^ ^ ^ { ^ ^ ^ ^ ^ / / / ^ ^ ^ ^ ^ ^ ^ ^ 2 ^ ^ ^ ^ ^ ^ ^ ^ ^ ^ ^ ^ ^ ^ ^ ^ ^ | { { ^ ^ { { ^ ^ ^ { { ^ { ^ { ^ ^ ^ ^ ^ ^ ^ ^ ^ ( ^ ^ { ^ ^ ^ { ^ ^ ^ { ^ { { { ^ ^ { ^ ^ ^ ^ { { ^ ^ { ^ { { ^ / / / / ^ ^ ^ ^ { { { ^ ^ ^ ^ ^ ^ ^ ^ ^ ^ ^ ^ ^ { { ^ ^ ^ ^ ^ { ^ { ^ ^ k k e ^ ^ ^ ~ ^ ^ { ~ ~ ~ ~ ~ ~ ~ ~ ~ ~ ~ ~ ~ ^ ~ ^ ^ ~ ~ ~ ~ ^ ^ % ",
"% * ~ ~ ~ ~ ~ ~ ~ ~ ~ ~ ^ ^ ^ ^ ^ ^ ^ ^ ^ ^ ^ ^ ^ ^ ^ ^ ^ ^ e k k ^ ^ ^ ^ ^ ^ ^ ^ ^ ^ ^ ^ ^ ^ ^ ^ ^ ^ ^ ^ ^ ^ ^ ^ ^ ^ ^ ^ ^ ^ ^ ^ ^ ^ ^ / b ^ { { ^ ^ ^ ^ ^ ^ { ^ ^ ^ ^ ^ ^ ^ ^ ^ ^ ^ ^ ^ ^ ^ ^ ^ ^ ^ ^ / / | ^ ^ ^ ^ ^ ^ ^ ^ ^ 2 1 ^ ^ ^ ^ ^ ^ ^ ^ ^ ^ ^ ^ ^ ^ ^ { ^ { 1 ^ { ^ ^ ^ ^ ^ { ^ { ^ { ^ ^ ^ ^ ^ ^ ^ ^ ^ ^ ^ ^ { c ^ ^ { ^ ^ ^ { { { ^ { { ^ ^ ^ { { ^ { { ^ ^ { ^ { { ^ 4 / / 7 8 ^ ^ ^ { { { ^ ^ ^ ^ ^ ^ ^ ^ ^ ^ ^ ^ ^ { { ^ ^ { ^ ^ { ^ { ^ ^ ^ k k e ^ ~ ~ ^ ^ { ^ ~ ^ ^ ~ ~ ~ ~ ~ ~ ~ ^ ~ ~ ~ ~ ~ ~ ~ ~ ^ ^ ^ % ",
"  q r r r r r r r r r r s t u v w w w w w w w x y x w w z A k k ^ ^ ^ ^ ^ ^ ^ ^ ^ ^ ^ ^ ^ ^ ^ ^ ^ ^ ^ ^ ^ ^ ^ ^ ^ ^ ^ ^ ^ ^ { ^ ^ ^ ^ ^ / / / { { / ^ ^ ^ ^ ^ { ^ ^ ^ ^ ^ ^ ^ ^ ^ ^ ^ ^ ^ ^ ^ ^ ^ ^ ^ ^ ^ ^ ^ ^ ^ ^ ^ ^ ^ ^ ^ ^ ^ c ^ ^ ^ ^ ^ ^ ^ { { 1 ^ ^ ^ ^ ^ ^ ^ ^ ^ ^ ^ ^ ^ ^ ^ ^ ^ ^ { ^ ^ ^ ^ ^ ^ ^ ^ ^ ^ ^ ^ ^ ^ { { ^ ^ { ^ ^ / { { { { { { { ^ ^ ^ ^ ^ { { ^ ^ { ^ ^ ^ ^ ^ ^ ^ ^ ^ ^ ^ ^ { { { ^ ^ ^ ^ ^ ^ ^ ^ ^ ^ ^ ^ ^ { ^ ^ ^ { { { { ^ { ^ ^ ^ ^ k k B x C w w D w w D w w E s F G H B I G J K r r r r r x v w L ",
"M N O O O O O O O O O O O k k k k k k k k k k k k k k k k k P ^ ^ ^ ^ ^ ^ ^ ^ ^ ^ ^ ^ ^ ^ ^ ^ ^ ^ ^ ^ ^ ^ ^ ^ ^ ^ ^ ^ ^ ^ ^ ^ ^ ^ ^ ^ ^ ^ / ^ ^ / ^ ^ ^ ^ ^ ^ { ^ ^ ^ ^ ^ ^ ^ ^ ^ ^ ^ ^ ^ ^ ^ ^ ^ ^ ^ ^ ^ ^ ^ ^ ^ ^ ^ ^ ^ ^ ^ ^ ^ ^ ^ ^ ^ ^ ^ ^ ^ { { ^ ^ ^ { ^ ^ ^ ^ ^ ^ ^ ^ ^ ^ ^ 7 ^ { ^ { ^ ^ 1 { ^ ^ ^ ^ { ^ ^ ^ ^ ^ ^ ^ { ^ ^ ^ { 1 { { ^ { ^ { { { ^ ^ { ^ { { ^ ^ { ^ ^ ^ ^ ^ ^ ^ ^ ^ ^ ^ ^ ^ ^ ^ ^ ^ ^ ^ ^ ^ ^ ^ ^ ^ ^ ^ ^ { ^ ^ ^ { ^ { { ^ { ^ { ^ ^ ^ Q k k k k k j O k j k k O O k k k k k k k O O O O O k k k k M ",
"R S T T T U U U U U U U U e e e e e e e e e e e e e e e e k k w ^ ^ ^ ^ ^ ^ ^ ^ ^ ^ ^ ^ ^ ^ ^ ^ ^ ^ ^ ^ ^ ^ ^ ^ ^ ^ ^ ^ ^ ^ ^ ^ ^ ^ ^ ^ ^ ^ ^ ^ ^ { ^ ^ { ^ ^ { ^ 4 ^ ^ ^ ^ ^ ^ ^ ^ ^ ^ ^ ^ ^ ^ ^ ^ ^ ^ ^ ^ ^ ^ ^ ^ ^ ^ ^ ^ ^ ^ ^ ^ ^ ^ ^ ^ ^ ^ ^ { { ^ ^ ^ { ^ ^ 1 ^ ^ ^ ^ ^ ^ ^ / / / { ^ ^ ^ ^ 3 { 1 3 ^ ^ { ^ ^ ^ ^ ^ ^ ^ ^ ^ ^ ^ ^ ^ { { ^ { { { ^ { ^ ^ ^ { { ^ ^ ^ { ^ ^ ^ ^ ^ ^ ^ ^ ^ ^ ^ ^ { ^ ^ ^ ^ ^ ^ ^ ^ ^ ^ ^ ^ ^ ^ ^ { ^ ^ ^ ^ ^ ^ ^ ^ { ^ ^ ^ ^ V k k e e e e d U U d e e e e e e e e e e e U U e e e e e e e W ",
"% * ~ ~ { ~ ~ ~ ~ ~ ~ ~ ~ ~ ^ ^ ^ ^ ^ ^ ^ ^ ^ ^ ^ ^ ^ ^ ^ e k k w ^ ^ ^ ^ ^ ^ ^ ^ ^ ^ ^ ^ ^ ^ ^ ^ ^ { ^ ^ ^ ^ ^ ^ ^ ^ ^ { ^ ^ ^ ^ ^ ^ ^ ^ ^ ^ ^ ^ { ^ ^ { 7 2 ^ / 7 ^ ^ ^ ^ ^ ^ ^ ^ ^ ^ ^ ^ ^ ^ ^ ^ ^ ^ / ^ ^ ^ ^ ^ ^ ^ ^ ^ ^ ^ ^ ^ ^ ^ ^ ^ ^ ^ ^ ^ ^ ^ ^ ^ { ^ ^ ^ ^ ^ ^ ^ { ^ ^ 5 ^ ^ { { ^ ^ ^ / { / ^ ^ ^ { ^ ^ ^ ^ ^ ^ ^ ^ ^ ^ ^ ^ ^ { { 2 { { { ^ ^ ^ ^ ^ { { ^ ^ ^ ^ ^ ^ ^ ^ ^ ^ ^ ^ ^ ^ ^ ^ { { ^ ^ ^ ^ ^ ^ ^ ^ ^ 1 ^ ^ ^ ^ ^ ^ ^ ^ ^ ^ { ^ ^ { ^ ^ ^ X k k e ^ ^ ^ ^ { ~ ~ { ^ ^ ^ ~ ^ ^ ^ ^ ^ ^ ^ ^ ^ ^ ^ ^ ^ ^ ^ ^ % ",
"% * ~ ~ { ~ ~ ~ ~ ~ ~ ~ ~ ^ ^ ^ ^ ^ ^ ^ ^ ^ ^ ^ ^ ^ ^ ^ ^ ^ e k k Y ^ ^ ^ ^ ^ ^ ^ ^ ^ ^ ^ ^ ^ ^ ^ ^ ^ ^ ^ ^ ^ ^ ^ ^ ^ ^ { ^ ^ ^ ^ ^ ^ ^ ^ ^ ^ { { ^ ^ ^ 4 / / { / 1 ^ ^ ^ ^ ^ ^ ^ ^ ^ ^ ^ ^ ^ ^ ^ ^ ^ [ / ^ ^ ^ ^ ^ ^ ^ ^ ^ ^ ^ ^ ^ ^ ^ ^ ^ ^ ^ ^ ^ ^ ^ ^ ^ ^ ^ ^ ^ ^ ^ ^ ^ { ^ ^ 6 ^ ^ { { ^ ^ 3 / / ^ ^ ^ ^ ^ ^ ^ ^ ^ ^ ^ ^ ^ ^ ^ ^ ^ { { { { { { { ^ { ^ ^ ^ ^ { ^ ^ ^ { ^ { ^ ^ ^ ^ ^ ^ ^ ^ ^ ^ { { ^ ^ ^ ^ ^ ^ ^ ^ ^ ^ ^ ^ ^ ^ ^ ^ ^ ^ ^ ^ { ^ ^ ^ ^ { u k k e ^ ^ ^ ^ ^ ^ ~ ^ { ~ ^ ^ ^ ^ ^ ^ ^ ^ ^ ^ ^ ~ ^ ^ ^ ^ ^ ^ ^ % ",
"% * ~ ~ ~ ~ ~ ~ ~ ~ ~ ~ ~ ~ ^ ^ ^ ^ ^ ^ ^ ^ ^ ^ ^ ^ ^ ^ ^ ^ ^ e k k w ^ ^ ^ ^ ^ ^ ^ ^ ^ ^ ^ ^ ^ ^ ^ ^ ^ ^ ^ ^ ^ ^ ^ ^ ^ { ^ ^ ^ ^ ^ ^ ^ ^ ^ ^ ^ ^ 1 ^ ( / / / { a ^ ^ ^ ^ ^ ^ ^ ^ { ^ ^ ^ ^ ^ ^ ^ ^ ^ ( ^ ^ ^ ^ ^ ^ ^ ^ ^ ^ ^ ^ ^ ^ ^ ^ ^ ^ ^ ^ ^ { { ^ ^ ^ ^ ^ ^ { ^ ^ 7 | [ ^ ^ ^ ^ ^ ^ ^ ^ { 7 / 5 ^ ^ ^ ^ ^ ^ ^ ^ ^ ^ ^ ^ ^ ^ ^ ^ ^ ^ { { { { { { ^ { ^ { ^ ^ { ^ ^ ^ { ^ { ^ ^ ^ ^ ^ ^ ^ ^ ^ ^ { { ^ ^ ^ ^ ^ ^ ^ ^ ^ ^ ^ ^ ^ ^ ^ { ^ ^ ^ ^ ^ ^ ^ ^ { Z k k e ^ ^ ^ ^ ^ ^ { ^ ~ ~ ~ ^ ^ ^ ^ ^ ^ ~ ~ ^ ^ ^ ~ ^ { ^ ^ ^ ^ ^ % ",
"  * ~ ~ ~ ~ ~ ~ ~ ~ ~ ~ ~ ~ ~ ^ ^ ^ ^ ^ ^ ^ ^ ^ ^ ^ ^ ^ ^ ^ ^ ^ e k k w ^ ^ ^ ^ ^ ^ ^ ^ ^ ^ ^ ^ ^ ^ ^ ^ ^ ^ ^ ^ ^ ^ ^ ^ { ^ ^ ^ ^ ^ ^ ^ ^ ^ ^ ^ ^ { { { / / 3 { ( ^ ^ ^ ^ ^ ^ ^ ^ ^ 5 ^ ^ ^ ^ ^ ^ ^ ^ ^ ^ ^ ^ ^ ^ ^ ^ ^ ^ ^ ^ ^ ^ ^ ^ ^ ^ ^ ^ ^ { { { ^ ^ ^ ^ 1 ^ { ^ 1 1 ^ ( [ ( ^ 1 ^ { ^ ^ { | / ^ ^ ^ ^ ^ ^ ^ ^ ^ ^ ^ ^ { ^ ^ ^ ^ ^ ^ ^ { { ^ ^ { ^ { ^ ^ ^ ^ { ^ ^ ^ { ^ { { ^ ^ ^ ^ ^ ^ ^ ^ ^ ^ { ^ ^ ^ ^ ^ ^ ^ ^ ^ ^ ^ ^ ^ ^ ^ { ^ ^ { ^ ^ ^ ^ { ` j k e ^ ^ ^ ^ ^ ^ { { ~ ~ ~ ~ ^ ^ ^ ^ ^ ~ ~ ^ ^ ^ ^ ^ ^ ^ ^ ^ ~ ~ ^ . ",
"% * ~ ~ ~ ~ ~ ~ ~ ~ ~ ~ ~ ~ ^ ^ ^ ^ ^ ^ ^ ^ ^ ^ ^ ^ ^ ^ ^ ^ ^ ^ ^ e k k w ^ ^ ^ ^ ^ ^ ^ ^ ^ ^ ^ ^ ^ ^ ^ ^ ^ ^ ^ ^ ^ ^ ^ ^ ^ ^ ^ { { { ^ ^ ^ ^ ^ { { { { / 2 ^ / 1 ^ ^ ^ ^ ^ ^ ^ ^ ^ ^ ^ ^ ^ ^ ^ ^ ^ ^ ^ ^ ^ ^ ^ ^ ^ ^ ^ ^ ^ ^ ^ ^ ^ ^ ^ ^ ^ ^ ^ { { ^ { ^ ^ ^ ^ ^ { ^ ^ ^ ^ ^ ^ / | a ^ ^ ^ ^ { / / | ^ ^ ^ ^ ^ ^ ^ ^ ^ ^ { { ^ ^ ^ ^ ^ ^ ^ { { ^ ^ { ^ ^ ^ ^ ^ { ^ ^ ^ ^ { ^ { ^ ^ ^ ^ ^ ^ ^ ^ ^ ^ ^ { ^ ^ ^ ^ ^ ^ ^ ^ ^ ^ ^ ^ ^ ^ ^ { ( 1 { ^ { ^ ^  .j j e ^ ^ ^ ^ ^ ^ ^ { { ~ ~ ~ ~ ^ ^ ~ ~ ^ ~ ~ ^ ^ ^ ^ ^ ^ ^ ^ ~ ~ ~ ^ . ",
"% * ~ ~ ~ ~ ~ ~ ~ ~ ~ ~ ~ ~ ^ ^ ^ ^ ^ ^ ^ ^ ^ ^ ^ ^ ^ ^ ^ ^ ^ ^ ^ ^ e k k w ^ ^ ^ ^ ^ ^ ^ ^ ^ ^ ^ ^ ^ ^ ^ ^ ^ ^ ^ ^ ^ ^ ^ ^ ^ ^ { ^ ^ ^ ^ ^ ^ { ^ { ^ { ^ { ^ ^ ^ ^ ^ ^ ^ ^ ^ ^ ^ ^ ^ ^ ^ ^ ^ ^ ^ ^ ( ^ ^ ^ ^ ^ ^ ^ ^ ^ ^ ^ ^ ^ ^ ^ ^ ^ ^ ^ ^ ^ { ^ ^ ^ ^ ^ ^ ^ { { ^ ^ ^ ^ ^ ^ / / 2 1 ^ c { { ^ ^ { ^ ^ ^ ^ ^ ^ ^ ^ ^ / / { ^ ^ ^ ^ ^ ^ ^ { { { { { ^ ^ ^ ^ ^ ^ ^ ^ ^ ^ { ^ { ^ ^ ^ 2 ^ ^ ^ ^ ^ 6 ^ ^ ^ ^ ^ ^ ^ ^ ^ ^ ^ ^ ^ ^ ^ ^ ^ { ^ ^ ^ ^ { ^ u j k e ^ ^ ^ ^ ^ ^ ^ ^ { { { ~ ~ ~ ^ ~ ~ ~ ^ ^ { { ^ ^ ^ ^ ^ ^ ^ ~ ~ ~ ~ % ",
"% - ~ ~ ~ ~ ~ ~ ~ ~ ~ ~ ^ ^ ^ ^ ^ ^ ^ ^ ^ ^ ^ ^ ^ ^ ^ ^ ^ ^ ^ ^ ^ ^ ^ e k k w ^ ^ ^ ^ ^ ^ ^ ^ { ^ ^ { ^ ^ ^ ^ ^ ^ ^ ^ ^ ^ ^ ^ ^ { ^ ^ ^ ^ ^ ^ { { { ^ { ^ { ^ { ^ ^ ^ ^ ^ ^ ^ ^ ^ ^ ^ ^ ^ ^ ^ ^ ^ 2 2 5 ^ ^ ^ ^ ^ ^ ^ ^ ^ ^ ^ ^ ^ ^ ^ ^ ^ ^ ^ ^ ^ ^ ^ ^ ^ ^ ^ ^ ^ ^ ^ [ { ^ ^ ^ / ( ^ { 1 3 { ^ ^ ^ { ^ ^ ^ ^ / ^ b ^ ^ / ^ { ^ { { ^ ^ ^ ^ { { { { { { ^ ^ ^ ^ ^ ^ ^ ^ ^ ^ ^ { ^ ^ ^ / / ^ ^ ^ ^ | / | ^ ^ ^ ^ ^ ^ ^ ^ ^ ^ ^ 5 | ^ ^ ^ ^ ^ ^ ^ ^ ..k k d ^ ^ ^ ^ ^ ^ ^ ^ ^ { { { ~ ~ ~ ^ ~ ~ ~ ^ ^ { { ^ ^ ^ ^ ^ ^ ^ ~ ~ ~ ~ % ",
"% - ~ ~ ~ ~ ~ ~ ~ ^ { ~ ^ ^ ^ ^ ^ ^ ^ ^ ^ ^ ^ ^ { ^ ^ ^ ^ ^ ^ ^ ^ ^ ^ ^ e k k w ^ ^ ^ ^ ^ ^ ^ { ^ ^ { ^ ^ ^ ^ ^ ^ ^ ^ ^ ^ ^ ^ ^ { ^ ^ ^ ^ / / { { { ^ { ^ { ^ { ^ ^ ^ ^ ^ ^ ^ ^ ^ { ^ ^ ^ ^ ^ ^ ^ ^ ^ ^ ^ 1 ^ ^ ^ ^ ^ ^ ^ ^ ^ ^ ^ ^ ^ ^ ^ ^ ^ ^ ^ ^ ^ ^ ^ ^ ^ ^ ^ ^ ^ ^ ^ ^ ^ ^ ^ ^ ^ { { { { ^ ^ ^ { ^ ^ ^ ^ 2 / 7 2 ^ / ^ { 7 { { { ^ { { ^ ^ { { { ^ ^ ^ ^ ^ ^ ^ ^ ^ ^ ^ ^ { ^ ^ ^ / / / ^ ^ ^ ^ { [ ^ ^ ^ ^ ^ ^ ^ ^ ^ ^ ^ / / [ ^ ^ ^ ^ { ^ u k k e ^ ^ ^ ^ ^ ^ ^ ^ ^ ^ { { { ~ ~ ~ ^ ^ ^ ~ ~ ^ ^ ^ ^ ^ ^ 5 8 ( ^ ^ ^ ^ ^ % ",
"% * ~ ~ ~ ~ ~ ~ ^ ^ ~ ~ ~ ~ ~ ^ ^ ^ { { ^ ^ ^ ^ { ^ ^ ^ ^ ^ ^ ^ ^ ^ ^ ^ ^ e k k +.^ ^ ^ ^ { ^ { ^ { { ^ ^ ^ ^ ^ ^ ^ ^ ^ ^ ^ ^ { ^ ^ { / / / ^ { { ^ ^ { ^ ^ ^ { ^ ^ ^ ^ ^ ^ ^ ^ ^ { ^ ^ ^ ^ ^ ^ ^ { ^ ^ ^ b ^ ^ ^ ^ ^ ^ ^ ^ ^ ^ ^ ^ ^ ^ ^ ^ ^ ^ ^ ^ ^ ^ ^ ^ ^ ^ { { ^ ^ ^ ^ ^ ^ ^ ^ ^ { { { { ^ { ^ { ^ ^ ^ ^ ^ ^ [ [ / / ^ { ( ^ { { ^ ^ ^ ^ ^ ^ ^ ^ ^ ^ ^ ^ ^ ^ ^ ^ ^ ^ ^ ^ { ^ ^ ^ 6 ( 5 ^ ^ ^ ^ 7 8 ^ ^ ^ ^ ^ ^ ^ ^ ^ ^ / / / ^ ^ ^ ^ ^ { y k k e ^ { ^ ^ ^ ^ ^ ^ ^ ^ ^ { { ^ ~ ~ ~ ^ ^ ^ ^ ^ ^ { ^ ^ ^ ^ 1 a 2 ^ ^ ^ ^ ^ % ",
"% * ~ ~ ~ ~ ~ ~ ~ ~ ~ ~ ^ ^ ^ ^ ^ { { { ^ ^ ^ ^ ^ ^ ^ ^ ^ ^ ^ ^ ^ ^ ^ ^ ^ ^ e k k @.^ ^ ^ { ^ ^ ^ { { { ^ ^ ^ ^ ^ ^ ^ ^ { ^ ^ { ^ { { / b ^ ^ ^ ^ ^ ^ { ^ ^ ^ ^ ^ ^ ^ ^ ^ ^ ^ ^ ^ ^ ^ { ^ ^ ^ ^ ^ { ^ ^ ^ b / ^ ^ ^ ^ ^ ^ ^ ^ ^ ^ ^ ^ ^ ^ ^ ^ ^ ^ ^ ^ 5 | ^ ^ ^ ^ ^ ^ ^ ^ { { { ^ ^ ^ { ^ { { ^ ^ ^ { ^ ^ ^ ^ ^ ^ ^ 8 a / ^ { ^ ^ ^ { ^ ^ ^ ^ ^ ^ ^ ^ ^ ^ ^ ^ ^ ^ ^ ^ ^ ^ ^ ^ ^ ^ ^ ^ ^ ^ ^ ^ ^ ^ 1 7 2 ^ ^ ^ ^ ^ ^ ^ ^ ^ | b { ^ ^ ^ ^ ^ ^ #.k j e ^ { { ^ ^ ^ ^ ^ ^ ^ ^ ^ { ^ ^ ~ ~ ^ ^ ^ ^ ^ ^ ^ ^ ^ ^ ^ ^ 2 / / | ^ ^ ^ ^ % ",
"% - ~ ~ ~ ~ ~ ~ ~ ~ ^ ^ ^ ^ ^ ^ ^ { { ^ ^ ^ ^ ^ ^ ^ ^ ^ ^ ^ ^ ^ ^ ^ ^ ^ ^ ^ ^ e k k  .^ ^ ^ ^ ^ ^ ^ { { ^ ^ ^ ^ ^ ^ ^ ^ ^ ^ ^ { ^ { { / 2 ^ ^ ^ ^ ^ ^ ^ ^ ^ ^ ^ ^ ^ ^ ^ ^ ^ ^ ^ ^ ^ ^ ^ ^ ^ ^ ^ ^ ^ ^ ^ ^ ^ 7 ^ ^ ^ ^ ^ ^ ^ ^ ^ ^ ^ ^ ^ ^ ^ ^ ^ ^ ^ ^ ^ ^ ^ ^ ^ { ^ ^ ^ ^ { ^ { ^ ^ ^ ^ ^ ^ { ^ ^ ^ { ^ ^ ^ ^ ^ ^ ^ ^ ^ ^ ^ { ^ ^ ^ { ^ ^ ^ ^ ^ ^ { { ^ ^ ^ ^ ^ ^ ^ ^ ^ ^ ^ ^ ^ ^ ^ ^ ^ ^ ^ ^ ^ ^ { { ^ ^ ^ ^ ^ ^ ^ ^ ^ ^ / ^ ^ ^ ^ ^ ^ ^ y j k d ^ ^ { ^ ^ ^ ^ ^ ^ ^ ^ ^ ^ { ^ ~ ^ ^ ^ { ^ ^ ^ ^ ^ ~ ^ ^ ^ ^ ^ / / ^ ^ ~ ^ ^ % ",
". * ~ ~ ~ ~ ~ ~ ~ ~ ~ ^ ^ ^ ^ ^ ^ ^ { { ^ ^ ^ ^ ^ ^ ^ ^ ^ ^ ^ ^ ^ ^ ^ ^ ^ ^ ^ ^ e k k  .^ ^ ^ ^ ^ ^ ^ { ^ ^ ^ ^ ^ ^ ^ ^ ^ ^ ^ ^ ^ { { ^ ^ ^ ^ ^ ^ { ^ ^ ^ ^ ^ ^ ^ ^ ^ ^ 7 ^ ^ ^ ^ ^ ^ { ^ ^ ^ ^ ^ ^ | ( ^ ^ 5 / ^ ^ ^ 1 ^ ^ / 3 ^ ^ ^ ^ ^ ^ ^ ^ { { ^ ^ ^ ^ ^ ^ { ^ ^ ^ ^ { ^ ^ ^ ^ ^ { ^ ^ { ^ ^ { { ^ ^ ^ ^ ^ ^ ^ ^ ^ ^ ^ ^ ^ ^ { { ^ ^ ^ ^ ^ ^ { { ^ ^ ^ ^ ^ { { ^ ^ ^ ^ ^ ^ ^ ^ ^ ^ ^ ^ ^ ^ ^ { { ^ ^ ^ ^ ^ ^ ^ ^ ^ ^ ^ ^ ^ ^ ^ ^ ^ $.k j e { ^ ^ { ^ ^ ^ ^ ^ ^ ^ ^ ^ ^ { ^ ^ ^ ^ ^ { ^ { ^ ^ ^ { { ^ ^ ^ ( / 4 2 ^ ^ ^ ^ % ",
"% * ~ ~ ~ ~ ~ ~ ~ ~ ^ ^ ^ ^ ^ ^ ^ ^ ^ ^ ^ ^ ^ ^ ^ ^ ^ ^ ^ ^ ^ ^ ^ ^ ^ ^ ^ ^ ^ ^ ^ e k k u ^ ^ ^ ^ ^ ^ ^ ^ ^ ^ ^ ^ ^ ^ ^ { ^ ^ ^ ( { { ^ ^ ^ ^ ^ ^ { ^ { ^ ^ ^ ^ ^ ^ ^ 5 / c 1 ( ^ ^ ^ { ^ ^ ^ ^ ^ ^ | ^ ^ ^ / / ^ ^ ^ | 6 / ^ 7 ^ ^ ^ ^ ^ ^ ^ ^ ^ ^ ^ ^ ^ ^ ^ ^ ^ ^ ^ ^ ^ { ^ ^ ^ ^ ^ { ^ ^ { ^ ^ { { ^ ^ ^ ^ ^ ^ ^ ^ ^ ^ ^ ^ ^ { { { ^ ^ { ^ { ^ { { ^ ^ ^ ^ ^ { { ^ ^ ^ ^ ^ { ^ ^ ^ ^ ^ ^ ^ ^ ^ { ^ { ^ ^ ^ ^ ^ ^ ^ ^ ^ ^ ^ ^ ^ ^ ^ A k k d ^ ^ ^ ^ { ^ ^ ^ ^ ^ ^ ^ ^ ^ ^ { ^ ^ ^ ^ ^ { ^ { ^ ^ ~ { { ^ ^ ^ / / ^ ^ ^ 2 ^ ^ % ",
"% * ~ ~ ~ ~ ~ ~ ~ ~ { ~ ^ ^ ^ ^ ^ ^ ^ ^ ^ ^ ^ { { ^ ^ ^ ^ ^ ^ ^ ^ ^ ^ ^ ^ ^ ^ ^ ^ ^ e k k %.^ ^ ^ { ^ ^ ^ ^ ^ ^ ^ ^ ^ { { ^ ^ ^ { { { ^ ^ ^ ^ ^ ^ ^ ^ { ^ ^ ^ ^ ^ ^ ^ 0 / / 4 b ^ ^ ^ { ^ ^ ^ ^ ^ ^ ^ ^ ^ ^ ( ( ^ ^ ^ ^ ^ ^ ^ b c ^ ^ ^ ^ ^ ^ ^ ^ ^ ^ ^ ^ ^ { ^ { ^ ^ ^ ^ { ^ { b a 5 { ^ { { ^ ^ { { ^ ^ ^ ^ ^ ^ ^ ^ ^ ^ ^ ^ ^ { ^ { ^ ^ { { { ^ { { ^ ^ ^ { ^ { ^ ^ ^ ^ ^ ^ { ^ ^ ^ ^ ^ ^ ^ ^ ^ { { { ^ ^ ^ ^ ^ ^ ^ ^ a 2 ^ ^ ^ ^ w k k e { ^ ^ ^ ^ { ^ ^ ^ ^ ^ ^ ^ ^ ^ ^ { ^ ^ ^ ~ ~ { 1 { ^ ^ ~ ^ { ^ ^ / / 5 ^ ^ ^ ^ ^ { % ",
"% * ~ ~ ~ ~ ~ ~ ~ { { ~ ~ ~ ~ ~ ^ ~ ^ ^ ^ ^ ^ { { ^ ^ ^ ^ ^ ^ { ^ ^ ^ ^ ^ ^ ^ ^ ^ ^ ^ e k j I ^ ^ ^ ^ ^ ^ ^ ^ ^ ^ ^ ^ { { ^ ^ ^ { / { ^ ^ ^ ^ [ ^ ^ ^ { ^ ^ ^ ^ ^ ^ ^ / / / | 7 0 ^ ^ { ^ ^ / ^ ^ ^ ^ ^ ^ ^ ^ ^ ^ ^ ^ ^ ^ / ^ / 2 1 ^ ^ ^ ^ ^ ^ { ^ ^ ^ ^ ^ ^ ^ ( 3 / 1 ^ { ^ { ^ ^ ^ { { { { { { { { ^ ^ ^ ^ ^ ^ ^ ^ ^ ^ ^ ^ ^ { ^ { ^ ^ { { ^ ^ { { ^ ^ ^ ^ { { ^ ^ ^ ^ ^ ^ { { ^ ^ ^ ^ ^ ^ ^ ^ { { { ^ ^ ^ ^ ^ 1 ^ ^ / / ^ ^ 8 &.j k e ^ ^ ^ { ^ ^ { { ^ ^ ^ ^ ^ ^ ^ ^ ^ { ^ ^ ~ ~ ^ { ^ { ^ ^ ^ ^ ^ ( ( ^ ^ ^ ^ ^ ^ ^ ^ ^ % ",
"*.* ~ ~ ~ ~ ~ ~ ~ ~ { ~ ~ ~ ~ ~ ^ ^ ^ ^ ^ ^ ^ { { ^ ^ ^ ^ ^ ^ { ^ ^ ^ ^ ^ ^ ^ ^ ^ ^ ^ ^ e j k u ^ { ^ ^ ^ ^ ^ ^ ^ ^ ^ { { ^ ^ { { / { 3 / 4 7 3 { ^ ^ { ^ ^ ^ ^ ^ ^ ^ / / / 3 ^ / ^ ^ ^ ^ ^ / ^ ^ ^ ^ ^ ^ ^ ^ ^ ^ ^ ^ b b 4 / 7 1 ^ ^ ^ ^ ^ ^ { { { ^ ^ ^ ^ ^ ^ ^ | / / ^ { ^ { ^ ( ^ ^ { { { { { ^ ^ ^ ^ ^ ^ ^ ^ ^ ^ ^ ^ ^ ^ ^ ^ { ^ ^ ^ { { ^ ^ { ^ ^ ^ ^ ^ { { ^ ^ ^ ^ ^ ^ { { ^ ^ ^ [ [ ^ ^ ^ ^ { { ^ ^ ^ ^ ^ / { ^ / / 5 7 =.-.j g 4 ^ ^ ^ { ^ ^ { { ^ ^ ^ ^ ^ ^ ^ ^ ^ { ^ ~ ~ ^ ^ { ^ { ^ ^ ^ ^ ^ ^ ( ^ ^ ^ ^ ^ ^ ^ ^ { % ",
";.* ~ ~ ~ ~ ~ ~ ~ ^ ^ ~ ~ ^ ~ ~ ^ ^ ^ ^ ^ ^ ^ ^ ^ ^ ^ ^ ^ ^ ^ { ^ ^ ^ ^ ^ ^ ^ ^ ^ ^ ^ ^ ^ e k k u { ^ ^ ^ ^ ^ ^ ^ ^ ^ { { ^ ^ { { / { / / 5 b 1 { ^ { { ( ^ 2 ^ ^ ^ ^ / / / / 3 / ^ ^ ^ ^ ^ ^ [ ^ ^ ^ ^ ^ ^ ^ ^ ( ^ ^ b / / 7 / ^ ^ ^ ^ ^ 7 ^ { { { ^ ^ ^ ^ ^ ^ ^ 5 5 | / / ^ { ^ ^ ^ ^ ^ { { ^ ^ { ^ ^ ^ ^ ^ ^ ^ ^ ^ ^ ^ 1 ^ ^ ^ { { ^ ^ { { { { { { ^ ^ ^ ^ { { ^ ^ ^ ^ ^ ^ { { ^ ^ ^ 5 1 1 ^ ^ { { { ^ ^ ^ ^ ^ c 3 [ / / [ =.m >.o 2 / / 7 ^ { ^ ^ ^ { ^ ^ ^ ^ ^ ^ ^ ^ ^ ^ ^ ~ ^ ^ ^ { ^ ^ ~ ^ ^ c 5 1 / ^ 1 ^ ^ ^ ^ ^ ^ { % ",
"% * ~ ~ ~ ^ { ~ ^ ^ ~ ~ ~ ^ ~ ~ ^ ^ ^ ^ ^ ^ ^ ^ ^ ^ ^ ^ ^ ^ ^ ^ ^ ^ ^ ^ ^ ^ ^ ^ ^ ^ ^ ^ ^ ^ e j k V ^ ^ ^ ^ ^ ^ ^ ^ ^ ^ { ^ ^ { / / { [ 5 ^ 1 { { { ^ { / / b ^ ^ ^ ^ 9 / / / / / ^ ^ ^ ^ ^ ^ ^ ^ ^ ^ ^ ^ ^ ^ ^ ^ ^ [ / / 6 ^ ^ ^ ^ ^ ^ ^ c { { { { ^ ^ ^ ^ ^ ^ ^ 4 / / / / ^ { ^ ^ ^ ^ ^ { { ^ ^ { ^ ^ ^ ^ ^ ^ ^ ^ ^ ^ ^ ^ ^ ^ ^ { { ^ ^ ^ { { ^ { ^ ^ ^ ^ ^ { { ^ ^ ^ ^ ^ ^ { { ^ ^ ( 5 8 ^ ^ ^ ^ ^ ^ ^ ^ ^ ^ ^ ^ ^ ^ ^ 7 ,.m m g 1 ^ 5 / ( ^ 2 ^ ^ { { ^ ^ ^ ^ 1 ^ ^ ^ { { ^ ^ ^ ^ ^ ^ ^ / < ^ a / / / / ( 7 ^ ^ ^ ^ ^ ^ ^ % ",
"% * ~ ~ ~ ~ { ~ ^ ^ ~ ^ ~ ^ ~ ^ ^ ^ ^ ^ ^ ^ ^ ^ ^ ^ ^ ^ ^ ^ ^ ^ ^ ^ ^ ^ ^ ^ ^ ^ ^ ^ ^ ^ ^ ^ { d k k $.^ ^ ^ ^ ^ ^ ^ ^ ^ ^ ^ ^ { / 2 ^ ^ ^ ^ ^ ^ ^ { / / / 2 2 ^ ^ ^ 5 / / / / / / ^ ^ 0 ^ ^ ^ ^ ^ ^ ^ ^ ^ ^ ^ ^ ^ ^ ^ ^ ^ ^ ^ ^ ^ ^ ^ ^ ^ ^ ^ { { { ^ ^ ^ ^ ^ ^ { ^ / ^ ^ ^ ^ { ^ ^ ^ ^ ^ ^ ^ { ^ { ^ ^ ^ ^ ^ ^ ^ ^ ^ ^ ^ ^ { { ^ { { ^ ^ ^ { ^ ^ { { ^ ^ ^ ^ { ^ ^ ^ ^ ^ ^ ^ { ^ ^ 2 / / / ^ ^ ^ ^ ^ ^ ^ ^ ^ ^ ^ 2 / / / =.m m g / / ^ ^ 1 ^ ^ ^ ^ ^ { { ^ ^ ^ ^ ^ ^ ^ ^ { { ^ ^ ^ ^ ^ { ^ / [ ^ ^ / / / / | 4 b ~ ^ ^ ^ ^ ~ % ",
"% * ~ ^ ~ ~ { ~ ~ ^ ~ ~ ~ ^ ^ ^ ~ ^ ^ ^ ^ ^ { { ^ ^ ^ ^ ^ ^ { ^ ^ ^ ^ ^ ^ ^ ^ ^ ^ ^ ^ ^ ^ ^ { { e k k '.^ ^ ^ ^ ^ ^ ^ ^ ^ ^ ^ { ^ ^ ^ ^ ^ ^ ^ ^ a / / / / 7 [ [ ^ / / / / / / / / ^ ^ ^ ^ ^ ^ ^ ^ ^ ^ ^ ^ ^ ^ ^ ^ ^ ^ ^ ^ ^ ^ ^ ^ ^ ^ ^ ^ ^ ^ ^ ^ ^ ^ ^ { ^ ^ ^ { ^ ^ { ^ ^ ^ { ^ ^ ^ ^ ^ ^ ^ ^ ^ { ^ ^ ^ ^ ^ ^ ^ ^ ^ { ^ ^ ^ { ^ { { ^ ^ ^ ^ ^ ^ { { { ^ ^ ^ ^ ^ ^ ^ ^ ^ ^ ^ { { 1 4 / a 5 1 ^ ^ ^ ^ ^ ^ ^ ^ ^ ^ 1 4 / =.m m o / / a ^ ^ ^ ^ ^ { ^ ^ { ^ ^ ^ ^ ^ ^ ^ ^ ^ ^ ^ ^ ^ ^ ^ ^ { ^ { ^ ^ ^ ^ 2 / / b 2 7 ~ ^ ^ ^ ^ ^ % ",
"% * ~ ^ ~ ~ ~ ~ ~ ~ ^ ~ ~ ^ ^ ^ ~ ^ ^ ^ ^ ^ { { { ^ ^ ^ ^ ^ { ^ ^ ^ ^ ^ ^ ^ ^ ^ ^ ^ ^ ^ ^ ^ ^ ^ ^ e k k x ^ ^ ^ ^ ^ ^ ^ ^ ^ ^ { ^ { ^ ^ ^ ^ ^ 3 / / / / / / 2 ^ ^ / / / / / / / / / ^ ^ ^ ^ ^ ^ ^ ^ ^ ^ ^ ^ ^ ^ ^ ^ ^ ^ ^ ^ ^ ^ ^ ^ ^ ^ ^ ^ ^ { { ^ ^ ^ { ^ ^ ^ { ^ ^ ^ ^ ^ ^ ^ ^ ^ ^ ^ ^ ^ ^ ^ ^ ^ ^ ^ ^ ^ ^ ^ ^ ^ ^ ^ ^ ^ ^ { ^ { ^ ^ ^ ^ ^ { ^ { ^ { ^ ^ ^ ^ ^ ^ ^ ^ ^ ^ { { { ^ 3 / / / 2 ^ ^ ^ ^ ^ ^ ^ ^ ^ ^ ^ / ).m m e ^ ^ ^ ^ ^ ^ ^ ^ ^ ^ ^ ^ { ^ ^ ^ ^ ^ ^ ^ ^ ^ ^ ^ ^ ^ ^ ^ ^ { ^ ~ ^ ^ ^ ^ ^ [ / / ^ ~ ~ ^ ^ ^ ^ ^ % ",
"% * ~ ~ ~ ~ ^ ^ ^ ^ ^ ~ ~ ~ ^ ^ ^ ^ ^ ^ ^ ^ ^ ^ { ^ ^ ^ ^ ^ ^ ^ ^ ^ ^ ^ ^ ^ ^ ^ ^ ^ ^ ^ ^ ^ ^ 2 ^ { e k k I ^ ^ ^ ^ ^ { ^ ^ ^ { ^ { ^ ^ ^ ^ ^ ^ ^ ^ { / ^ ^ ^ ^ ^ / / ^ ^ ^ / / / / ^ ^ ^ ^ ^ ^ ^ ^ ^ ^ ^ ^ ^ ^ ^ ^ ^ ^ ^ ^ ^ ^ ^ ^ ^ ^ ^ ^ ^ ^ { ^ ^ ^ { ^ ^ { { ^ ^ ^ ^ { ^ ^ ^ ^ ^ ^ ^ ^ ^ ^ ^ ^ ^ ^ ^ ^ ^ ^ ^ ^ ^ { ^ { ^ ^ ^ ^ ^ ^ ^ ^ { ^ ^ ^ ^ { ^ ^ ^ { { ^ ^ ^ ^ ^ { { ^ ^ ^ ^ / / a ^ ^ ^ ^ ^ ^ { ^ ^ ^ ^ !.l n e ^ ^ ^ ^ ^ ^ ^ ^ ^ ^ ^ ^ 1 ^ ^ ^ ^ ^ ^ ^ ^ ^ ^ { ^ ^ ~ ~ ^ ^ { ^ ^ ^ 8 7 ^ ^ ^ 5 ( ^ ^ ^ ^ ^ ^ ^ ^ % ",
"@ = { ~ ~ ~ ^ ~ ~ ~ ~ ~ ~ ~ ^ ^ ^ ^ ^ ^ ^ ^ ^ ^ { ^ ^ ^ ^ ^ ^ ^ ^ ^ ^ ^ ^ ^ ^ ^ ^ ^ ^ ^ { ^ ^ ^ ^ { { e k k I ^ ^ ^ ^ { ^ ^ ^ { ^ { ^ ^ ^ ^ ^ ^ ^ ^ ^ ^ ^ ^ ^ [ [ / / ^ ^ ^ / 1 ^ / ^ ^ ^ ^ ^ ^ ^ ^ ^ ^ ^ ^ ^ ^ ^ ^ ^ ^ ^ ^ ^ ^ ^ ^ ^ ^ ^ ^ ^ ^ ^ ^ ^ ^ { ^ ^ ^ { ^ ^ ^ ^ { ^ ^ ^ ^ { 5 / { ^ ^ ^ ^ ^ ^ ^ ^ ^ ^ ^ ^ ^ { ^ { ^ ^ ^ ^ ^ ^ ^ ^ { { ^ { { { ^ ^ ^ { { ^ ^ ^ 5 / ^ ^ ^ ^ ^ ^ ( | ^ ^ ^ ^ ^ ^ ^ ^ ^ ^ ^ x k ~.$ ^ ^ 4 / | ^ { / | ^ ^ ^ ^ ^ { ^ ^ ^ ^ ^ ^ ^ ^ ^ { ^ ^ ~ ~ ^ ^ ^ ^ ^ ^ ( 2 ^ ^ ^ ^ ^ ^ ^ ^ ^ ^ ^ ^ ^ {.",
"  * { ~ ~ ~ ~ ~ ~ ~ ~ ~ ~ ~ ~ ~ ~ ~ ^ ^ ^ ^ ^ ^ ^ ^ ^ ^ ^ ^ ^ ^ ^ ^ ^ ^ ^ ^ ^ ^ ^ ^ ^ ^ ^ ^ { ^ ^ { { ^ e k k X ^ ^ ^ { ^ ^ ^ { ^ { ^ { ^ ^ ^ ^ ^ ^ ^ ^ ^ b / / / / / b 3 / / ^ ^ ^ ^ ^ ^ ^ ^ ^ ^ ^ ^ ^ ^ ^ ^ ^ ^ ^ ^ ^ ^ ^ ^ ^ ^ ^ ^ ^ ^ ^ ^ { ^ ^ ^ ^ { ^ ^ ^ ^ ^ ^ { ^ { ^ ^ ^ ^ { { ^ { 5 ^ ^ ^ ^ ^ ^ ^ ^ ^ ^ ^ ^ ^ ^ ^ ^ ^ ^ ^ ^ ^ ^ ^ { { ^ { { ^ ^ ^ ^ { { ^ ^ ^ / ^ { ^ ^ ^ ^ ^ ^ ^ ^ ^ ^ { ^ ^ ^ ^ ^ ^ %.k k ].^ ^ ^ / / [ ^ 7 / 1 ^ ^ ^ ^ ^ { ^ { ^ c ^ ^ ^ ^ ^ { ^ ^ ^ ^ ^ ^ ^ ^ ^ ^ ^ ^ ^ ^ ~ ^ ^ ^ ^ ^ ^ ^ ^ ^ ^ % ",
"  * ~ ~ ~ ~ ~ ~ ~ ~ ~ ~ ^ ~ ^ ~ ~ ^ ^ ^ ^ ^ ^ ~ ^ ^ ^ ^ ^ ^ ^ ^ ^ ^ ^ ^ ^ ^ ^ ^ ^ ^ ^ ^ { ^ { ^ ^ ^ ^ ^ ^ e k k z ^ { { ^ 4 ^ { ^ { ^ { b ^ ^ ^ ^ ^ { ^ ^ ^ 4 / / / / / / / / ^ ^ ^ ^ ^ ^ ^ ^ ^ ^ ^ ^ ^ ^ ^ ^ ^ ^ ^ ^ ^ ^ ^ ^ ^ ^ ^ ^ ^ ^ ^ ^ ^ ^ { ^ ^ { ^ ^ ^ ^ ^ ^ ^ ^ { ^ ^ ^ | { ^ ^ ^ ^ ^ ^ { ^ ^ ^ ^ ^ ^ ^ ^ ^ ^ ^ ^ { ^ ^ ^ ^ ^ ^ ^ { { ^ { { ^ ^ ^ { ^ { ^ ^ ^ / ( ^ ^ ^ ^ ^ ^ ( ^ ^ ^ ^ { ^ ^ ^ ^ ^ I k k e 1 ^ ^ ^ ^ 2 ^ ^ 8 ^ ^ ^ ^ { ^ ^ { ^ { ^ / ^ ^ ^ ^ ^ { ^ ^ ^ ^ ^ ^ ^ ^ ^ ^ ^ ^ ^ ~ ~ ^ ^ { ^ ^ ^ ^ ^ ^ ^   ",
"% * { ^ ~ { ~ ~ ~ { ~ ~ ^ ~ ~ ~ ~ ~ ^ ^ ^ ^ ^ { ~ ^ ^ ^ ^ ^ ^ ^ ^ ^ ^ ^ ^ ^ ^ ^ ^ ^ ^ ^ { ^ { ^ ^ ^ ^ ^ ^ ^ e k k z { { ^ ^ ^ { ^ { ^ ^ ^ ^ ^ ^ ^ ^ ^ ^ ^ / / / / 2 ( / / / / 8 ^ ^ ^ ^ ^ ^ ^ ^ ^ ^ ^ ^ ^ ^ ^ ^ ^ c ( ^ ^ ^ ^ ^ ^ ^ ^ ^ ^ ^ ^ ^ ^ { ^ ^ { ^ ^ ^ ^ ^ ^ ^ ^ { ^ ^ ^ ^ { ^ ^ { ^ { ^ { ^ ^ ^ ^ ^ ^ ^ ^ ^ ^ ^ ^ { { ^ ^ ^ ^ ^ ^ { ^ ^ { { ^ ^ ^ { ^ ^ ^ ^ ^ ^ ^ { ^ ^ ^ ^ ( 5 ^ ^ ^ ^ { ^ ^ ^ ^ @.k k e ^ ^ c ^ 1 8 / / ^ ^ ^ ^ ^ ^ { ^ ^ { ^ { ^ 4 ^ ^ ^ ^ ^ ^ ^ ^ ^ ^ ^ ^ ^ ^ ^ ^ ^ c [ ~ ~ ^ ^ ^ ^ ^ ^ ^ ^ ^ ^ % ",
"% * { { ^ { ~ ~ ^ ~ ~ ~ ^ ~ ^ ~ ~ ~ ^ ^ ^ ^ ^ { ^ ^ ^ ^ ^ ^ ^ ^ ^ ^ ^ ^ ^ ^ ^ ^ ^ ^ ^ ^ / 7 9 7 ^ ^ ^ ^ ^ ^ ^ e k k ^.^ ^ ^ ^ { ^ { ^ ^ ^ ^ ^ ^ ^ ^ ( / / / / / / 1 [ / / / [ ^ ^ ^ ^ / / ^ ^ ^ ^ ^ ^ ^ ^ ^ ^ ^ ^ ^ 6 ^ ^ ^ ^ ^ ^ ^ ^ ^ ^ ^ ^ ^ ^ ^ ^ ^ { 1 ^ ^ ^ ^ ^ ^ ^ { ^ ^ ^ ^ ^ ^ { { / ^ ^ { ^ ^ ^ ^ ^ ^ ^ ^ ^ ^ ^ ^ { { ^ ^ ^ ^ ^ { { ^ ^ { { / 5 ( ^ { { ^ ^ ^ ^ ^ { ^ ^ ^ ^ ( ( ^ ^ ^ ^ { { ^ ^ B k k e ^ ^ ( ^ ^ ^ ^ ^ 0 5 ^ ^ ^ ^ ^ ^ ^ ^ { ^ { ^ ^ ^ ^ ^ ^ ^ ^ ^ ^ ^ ^ ^ ^ ^ ^ ^ ^ ^ / 4 ^ ^ ^ ^ { ^ ^ ^ ^ ^ ^ ^ % ",
"% - { { ^ ~ ~ ^ ~ ~ ~ ~ ~ ~ ^ ^ ~ ~ ~ ^ ^ ^ { { ~ ^ ^ ^ ^ ^ ^ ^ ^ ^ ^ ^ ^ ^ ^ ^ ^ ^ ^ ^ / / { ^ { ^ ^ ^ ^ ^ ^ ^ e k k B ^ ^ ^ { ^ { ^ ^ ^ ^ 8 / 3 ( / / / / / / [ 2 / / / ( ^ ^ ^ ^ ^ ^ ^ 6 ^ ^ ^ ^ ^ ^ ^ ^ ^ ^ ^ ^ 7 ^ ^ ^ ^ ^ ^ ^ ^ ^ ^ ^ ^ ^ ^ ^ ^ { { ( 7 ^ ^ ^ ^ ^ ^ { ^ ^ ^ ^ ^ ^ { ^ / / ^ { ^ ^ ^ ^ ^ ^ ^ ^ ^ ^ ^ ^ ^ ^ ^ ^ ^ ^ ^ { { ^ ^ { { 3 ^ ^ ^ { { ^ ^ ^ ^ ^ ^ ^ ^ { ^ / 8 ^ ^ ^ ^ { { ^ v k k e ^ ^ ^ ^ ^ ^ ^ ^ ^ ^ ^ ^ ^ ^ ^ ^ ^ ^ ^ ^ 7 ^ ^ ^ ^ ^ ^ ^ ^ ^ ^ ^ ^ ^ ^ ^ ^ ^ ^ ^ ^ ~ ~ ~ ^ ^ ^ ^ ^ ^ ^ ^ { { ^ % ",
"% * ^ ^ ^ ~ ~ ~ ~ ~ ~ ~ ~ ~ ~ ^ ^ ~ ~ ~ ~ ^ { { ~ ^ ^ ^ ^ ^ ^ ^ ^ ^ ^ ^ ^ ^ ^ ^ ^ ^ ^ ^ 5 5 { ^ { ^ { ^ ^ ^ ^ ^ ^ e k l w ^ ^ ^ ^ { ^ ^ ^ ^ ^ ^ 3 3 / / / b / / / / / / / ^ ^ ^ ^ ^ ^ ^ ^ ^ ^ ^ ^ ^ ^ ^ ^ ^ ^ ^ ^ ^ 6 ^ ^ ^ ^ ^ ^ ^ ^ ^ ^ ^ ^ ^ ^ ^ ^ { ^ 8 [ { ^ ^ ^ ^ ^ { ^ ^ ^ ^ ^ ^ ^ ^ / / ^ { ^ ^ ^ ^ ^ ^ ^ ^ ^ ^ ^ ^ ^ ^ ^ ^ ^ ^ ^ { { ^ ^ { { 1 ^ ^ ^ { { ^ ^ ^ ^ ^ ^ ^ ^ { ^ ^ ^ ^ ^ ^ ^ ^ ^ F k k e ^ ^ ^ ^ ^ ^ ^ ^ ^ ^ { ^ ^ ^ ^ ^ ^ 6 / / / / ^ ^ ^ ^ ^ ^ ^ ^ ^ ^ ^ ^ ^ ^ ^ ^ ^ ^ ^ ^ ^ ^ ^ ^ ^ ^ ^ ^ ^ ^ ^ { ~ ^ % ",
"% * ~ ^ ~ ~ ~ ~ { ~ ~ ~ ~ ~ ~ ^ ^ ^ ^ ^ ~ ^ ^ ^ ^ ^ ^ ^ ^ ^ ^ ^ ^ ^ ^ ^ ^ ^ ^ ^ ^ ^ ^ ^ ^ ^ { ^ ^ ^ { ^ ^ ^ ^ ^ ^ ^ e k k V ^ { ^ { ^ ^ ^ ^ ^ ^ ^ ^ { ^ ^ ( / / / / / / / ^ ^ ^ ^ ^ ^ ^ ^ ^ ^ ^ ^ ^ ^ ^ ^ ^ ^ ^ ^ ^ ^ ^ ^ ^ ^ ^ ^ ^ ^ ^ ^ ^ ^ ^ ^ ^ ^ { ^ ^ ^ { ^ c ^ ^ ^ ^ ^ ^ ^ ^ ^ ^ { ^ ^ ^ ^ ^ ^ ^ ^ ^ ^ ^ ^ ^ ^ ^ ^ ^ ^ ^ ^ { ^ ^ ^ { { { { { ^ ^ ^ ^ ^ { { ^ ^ ^ 5 ^ ^ ^ ^ ^ ^ { ^ ^ ^ ^ ^ ^ /.j k e ^ ^ ^ ^ ^ ^ ^ ^ ^ ^ ^ { ^ ^ ^ ^ ^ ^ / / / 2 / ^ ^ ^ ^ ^ ^ ^ ^ ^ ^ ^ ^ ^ ^ ^ ^ ^ ^ ^ ^ ^ ^ ^ ^ ^ ^ ^ ^ ^ ^ ~ ^ ^ ^ % ",
"% * ~ ~ ~ ~ ~ ^ { { ~ ~ ~ ~ ~ ^ ^ ^ ^ ^ ^ ^ ^ ~ ^ ^ ^ ^ ^ ^ { ^ ^ ^ ^ ^ ^ ^ ^ ^ ^ ^ ^ ^ { ^ { ^ { ^ { ^ ^ ^ ^ ^ ^ ^ ^ e k j (.{ ^ { ^ ^ ^ ^ ^ ^ ^ ^ { ^ ^ ^ / / / / / / / / ^ ^ ^ ^ ^ ^ ^ ^ ^ ^ 0 4 ^ ^ ^ ^ ^ ^ ^ ^ ^ ^ ^ ^ ^ ^ ^ ^ ^ ^ ^ ^ ^ ^ ^ ^ ^ { { ^ ^ ^ ^ ^ ^ ^ ^ ^ ^ ^ ^ ^ { { { ^ { ^ ^ ^ ^ ^ ^ ^ ^ ^ ^ ^ ^ ^ ^ ^ ^ ^ ^ { ^ ^ ^ ^ ^ { { { ^ ^ ^ ^ ^ { { ^ ^ ^ 8 ^ 2 / ^ ^ ^ { ^ ^ ^ ^ ^ A k j e ^ ^ ^ ^ ^ { ^ ^ ^ ^ ^ ^ { ^ ^ ^ ^ ^ 1 b / / [ ^ ^ ^ ^ { ^ ^ ^ ^ ^ ^ ^ ^ ^ ^ ^ ^ ^ ^ ^ ^ ^ ^ ^ ^ ^ ^ ^ ^ ^ ~ ~ ^ ^ { % ",
"% * ~ ~ { ~ { ~ { { ~ ~ ~ ~ ~ ~ ~ ~ ^ ^ ^ ^ ^ ^ ^ ^ ^ ^ ^ ^ { ^ ^ ^ ^ ^ ^ ^ / ^ ^ ^ ^ ^ { 3 { b { ^ { ^ ^ ^ ^ ^ ^ ^ ^ ^ e j k (.^ ^ ^ ^ ^ ^ ^ ^ ^ ^ { ^ ^ ^ / / / / / / / b ^ ^ ^ ^ ^ ^ ^ ^ ^ ^ 4 8 ^ ^ ^ ^ ^ ^ ^ ^ ^ ^ ^ ^ ^ ^ ^ ^ ^ ^ ^ ^ ^ { ^ ^ { ^ ^ ^ ^ ^ ^ ^ ^ { ^ ^ ^ ^ ^ ^ { { { ^ { ^ ^ / 2 ^ ^ ^ ^ ^ ^ ^ ^ { ^ ^ ^ { ^ { ^ ^ ^ { ^ { { { ^ ^ ^ ^ ^ { ^ ^ ^ ^ 5 ^ { / ^ ^ ^ { ^ ^ ^ ^ x k j d ^ ^ ^ ^ ^ ^ ^ ^ ^ ^ ^ ^ ^ { ^ ^ ^ ^ ^ ^ ^ 1 / { ^ ^ ^ ^ { ^ ^ ^ ^ ^ ^ ^ ^ ^ ^ ^ ^ ^ ^ ^ ^ ^ ^ ^ ^ ^ ^ ^ ^ ^ { ^ { ^ { % ",
"% * ~ ~ { ~ { ~ ^ ^ ^ ~ ~ ~ ~ ~ ~ ~ ^ ^ ^ ~ ^ ^ ^ ^ ^ ^ ^ ^ ^ ^ ^ ^ ^ ^ ^ / / ^ ^ / ( ^ { ^ { ^ ^ ^ ^ ^ ^ ^ ^ ^ ^ ^ ^ ^ ^ d k k w { ^ ^ ^ ^ ^ ^ ^ { ^ ^ ^ ^ ^ a / / { / / 0 ^ ^ ^ ^ ^ ^ ^ ^ ^ ^ ^ ^ ^ ^ ^ ^ ^ ^ ^ ^ ^ ^ ^ ^ ^ ^ ^ ^ ^ ^ ^ ^ { ^ ^ ^ { { ^ ^ ^ ^ ^ ^ ^ ^ ^ ^ ^ ^ ^ ^ 8 { { 2 { { { b ( ^ ^ ^ ^ ^ ^ ^ { { ^ ^ ^ { { { ^ ^ ^ { ^ { { { ^ ^ ^ ^ ^ { ^ ^ ^ ^ ^ ^ { ^ ^ ^ ^ ^ ^ ^ ^ y k k d { ^ ^ ^ ^ ^ ^ ^ ^ ^ ^ ^ ^ { ^ ^ ^ ^ ^ ^ ^ ^ 3 / ^ ^ ^ ^ ^ { ^ ^ 2 ^ ^ ^ ^ ^ 6 ^ ^ ^ ^ ~ ^ ^ ^ ^ ^ ^ ^ ^ ^ ^ ~ { ^ ^ ^ { % ",
"% * ~ ~ { ~ { ~ ~ ^ ~ ~ ~ ~ ~ ~ ~ ~ ^ ^ ^ ~ ^ ^ ^ ^ ^ ^ ^ ^ ^ ^ ^ ^ ^ ^ ^ / / ^ / / / { { ^ { ^ ^ 7 ^ { ^ { ^ ^ ^ ^ ^ ^ ^ ^ e k k D ^ ^ ^ ^ ^ ^ ^ ^ ^ ^ / c ^ ^ ^ 1 { ^ / 4 ^ ^ ^ ^ ^ ^ ^ ^ ^ ^ ^ ^ ^ ^ ^ ^ ^ ^ ^ ^ ^ ^ ^ ^ ^ ^ ^ ^ ^ ^ ^ ^ { ^ ^ ^ ^ { ^ ^ ^ ^ ^ ^ ^ ^ ^ ^ ^ ^ ^ c / / { 5 { { { ^ ^ ^ ^ ^ ^ ^ ^ ^ ^ { ^ ^ ^ { { { ^ ^ ^ { ^ { { { ^ ^ ^ ^ ^ { { ^ ^ ( 1 5 { ^ ^ ^ ^ ^ ^ ^ u k k e { 1 ^ ^ ^ { ^ ^ ^ ^ ^ ^ ^ ^ ^ ^ ^ ^ ^ ^ ^ 3 | 2 7 ^ ^ ^ ^ ^ { 3 3 1 ^ ^ ^ ^ ^ ^ ^ ^ ^ ^ ^ ^ ^ ^ ^ ^ ^ ^ ^ ^ ^ ^ { ^ { { ^ % ",
"  * { ~ { ~ ~ ~ { ~ ~ ~ ~ ^ ^ ~ ~ ^ ^ ^ ^ { { ^ ^ ^ ^ ^ ^ ^ ^ ^ ^ ^ ^ ^ ^ ^ 6 ^ / / / { { ^ { ^ ^ ( ^ { ^ { ^ ^ ^ ^ ^ ^ ^ ^ ^ d j j w ^ ^ ^ ^ ^ ^ ^ ^ ^ / / ^ ^ ^ ^ ^ ^ ^ ^ ^ ^ ^ ^ ^ ^ ^ ^ ^ ^ ^ ^ ^ ^ ^ ^ ^ ^ ^ ^ ^ ^ ^ ^ ^ ^ ^ ^ ^ ^ ^ ^ { { { ^ ^ { ^ ^ ^ ^ ^ ^ ^ ^ ^ { ^ ^ ^ ^ { ^ { ^ { { { ^ ^ ^ ^ ^ ^ ^ ^ ^ ^ ^ ^ ^ ^ { { ^ ^ ^ ^ { ^ { { { ^ ^ ^ ^ ^ ^ { ^ ^ ^ ^ { { ^ ^ ^ ^ ^ ^ _.k k d { { ^ ^ ^ { { ^ ^ ^ ^ ^ ^ ^ ^ ^ ^ ^ ^ ^ ^ ^ / / 7 8 1 ^ ^ ^ ^ ^ [ / / ^ ^ ^ ^ ^ ^ ^ { ^ ~ ^ ^ ^ ^ ^ ^ ^ ^ ^ ^ ^ ^ ^ ^ ^ { ^ % ",
"  * { ^ ^ ~ ~ ~ ~ ^ ^ ~ ~ ~ ~ ~ ~ ^ ^ ^ ^ ^ { ^ ~ ^ ^ ^ ^ ^ ^ ^ ^ ^ 1 ^ ^ ^ ^ ^ / / / b 7 4 { [ ^ ^ ^ { ( { ^ ^ ^ ^ ^ ^ ^ ^ ^ ^ d j k :./ ^ ^ ^ ^ ^ ^ ^ ^ / ^ ^ ^ ^ { ^ ^ ^ ^ ^ ^ ^ ^ ^ ^ ^ ^ ^ ^ ^ ^ ^ ^ ^ ^ ^ ^ ^ ^ ^ ^ ^ ^ ^ ^ ^ ^ ^ ^ ^ { ^ { ^ ^ { ^ ^ ^ { ^ ^ ^ ^ ^ { ^ 1 ^ ^ { ^ { ^ ^ ^ { ^ ^ ^ ^ ^ ^ ^ ^ ^ ^ ^ ^ ^ ^ ^ { ^ ^ ^ ^ ^ ^ ^ ^ { ^ ^ ^ ^ ^ ^ { ^ ^ ^ ^ ^ ^ ^ ^ ^ ^ ^ B k k e { { ^ ^ ^ ^ ^ { ^ ^ ^ ^ ^ ^ ^ ^ ^ ^ 7 ^ ^ ^ ^ / / ^ ^ { ^ ^ ^ ^ ^ [ / / ^ ^ ^ ^ ^ ^ ^ ^ ^ ^ ^ ^ ^ ^ ^ ~ ~ ~ ~ ^ ^ ^ ^ ^ ^ { ^   ",
"  * { ^ ~ ~ ~ ~ ~ ~ ~ ~ ^ ~ ~ ^ ^ ^ ^ ~ ~ { ^ ^ ^ ^ ^ ^ ^ ^ ^ ^ ^ ^ ^ ^ ^ ^ ^ b / ^ 4 / / a 1 [ ^ 8 7 / / b 7 ^ ^ ^ ^ ^ ^ ^ ^ ^ { <.m m [./ ^ ^ ^ ^ ^ ^ ^ ^ ^ ^ ^ ^ ^ 4 0 [ ^ ^ ^ ^ ^ ^ ^ ^ ^ ^ ^ ^ ^ ^ ^ ^ ^ ^ ^ ^ ^ ^ ^ ^ ^ ^ ^ ^ ^ ^ ^ ^ ^ ^ { ^ ^ ^ ^ ^ ^ { ^ ^ ^ ^ ^ { ^ ^ ^ ^ ^ ^ { ^ ^ ^ { ^ ^ ^ ^ ^ ^ ^ ^ ^ ^ ^ ^ ^ ^ ^ { ^ ^ ^ ^ ^ ^ ^ ^ { ^ ^ ^ ^ ^ ^ { ^ ^ ^ ^ ^ ^ ^ ^ ^ ^ %.k j e ^ ^ { ^ ^ ^ ^ { { ^ ^ ^ ^ ^ ^ ^ ^ ^ ^ ^ ^ ^ ^ ^ ( 7 ^ ^ ^ ^ ^ / / / / ( [ ^ ^ ^ ^ ^ ^ ^ ^ ^ ^ ^ ^ ^ ^ ~ ~ ~ ~ ~ ~ ~ ^ ^ ^ ^ { ^   ",
"% * ~ ~ ~ ~ ~ ~ ~ ~ ~ ~ ^ ~ ~ ~ ~ ~ ~ ~ ^ ^ ^ ^ ^ ^ ^ ^ ^ { ^ { ^ ^ ^ ^ ^ ^ ^ ( a ^ ^ { ^ / { / 7 / / / / / / ^ ^ ^ ^ ^ ^ ^ ( { { / g m m =./ ^ ^ ^ ^ ^ ^ ^ ^ ^ ^ ^ 9 / / ^ ^ ^ ^ ^ / / / / ^ ^ ^ ^ ^ ^ ^ ^ ^ ^ ^ ^ ^ ^ ^ ^ ^ ^ ^ ^ ^ ^ ^ ^ ^ ^ { ^ ^ ^ ^ ^ ^ { ^ ^ ^ ^ ^ ^ ^ ^ ^ ^ ^ ^ { ^ ^ { { ^ ^ ^ ^ ^ ^ ^ ^ ^ ^ ^ ^ ^ ^ { { ^ ^ ^ ^ ^ ^ ^ { { ^ ^ ^ ^ ^ ^ ^ ^ ^ ^ ^ ^ ^ ^ ^ ^ w k k e ^ ^ { { ^ ^ ^ ^ ^ { ^ { ^ ^ ^ ^ ^ ^ ^ ^ ^ ^ ^ ^ ^ ^ ^ ^ ^ ^ [ / / 5 / b ^ ^ ^ ^ ^ ^ ^ ^ ^ ^ ^ ^ ^ ^ ^ ^ ~ ~ ~ ~ ^ ^ ~ ^ ^ ^ ^ ^ ^   ",
"  * ~ ~ ~ ~ ~ ~ ~ ~ ~ ^ ~ ~ ~ ~ ~ ~ ~ ~ ~ ^ ^ ^ ^ ^ ~ ^ ^ { ^ { ^ ^ ^ ^ ^ ^ ^ ^ ^ ^ ^ a 3 ^ / | { ^ / / { / b ^ ^ { { ^ ^ ^ { { { / / g m m =./ ^ ^ ^ ^ ^ ^ ^ ^ ^ ^ ^ ^ ^ ^ ^ ^ ^ ^ / / / / ^ ^ ^ ^ ^ ^ ^ ^ ^ ^ ^ ^ ^ ^ ^ ^ ^ ^ ^ ^ ^ ^ ^ ^ ^ ^ ^ ^ ^ ^ ^ ^ ^ { ^ ^ ^ ^ ^ ^ ^ ^ ^ ^ ^ ^ { ^ { { { ^ ^ ^ ^ ^ ^ ^ ^ ^ ^ ^ ^ ^ ^ { { ^ ^ ^ ^ ^ ^ ^ { { ^ ^ ^ ^ ^ { { ^ ^ / a ^ ^ ^ ^ D k k e ^ ^ b ^ { { ^ ^ ^ ^ { ^ ^ ^ ^ ^ ^ ^ ^ ^ ^ ^ ^ ^ ^ ^ ^ ^ ^ ^ 2 / / / [ [ { ^ ^ ^ ^ ^ ^ ^ ^ ^ ~ ~ ~ ^ ^ ^ ~ ~ ~ ~ ^ ^ ~ ~ ^ ^ { { ~ ~   ",
"  * ~ ^ ^ ~ ~ ~ { ~ ~ ~ ~ ~ ~ ~ ~ ~ ~ ~ ^ ^ ^ ^ ^ ^ ^ ^ ^ ^ ^ ^ ^ ^ ^ ^ ^ ^ ^ ^ ^ ^ ^ ( / / 2 ^ { ( / | { | ( 3 / { { b 0 ^ 7 { / / / / g m m w ^ ^ ^ ^ ^ ^ ^ ^ ^ ^ ^ ^ ^ ^ ^ ^ ^ ^ ^ ^ [ 7 ^ ^ ^ ^ ^ 6 ( ^ ^ ^ ^ ^ ^ ^ ^ ^ ^ ^ ^ ^ ^ ^ ^ ^ ^ ^ ^ ^ ^ ^ ^ ^ ^ { ^ ^ ^ ^ ^ ^ ^ ^ ^ ^ ^ { { ^ { { { ^ ^ ^ ^ ^ ^ ^ ^ ^ ^ ^ ^ ^ ^ { { ^ ^ ^ ^ { ^ ^ { { ^ ^ ^ ^ ^ { { ^ ( / b ^ ^ ^ w j k e ^ ^ ^ ^ ^ ^ { ^ ^ ^ ^ ^ ^ ^ ^ ^ ^ ^ ^ ^ ^ ^ ^ ^ ^ 6 ^ ^ ^ 9 / / / ^ ^ ^ ^ { ^ 1 { ^ ^ ^ ^ ^ ^ ~ ~ ~ ^ ^ ~ ~ ~ ^ ^ ^ ~ ~ ~ { ^ { { { ~ . ",
"% * ~ ~ { ^ ~ ~ { ~ ~ ~ ~ ~ ~ ~ ~ ~ ~ ~ ^ ^ { ^ ^ ^ ^ ^ ^ ^ ^ ^ ^ ^ ^ ^ ^ ^ ^ ^ ^ ^ 4 9 / / ^ ^ { ^ 4 1 { 3 6 7 b { { / a / / / / / / / / g k k w ^ ^ ^ ^ ^ 8 / ^ ^ ^ ^ ^ ^ ^ ^ ^ ^ ^ ^ ^ ^ ^ 9 / ^ ^ ^ ( ^ ^ ^ ^ ^ ^ ^ ^ ^ ^ ^ ^ ^ ^ ^ ^ ^ ^ ^ ^ ^ ^ ^ ^ ^ ^ { ^ ^ ^ ^ ^ ^ ^ ^ ^ ^ { ^ { ^ { { { ^ ^ ^ ^ ^ ^ ^ ^ ^ ^ ^ ^ ^ ^ ^ ^ ^ ^ ^ ^ { ^ ^ { ^ ^ ^ ^ ^ ^ { ^ ^ ^ c ^ ^ ^ w j j e ^ ^ ^ ^ ^ ^ ^ { { ^ ^ ^ ^ ^ ^ ^ ^ ^ ^ ^ ^ ^ ^ ^ ^ ^ ^ ^ ^ ^ 0 ( a ^ ^ ^ ^ ^ { ^ ^ { ^ ^ ^ ^ ^ ^ ~ ~ ^ ^ ^ ^ ~ ~ ~ ^ ^ ~ ^ ^ { ^ { { { ~   ",
"  * { ~ { ~ ~ ~ ~ ~ ~ ^ ^ { ~ ~ ~ ~ ~ ~ ^ ^ { ^ ^ ^ ^ ^ ^ ^ ^ ^ ^ ^ ^ ^ ^ / / / / 0 4 / / ^ { ^ { { { ^ { / { / 5 / / ^ 8 / / / / / 1 ^ a ^ e k k w ^ ^ ^ ^ ^ / 0 ^ ^ ^ ^ ^ ^ ^ ^ ^ ^ ^ ^ ^ ^ ^ ^ ^ ^ 8 / / ^ ^ ( ^ ^ ^ ^ ^ ^ ^ ^ ^ ^ ^ ^ ^ ^ ^ ^ ^ ^ ^ ^ ^ ^ ^ ^ ^ ^ ^ ^ ^ ^ ^ ^ ^ ^ ^ ^ ^ { ^ { ^ ^ ^ ^ ^ ^ ^ ^ ^ ^ ^ ^ ^ ^ { ^ / 6 5 ^ { ^ ^ ^ ^ ^ ^ ^ ^ ^ { ^ ^ ^ ^ ^ 6 }.k j d ^ ^ 8 / ^ ^ { { { { ^ ^ ^ { ^ { ^ ^ ^ ^ ^ ^ ^ ^ ^ ^ ^ ^ 1 [ ^ ^ / { ^ ^ ^ { ^ ^ ^ ^ { ^ ^ ^ ^ { { ^ ^ ^ ^ ^ ^ ^ ~ ~ ~ ^ ^ ^ ^ { ^ ^ { { ^ % ",
"  * { { { ~ ~ { ~ ~ ~ ~ ^ ^ ~ ~ ~ ~ ~ ^ ^ ^ { ^ ^ ^ 8 4 ^ ^ ^ ^ ^ ^ ^ ^ ^ / / / / / / / / ^ { ^ { { { ^ { ( { / / / / ^ ^ 7 / / / 2 ^ ^ / ^ ^ e k k w ^ ^ ^ ^ ^ ^ ^ ^ ^ ( ^ ^ ^ ^ ^ ^ ^ ^ ^ ^ ^ ^ ^ ^ ^ / 5 / [ 8 ^ ^ ^ ^ ^ ^ ^ ^ ^ ^ ^ ^ ^ ^ ^ ^ ^ ^ ^ ^ ^ ^ ^ ^ ^ ^ ^ ^ ^ ^ ^ ^ ^ ^ ^ ^ ^ ^ ^ ^ ^ ^ ^ ^ ^ ^ ^ ^ ^ ^ ^ ^ ^ ^ ^ ^ ^ ^ ^ { { ^ ^ { ^ ^ ^ ^ ^ ^ { ^ ^ ^ ^ 4 =.m l d { ^ ^ { ( / { { { { { ^ ^ ^ ^ ^ { ^ ^ ^ ^ ^ ^ ^ ^ ^ ^ ^ ^ b / ^ ^ / { / / ^ { ^ ^ ^ ^ { ^ ^ ^ ^ { { { ^ ^ ^ ^ ^ ^ ~ ^ ^ ^ ^ ^ ^ { ~ ^ { { ^ % ",
"  * { { ~ ~ ~ { ~ ~ ~ ~ ^ ^ ^ ^ ~ ^ ^ ^ ^ ^ { ^ ^ ^ ^ ^ ^ ^ ^ ^ ^ ^ ^ ^ 1 7 4 / / / / 3 ^ ^ ^ ^ { ^ { / { ^ ^ / / / { 0 / b / 3 ^ ^ ^ ^ 2 5 ^ ^ e j k w ^ ^ ^ ^ ^ ^ ^ 2 / 2 ^ ^ ^ ^ ^ ^ ^ ^ ^ ^ ^ ^ ^ ^ ^ ^ 5 / ^ ^ ^ ^ ^ ^ ^ ^ ^ ^ ^ ^ ^ ^ ^ ^ ^ ^ ^ ^ ^ ^ ^ { ( ( ^ ^ ^ ^ ^ ^ ^ ^ ^ ^ ^ ^ ^ ^ { ^ ^ ^ ^ ^ ^ ^ ^ ^ ^ ^ ^ ^ ^ ^ ^ ^ ^ ^ { { ^ ^ { ^ ^ ^ ^ ^ ^ ^ ^ ^ ^ ^ |.j >.g { { / 4 { 9 / { { { { ^ ^ ^ ^ ^ ^ ^ ^ ^ ^ ^ ^ ^ ^ ^ ^ ^ ^ ^ ^ [ ^ ^ / { / / ^ { ^ ^ ^ ^ { ^ ^ ^ ^ ^ ^ ^ ^ ^ ^ ^ ^ ^ ^ ^ ^ ^ ^ ^ ~ ~ ^ ^ { { ^ % ",
"  & { ~ ~ ~ ~ ~ ~ ~ ~ ~ ~ ~ ^ ^ ^ ^ ^ ^ ^ ^ ^ ^ ^ ^ ^ ~ ~ { ^ ^ ^ ^ ^ ^ ^ ^ { 8 4 / / ^ ^ ^ { ^ ^ ^ / / { ^ / / / / / / / b 4 { ^ { ^ ^ 6 / / / 3 d k k w ^ ^ ^ ^ [ ^ ^ 4 ^ ^ ^ ^ ^ ^ ^ ^ ^ ^ ^ ^ ^ ^ ^ ^ ^ ^ a 7 ^ ^ ^ ^ ^ ^ ^ ^ ^ ^ ^ ^ ^ ^ ^ ^ ^ ^ { ^ ^ ^ { 2 1 ^ ^ ^ ^ ^ ^ ^ ^ ^ ^ { ^ ^ ^ ^ ^ ^ ^ ^ ^ ^ ^ ^ ^ ^ ^ ^ ^ ^ ^ { ^ ^ ^ { ^ ^ ^ { ^ ^ ^ ^ ^ ^ ^ ^ ^ ^ w k j e a / / / / { b / ^ { ^ { ^ ^ ^ ^ ^ ^ ^ ^ ^ ^ ^ ^ ^ ^ ^ ^ ^ / a 1 ^ ^ ^ ^ { b ^ ^ { ^ ^ ^ ^ { ^ ^ 3 7 ^ ^ ^ ^ ^ ^ ^ ^ ^ { ^ { ^ ^ ^ ^ ~ ^ ^ ^ { ^ % ",
"  & ~ { ~ ~ ~ { { ~ ~ ~ ~ ~ ~ ~ ^ ^ ^ ^ ^ ^ ^ ~ ^ ^ ~ ~ ^ { ^ ^ ^ ^ ^ ^ ^ ^ { ^ ^ 4 / { [ ^ { ^ ^ ^ b / { ^ / / / / / / / ^ ^ ( / { [ [ / / / / / { g k k w ^ ^ / / ^ ( | 7 ( ^ ^ ^ ^ ^ ^ ^ ^ ^ 7 0 / ^ ^ ^ ^ ^ ^ ^ ^ ^ ^ ^ ^ ^ ^ ^ ^ ^ ^ ^ ^ ^ ^ ^ { ^ ^ ^ ^ { ^ ^ ^ ^ ^ ^ ^ ^ ^ ^ ^ ^ ^ ^ ^ ^ ^ ^ ^ ^ ^ c ^ ^ ^ ^ { ^ ^ ^ ^ ^ { ^ ^ ^ { ^ ^ ^ { ^ ^ ^ ^ { ^ ^ ^ ^ w k k e ^ ^ { c / ^ ^ ^ 2 ^ { { { ^ ^ ^ ^ ^ ^ ^ ^ ^ ^ ^ ^ ^ ^ ^ ^ ^ / / ^ ^ ^ ^ ^ { ^ ^ ^ { ^ ^ ^ ^ { ^ ^ ^ ^ ^ ^ { ^ ^ ^ ^ ^ { ^ ^ ^ ^ ^ ^ ^ ^ ^ ^ ^ ^ ^   ",
"  * ~ ~ ~ ~ ~ ~ { ~ ~ ~ ~ ~ ~ ~ ^ ^ ^ ^ ^ ^ ^ ~ ^ ^ ~ ~ ^ ^ ^ ^ ^ ^ ^ ^ ^ ^ ^ ^ ^ ^ ^ { 4 ( { ^ ^ ^ ^ 4 { / / / / / / / | ^ 8 / / { ^ ^ b / ^ / / { / 1.k k w ^ 4 b ^ / / b 5 4 7 ^ ^ ^ ^ ^ ^ ^ / / / / [ ^ ^ ^ 3 ^ ^ ^ ^ ^ ^ ^ ^ ^ ^ ^ ^ ^ ^ ^ ^ ^ { ^ ^ ^ ^ { ^ ^ ^ ^ ^ ^ ^ ^ ^ ^ ^ ^ ^ ^ ^ ^ { ^ ^ ^ ^ ^ ^ ^ ^ ^ { ^ ^ ^ ^ ^ { ^ ^ ^ { ^ ^ ^ { ^ { { ^ { ^ ^ ^ w j k e { ^ ^ { ^ ^ ^ ^ ^ ^ { ^ { { ^ ^ ^ ^ ^ ^ ^ ^ ^ ^ ^ ^ ^ ^ ^ ^ ^ / / ^ ^ ^ ^ ^ ^ ^ ^ ^ ^ ^ ^ ^ ^ { ^ ^ ^ ^ ^ { { ^ { { ^ ^ { { ^ ^ ^ ^ ^ ^ ^ ^ ^ { { ^   ",
"  * ~ ~ ~ ~ ~ { { ~ ~ ~ ^ ^ ^ ^ ^ ^ ^ ^ ^ ^ ^ ^ ^ ^ ^ ^ ^ { ^ ^ ^ ^ ^ ^ ^ ^ ^ ^ ^ ^ ^ { a ^ ^ ^ ^ ^ ^ ^ { / / / / / / / / ^ / { { { ^ ^ ^ / ^ / / { / / 2.k p =.w 3.4.5.6.I 7.8.w !./.V z I X z 9.[.0.a.6.b.c.w ).w w w w d.+.z v e.d.Y d.d.@.x (.d.D w w w w D w w w w w w w w w w w w D w w w w w c.f.g.z B %.B h.i.j.w w w w D w w w D w D w D w D D w w w w w k k e ^ { ^ ^ { ^ ^ ^ ^ ^ ^ { ^ { { ^ ^ ^ ^ ^ ^ ^ ^ ^ ^ ^ ^ ^ ^ ^ ^ ^ 3 7 1 ^ ^ ^ ^ ^ ^ ^ ^ { ^ ^ ^ ^ { ^ ^ { ^ ^ { { ^ ^ ^ ^ ^ { { ^ ^ ^ ^ ^ ^ ^ ^ ^ { { ~   ",
"  * ~ ~ ~ ~ ~ { ~ ~ ~ ~ ~ ^ ~ ~ ^ ^ ^ ^ ^ ^ / / / / ^ ^ ^ { ^ ^ ^ ^ ^ ^ ^ ^ ^ ^ ^ ^ ^ { ^ ^ ^ ^ ^ ^ c / | a ^ / { / { / b ^ / { { / ^ ^ ^ / / / / { / / ^ e k k >.k.k k k k k k k k k k k k k k p m m m m m k.p >.k k k k k k k k k k k k k k k k k j k k k k j k k k k k k n k.k k k j j k k k k k k k k k k k k k j k k k k k j k k k j k j k j k j j k k k k k k e ^ ^ { ^ ^ ^ ^ ^ ^ ^ ^ ^ { ^ { ^ ^ ^ ^ ^ ^ ^ ^ ^ ^ ^ ^ ^ ^ { { ^ ^ ^ ^ ^ ^ ^ ^ ^ ^ ^ ^ { { ^ ^ ^ ^ { ^ ^ { ^ ^ ^ ^ ^ { ^ ^ ^ ^ { ^ ^ ^ ^ ^ ^ ^ ~ ~ { { ~   ",
"  * ~ ~ ~ { ~ { { ^ ^ ^ ^ ^ ^ ~ ~ ^ ^ ^ ^ 4 / / / / ^ ^ { { ^ ^ ^ ^ ^ ^ ^ ^ ^ ^ ^ ^ ^ { ^ ^ ^ ^ { ^ ^ 8 / / ^ / / / { ^ ^ ^ / { { ^ ^ [ / / / / b { / / 4 ^ d e e e e e e e e e e e e e e e e e e g g e g g 2.l.e e e e e e e e e e e e e e e e e e d e e e e e e e d e e e e e e e e d d e e e e e e e e e e e e d d e e e e e d e e e d g d e d e d d e e e e e i ^ ^ ^ { ^ ^ ^ ^ ^ ^ ^ ^ ^ { ^ ^ ^ ^ ^ ^ ^ ^ ^ ^ ^ ^ ^ ^ ^ ^ { ^ ^ ^ ^ ^ ^ ^ ^ ^ ^ ^ ^ ^ ^ { ^ ^ ^ ^ { ^ ^ { ^ ^ ^ ^ ^ { ^ ^ ^ ^ { ^ ^ ^ ^ ^ ^ ~ ~ ~ ~ { ~   ",
"  * ~ ~ ~ ~ ~ { ~ ~ ^ ^ ^ ^ ^ ^ ~ ^ ^ ^ { ^ { { / 3 ^ ^ ^ { ^ ^ ^ ^ ^ ^ ^ ^ ^ ^ ^ ^ ^ { ^ ^ ^ ^ ^ ^ ^ ^ | / / / ^ ^ { ^ ^ ^ / { { ^ ^ 4 / / / b / { / / / ^ ^ ^ ^ ^ ^ ^ ^ ^ ^ ^ ^ ^ ^ ^ ^ ^ ^ ^ ^ a / ^ / / / 4 ^ ^ ^ ^ ^ ^ ^ ^ ^ ^ ^ ^ ^ ^ ^ { ^ ^ ^ ^ ^ ^ ^ ^ ^ ^ b / ^ ^ ^ ^ ^ ^ ^ ^ ^ ^ ^ ^ ^ ^ ^ ^ ^ ^ ^ ^ ^ { ^ ^ ^ 3 b ^ { ^ ^ ^ { [ ^ ^ { ^ { ^ ^ ^ ^ ^ ^ ^ ^ ^ ^ ^ ^ ^ ^ ^ ^ ^ ^ ^ ^ { ^ ^ ^ ^ ^ ^ ^ ^ ^ ^ ^ ^ ^ ^ ^ { ^ ^ ^ ^ ^ ^ ^ ^ ^ ^ ^ ^ ^ ^ { { ^ ^ ^ ^ { ^ ^ ^ { { ^ ^ ^ { ^ ^ ^ ^ { ^ ^ ^ ^ ^ { { ~ ~ ~ { ~   ",
"  * ~ ~ ~ ~ ~ ~ ~ ~ ^ ^ ^ ^ ^ ^ ^ ^ ^ ^ { ^ { ^ ^ ^ ^ ^ ^ ^ ^ ^ ^ ^ ^ ^ ^ ^ ^ ^ ^ ^ ^ { ^ ^ ^ ^ ^ ^ ^ ^ ^ / / | { ^ { ^ ^ ^ ^ { { ^ 7 ^ 7 b / 5 / { / / / / ^ ^ ^ ^ ^ ^ ^ ^ ^ ^ ^ ^ ^ ^ ^ ^ ^ ^ ^ / / / 5 / / / 2 ^ ^ ^ ^ ^ ^ ^ ^ ^ ^ ^ ^ ^ ^ ^ ^ ^ ^ ^ ^ ^ ^ ^ ^ 1 [ / ^ ^ ^ { ^ 5 ^ ^ ^ ^ ^ ^ ^ ^ ^ ^ ^ ^ ^ ^ ^ { ^ / / / ( ^ { ^ ^ ^ { ^ ^ ^ { ^ ^ { ^ ^ ^ ^ ^ ^ ^ { ^ ^ ^ ^ ^ ^ ^ ^ ^ ^ ^ ^ ^ ^ ^ ^ ^ ^ ^ ^ ^ ^ ^ ^ ^ ^ ^ { ^ ^ ^ ^ ^ ^ ^ ^ ^ ^ ^ ^ ^ ^ ^ { ^ ^ ^ ^ { ^ ^ { { { { ^ ^ { ^ ^ ^ ^ { ^ ^ ~ ~ ~ { { ~ ~ ~ { ~   ",
"  & ~ ~ ~ ~ ~ ~ { ~ ~ ^ ^ ^ ^ ^ ^ ^ ^ ^ { ^ ^ ^ ^ ^ ^ ^ ^ ^ ^ ^ ^ ^ ^ ^ ^ { { ^ ^ ^ ^ { ^ ^ ^ ^ ^ ^ ^ ^ ^ / / 7 ^ ^ { ^ ^ ^ ^ { { 6 { 7 4 | ^ a / / / / / / | ^ ^ ^ ^ ^ ^ ^ ( ^ ^ ^ ^ ^ ^ ^ ^ ^ ^ / / 6 2 / / 7 3 5 ^ ^ ^ ^ ^ ^ ^ ^ ^ ^ ^ ^ ^ ^ ^ ^ { ^ ^ ^ ^ ^ ^ ^ ^ ^ ^ ^ ^ ^ 2 ( ^ ^ ^ ^ ^ ^ ^ ^ ^ ^ ^ ^ ^ ^ ^ { 7 / 5 ^ ^ ^ ^ ^ ^ ^ { ^ ^ { ^ ^ ^ { ^ ^ ^ ^ ^ { ^ { ^ ^ ^ ^ ^ ^ ^ ^ ^ ^ ^ ^ ^ ^ ^ ^ ^ ^ ^ ^ ^ ^ ^ ^ ^ ^ ^ ^ ^ ^ ^ ^ ^ ^ ^ ^ ^ ^ ^ ^ ^ ^ { { ^ ^ ^ ^ ^ ^ ^ { { { { ^ ^ ^ ^ ^ ^ ^ ^ ^ ~ ~ ~ ~ { { ~ ~ ~ ~ ~   ",
"  * ~ ~ ~ ~ ~ ~ { ~ ~ ~ ~ ^ ~ ^ ^ ^ ^ ^ { ^ ^ ^ ^ ^ ^ ^ { ^ ^ ^ ^ ^ / / ^ ^ ^ ^ ^ { ^ ^ ^ ^ ^ ^ ^ ^ ^ ^ ^ ^ ^ ^ ^ ^ ^ ^ ^ ^ ^ { { ^ { | / / 7 / / / / / / / / / 3 ^ ^ ^ ^ ^ ^ / | ^ ^ ^ ^ ^ ^ 2 / / / ^ 1 ^ 3 ^ ^ ^ ^ ^ ^ ^ ^ ^ ^ ^ ^ ^ ^ ^ ^ ^ ^ ^ ^ ^ ^ ^ ^ ^ ^ ^ ^ ^ ^ ^ ^ 3 ^ ^ ^ ^ ^ ^ ^ ^ ^ ^ ^ ^ ^ ^ ^ ^ ^ { 7 / ^ ^ ^ ^ ^ ^ ^ ^ { ^ ^ { ^ ^ ^ ^ ^ ^ { ^ ^ ^ ^ ^ ^ { ^ ^ ^ ^ ^ ^ ^ ^ ^ { ^ ^ { ^ ^ ^ ^ ^ ^ ^ ^ ^ ^ ^ ^ { ^ ^ ^ ^ ^ ^ ^ ^ ^ ^ ^ ^ ^ ^ { ^ ^ ^ ^ ^ ^ ^ ^ { { ^ { ^ ^ ^ ^ ^ ^ ^ ^ ~ ~ ~ ~ ~ ~ ~ { ~ ~ ~ ~   ",
"  * ~ ~ ~ / : ~ { ~ ~ ~ ~ ^ ^ ^ ^ ^ ~ ~ { ^ { ^ ^ ^ ^ ^ ^ ^ ^ ^ ^ / / / 5 / ^ ^ ^ ^ ^ ^ ^ ^ ^ ^ ^ ^ ^ ^ ^ ^ ^ ^ ^ ^ ^ ^ ^ ^ ^ { { ^ { / / / ^ ( ( / / / / / / / / ^ ^ ^ ^ ^ ^ / / ^ ^ ^ ^ ^ b / / / ( ^ ^ ^ 2 ^ ^ ^ ^ ^ ^ ^ ^ ^ ^ ^ ^ ^ ^ ^ ^ ^ ^ ^ ^ ^ ^ ^ ^ ^ ^ ^ ^ ^ ^ ^ ^ [ ^ ^ ^ ^ ^ ^ ^ ^ ^ ^ ^ ^ ^ ^ ^ ^ ^ { ^ ^ ^ ^ ^ ^ / / ^ ^ { ^ ^ { { ^ ^ ^ ^ ^ ^ ^ ^ ^ ^ ^ ^ ^ ^ ^ { ^ ^ ^ ^ ^ ^ { { ^ { ^ ^ ^ { ^ ^ ^ ^ ^ ^ ^ ^ { ^ ^ ^ ^ ^ ^ ^ ^ ^ ^ ^ ^ ^ ^ { ^ ^ ^ ^ ^ { ^ ^ { { ^ { ^ ^ ^ ^ ^ ^ ^ ^ ~ ~ ~ ~ ~ ~ ~ { ~ ~ ~ ~   ",
"  * ~ / / / / { { ~ ~ ~ ~ ^ ^ ^ ^ ^ ~ ~ { ^ { ^ ^ ^ ^ ^ ^ ^ ^ ^ / / / / / / ^ ^ ^ ^ ^ ^ ^ ^ ^ ^ ^ ^ ^ ^ ^ ^ ^ ^ ^ ^ ^ ^ / a ^ { { ^ ( / 4 ^ ^ ^ ^ { 4 / / / / / / [ ^ ^ ^ ^ ^ ^ 1 ^ ^ ^ ^ ^ | / / / / ^ [ a 2 ^ ^ ^ ^ ^ ^ ^ ^ ^ ^ ^ ^ ^ ^ ^ ^ ^ ^ ^ ^ ^ ^ ^ ^ ^ ^ ^ ^ c | / / 5 ( ^ ^ ^ ^ ^ ^ ^ ^ ^ ^ ^ ^ ^ ^ ^ ^ { ^ ^ { ^ ^ ^ / / ^ ^ { ^ ^ { { { ^ ^ ^ ^ { ^ ^ { ^ ^ ^ ^ ^ ^ { ^ ^ ^ ^ ^ { { { ^ { ^ ^ ^ ^ ^ ^ ^ ^ ^ ^ ^ ^ { { ^ ^ ^ ^ ^ ^ ^ { ^ ^ ^ ^ ^ { ^ ^ ^ ^ ^ { ^ ^ { { ^ { ^ ^ ^ ^ ^ ^ ^ ^ ~ ~ ~ ~ ~ ~ ~ ~ { { ~ ~   ",
"  * : { / / / { { ~ ~ ~ ~ ^ ^ ^ ^ ^ ^ ^ ^ ^ ^ { ^ ^ ^ ^ ^ ^ 3 / / / / / / / ^ ^ ^ ^ ^ ^ ^ ^ ^ ^ { { ^ { ^ ^ 8 { ^ ^ ^ ^ ^ ^ ^ { { ^ ^ ^ ^ ^ ^ ^ ^ { ^ / / / { / 5 ^ 4 ^ ^ ^ ^ ^ ^ ^ ^ ^ ^ ^ ^ / 2 / / / / / / b ^ ^ ^ ^ ^ ^ ^ ^ ^ ^ ^ ^ ^ ^ ^ ^ ^ ^ ^ ^ ^ ^ ^ ^ ^ ^ ^ ^ ^ / / | 6 / / ( ^ ^ ^ ^ ^ ^ ^ ^ ^ ^ 4 ^ ^ { { ^ { ^ { { ^ ^ ^ ^ { ^ ^ { { { ^ ^ ^ ^ 7 ^ ^ ^ ^ ^ ^ { ^ { { ^ ^ ^ ^ ^ { { { ^ ^ ^ ^ ^ ^ ^ ^ ^ ^ ^ ^ ^ ^ ^ { ^ ^ ^ ^ ^ ^ ^ { ^ ^ ^ ^ ^ { ^ ^ ^ ^ ^ { ^ ^ { ^ ^ { ^ ^ ^ ^ ^ ^ ^ { ~ ~ ~ ~ ~ ~ ~ ~ { { ~ ~   ",
"  * : { / : ~ { ~ ~ ~ ~ ~ ^ ^ ^ ^ ^ ^ ^ ^ ^ ^ { ^ ^ ^ ^ ^ ^ / a 3 / / / 8 1 ^ ^ { ^ ^ ^ ^ ^ ^ ^ { { ^ { ^ ^ ^ ^ ^ ^ ^ ^ 1 7 { { { 2 ^ ^ ^ ^ ^ ^ ^ { ^ / / / { / ^ ^ 2 / ^ ^ ^ ^ ^ ^ ^ ^ ^ ^ ^ ^ ^ 5 ^ / / / / a ^ ^ ^ ^ ^ ^ ^ ^ ^ ^ ^ ^ ^ ^ ^ ^ ^ ^ ^ ^ ^ ^ ^ ^ ^ ^ ^ ^ ^ / 0 3 | / / 1 ^ ^ ^ [ ^ ^ ^ ^ ^ ^ ^ ^ ^ { ^ ^ ^ ^ { { 5 ^ 6 ^ { ^ ^ { ^ { ^ ^ ^ ^ ^ ^ ^ ^ ^ ^ ^ { ^ { { ^ ^ ^ ^ ^ ^ { ^ ^ { ^ { ^ ^ ^ ^ ^ ^ ^ ^ ^ ^ ^ ^ ^ ^ ^ ^ ^ ^ ^ ^ ^ ^ ^ ^ ^ { ^ ^ ^ ^ ^ { ^ ^ { ^ ^ { ^ ^ ^ ^ ^ ^ ^ ~ ~ ~ ^ ~ ^ ~ ~ ~ ~ ~ ~ ~   ",
"  & { { / ~ ~ { { _ ~ ~ ~ ^ ^ ^ ^ ^ ^ ~ { ^ { { ^ ^ ^ ^ ^ / / ( / / / / | ^ ^ ^ { ^ ^ ^ ^ ^ ^ ^ { { ^ { ^ ^ ^ ^ ^ ^ ^ ^ ^ 8 ^ ^ { ^ ^ ^ ^ ^ ^ ^ ^ { ^ ^ / { { ^ ^ ^ 5 / / / ^ ^ ^ ^ ^ ^ ^ ^ ^ ^ ^ / 8 / / / / ^ ^ ^ ^ ^ ^ ^ ^ ^ ^ ^ ^ ^ ^ ^ ^ ^ ^ ^ ^ ^ ^ ^ ^ ^ ^ ^ ^ ^ 3 / 0 [ / / ^ ^ ^ ^ ^ 3 ^ ^ ^ ^ ^ ^ ^ ^ ^ ^ ^ ^ { ^ ^ ^ ^ ^ ^ { { ^ ^ { ^ ^ ^ { ^ { ^ ^ ^ ^ ^ ^ ^ { ^ ^ ^ ^ ^ ^ ^ ^ ^ ^ { ^ { ^ { ^ ^ ^ ^ ^ ^ ^ ^ ^ ^ ^ ^ ^ ^ ^ ^ ^ ^ ^ ^ ^ ^ ^ ^ ^ ^ ^ ^ ^ ^ ^ { ^ ^ { ^ ^ { ^ ^ { ^ ^ ^ { ~ ~ ~ ^ ~ ^ ^ ~ ~ ~ { ~ ~   ",
"  & { { ~ ~ ~ ~ / / } ~ ^ ~ ~ ~ ^ ^ ^ ^ { ^ { { ^ ^ ^ ^ ^ ^ / ( / / / | ^ ^ ^ ^ ^ ^ ^ { ^ ^ ^ ^ ^ ^ ^ ^ ^ ^ ^ ^ ^ ^ ^ ^ ^ ^ ^ ^ { 4 3 ^ ^ ^ ^ ^ ^ { ^ ^ ^ { { ^ ^ ^ | / / / / ^ ^ ^ ^ ^ ^ ^ ^ ^ ^ ^ ^ 3 ^ ^ ^ ^ ^ ^ ^ ^ ^ ^ ^ ^ ^ ^ ^ ^ ^ ^ ^ ^ ^ ^ ^ ^ ^ ^ ^ ^ ^ ^ ^ ^ 7 / | [ / / 3 ^ ^ ^ ^ ^ ^ ^ ^ ^ ^ ^ ^ ^ ^ { { ^ ^ ^ ^ { ^ ^ ^ { { ^ ^ { ^ ^ { { ^ { ^ ^ ^ ^ ^ ^ ^ { ^ ^ ^ ^ ^ ^ ^ ^ ^ ^ { ^ { ^ { ^ { ^ ^ ^ ^ ^ ^ ^ ^ ^ ^ ^ ^ ^ ^ ^ ^ ^ ^ ^ ^ ^ ^ ^ ^ ^ ^ ^ ^ ^ { ^ ^ { ^ { { ^ ^ { ^ ^ ~ { ~ ~ ~ ^ ~ ^ ^ ~ ~ ~ { ~ ~   ",
". & { ~ ~ ~ ~ ~ ~ / 2 ^ ^ ~ ~ ~ ~ ^ ^ ^ { ^ ^ ^ ^ ^ ^ ^ ^ ^ / a / / ^ ^ ^ ^ ^ ^ ^ ^ ^ { ^ ^ ^ [ { ^ ^ ^ ^ ^ ^ ^ ^ ^ ^ ^ ^ ^ ^ ^ { / / 7 5 [ ^ ^ ^ { ^ ^ ^ { { ^ ^ ^ 2 / / / / ^ ^ ^ ^ ^ ^ ^ ^ ^ ^ ^ ^ ^ ^ ^ ^ ^ ^ ^ ^ ^ ^ ^ ^ ^ ^ ^ ^ ^ ^ ^ ^ ^ ^ ^ ^ ^ ^ ^ ^ ^ ^ ^ ^ [ / 2 b / / / 2 ^ ^ ^ ^ ^ ^ ^ ^ ^ ^ ^ ^ ^ ^ ^ { { ^ ^ ^ ^ ^ ^ ^ { { ^ ^ { ^ ^ ^ ^ ^ { ^ { ^ ^ ^ ^ ^ { ^ ^ ^ ^ ^ ^ ^ ^ { { ^ { { ^ ^ ^ { { { / / / ^ ^ ^ ^ ^ ^ ^ ^ ^ ^ ^ ^ ^ ^ ^ ^ ^ ^ ^ ^ ^ ^ ^ ^ { ^ ^ ^ { { { ^ ^ { ^ ~ ~ { ^ ^ ^ ^ ~ ^ ^ ~ ~ ~ { { ~   ",
"  * ~ ~ ~ ~ ~ ~ ~ ] ~ ^ ^ ^ ~ ~ ~ ^ ^ ^ { ^ ^ ^ ^ ^ ^ ^ ^ ^ 8 5 / ^ ^ ^ ^ ^ ^ ^ ^ ^ ^ { ^ ^ | { { 2 ^ ^ ^ ^ ^ ^ ^ ^ ^ 5 ^ ^ { ^ { | / ^ 3 0 2 ^ ^ ^ ^ ^ ^ ^ / / ^ ^ ^ ^ / / ^ ^ ^ ^ ^ ^ ^ ^ ^ ^ ^ ^ ^ 2 ^ ^ ^ ^ ^ ^ ^ ^ ^ ^ ^ ^ ^ ^ ^ ^ ^ ^ ^ ^ ^ ^ ^ ^ ^ ^ ^ ^ ^ ^ ^ 3 7 ^ / / / / [ ^ ^ ^ ^ ^ ^ ^ ^ ^ ^ ^ 0 4 ^ { { { [ | { ^ ^ ^ ^ ^ { ^ ^ { ^ ^ { ^ ^ { ^ { ^ { ^ ^ ^ { ^ { ^ ^ ^ ^ ^ ^ { { ^ { { ^ ^ ^ { { { ^ ^ ^ ^ ^ ^ ^ { ^ ^ ^ ^ ^ ^ ^ ^ ^ ^ ^ ^ ^ { ^ ^ ^ ^ ^ ^ ^ ^ ^ { { { { ^ ^ ^ ~ ~ ^ ~ ^ ^ ~ ^ ^ ~ ~ ~ ~ { { ~   ",
"  * ~ ~ ~ ~ ~ ~ ~ ~ ~ ^ ^ ^ ^ ^ ~ ^ ^ ^ { ^ ^ ^ ^ ^ ^ ^ ^ ^ ^ 5 [ ^ ^ ^ ^ ^ ^ ^ ^ ^ ^ ^ ^ ^ / { { / a ^ ^ ^ ^ ^ ^ ^ ^ ^ ^ ^ ^ { { ^ ^ ^ 7 ^ ^ ^ / / ^ ^ ^ / / / b ^ ^ ^ ^ ^ ^ ^ ^ ^ ^ ^ ^ ^ ^ ^ ^ ^ ^ ^ ^ ^ ^ ^ 0 ( | 8 ^ ^ ^ ^ ^ ^ ^ ^ ^ ^ ^ ^ ^ ^ ^ ^ ^ ^ ^ ^ ^ ^ ^ 5 3 ^ / / / / b ^ ^ ^ ^ ^ ^ ^ ^ ^ ^ ^ / 2 ^ { { ^ ^ ^ { ^ ^ ^ ^ ^ ^ ^ ^ ^ ^ ^ ^ ^ ^ ^ ^ { { { ^ ^ ^ ^ ^ { ^ ^ ^ ^ ^ ^ { { ^ ^ { ^ ^ { { { { ^ ^ ^ ^ ^ ^ { { ^ ^ ^ ^ ^ ^ ^ ^ ^ ^ { ^ ^ { ^ ^ ^ ^ ^ ^ ^ ^ ^ { { { { ^ ^ ^ ^ ^ ^ ^ ^ ^ ^ ^ ~ { ~ ~ ~ { { {   ",
"  * ~ ~ ~ ~ { ~ ~ { ~ ^ ~ ~ ^ ^ ^ ^ ^ ^ { ^ ^ ^ ^ ^ ^ { ^ ^ ^ ^ ^ ^ ^ ^ ^ ^ ^ ^ ^ ^ ^ ^ ^ ^ / / / / 0 ^ ^ ^ ^ ^ ^ ^ ^ ^ ^ ^ { { { ^ ^ ^ ^ ^ 6 b / / ^ ^ ^ / / / ^ ^ ^ ^ ^ ^ ^ ^ ^ ^ ^ ^ ^ ^ ^ ^ ^ ^ ^ ^ ^ 7 7 ^ ^ 7 / a ^ ^ 2 ^ ^ ^ ^ ^ ^ ^ ^ ^ ^ ^ ^ ^ ^ ^ ^ ^ ^ ^ ^ / 5 ^ ^ / ^ 1 / 1 ^ ^ ^ ^ ^ ^ ^ ^ ^ ^ 2 ^ ^ { ^ ^ 5 ^ { ^ ^ ^ ^ { ^ ^ ^ ^ ^ ^ ^ ^ ^ { ^ ^ { { ^ ^ ^ ^ ^ { ^ ^ ^ ^ ^ ^ { ^ ^ ^ { ^ ^ { { ^ ^ ^ ^ ^ ^ ^ ^ { { ^ ^ ^ ^ ^ ^ ^ ^ ^ ^ { ^ ^ { ^ ^ ^ ^ ^ ^ ^ ^ ^ ^ { { { ^ ^ ^ ^ ^ ^ ^ ^ ^ ^ ^ ~ ~ ~ ~ ~ { ~ {   ",
"  * ~ ~ ~ ~ { { ~ { ~ ^ ~ ~ ^ ^ ^ ^ ^ ^ { ^ ^ ^ ^ ^ b { ^ ^ ^ ^ ^ ^ ^ ^ ^ ^ ^ ^ ^ ^ ^ ^ ^ ^ 8 { / 8 ^ { ^ ^ ^ ^ ^ ^ ^ ^ ^ ^ ^ { { [ ^ ^ ^ ^ ^ / / / a ^ ^ ^ / ( ^ ^ ^ ^ ^ ^ ^ ^ ^ ^ ^ ^ ^ ^ ^ ^ ^ ^ ^ ^ ^ / ^ ^ ^ / / 6 { ^ ^ ^ ^ ^ ^ ^ ^ ^ ^ ^ ^ ^ ^ ^ ^ ^ ^ ^ ^ ^ ^ b ( ^ ^ ^ ^ ^ | 5 ^ ^ ^ ^ ^ ^ ^ ^ ^ ^ ^ 3 7 { ^ ^ ^ ^ { ^ ^ ^ ^ { { ^ ^ { ^ { ^ ^ ^ { ^ ^ { { ^ ^ ^ ^ ^ { ^ ^ ^ ^ ^ ^ { ^ ^ ^ ^ ^ ^ { ^ { ^ ^ ^ ^ ^ ^ ^ ^ ^ ^ ^ ^ ^ ^ ^ ^ ^ ^ ^ { ^ { { ^ ^ ^ ^ ^ ^ ^ ^ ^ ^ ^ { ^ ^ ^ ^ ^ ^ ^ ^ ^ ^ ~ ~ ~ ~ ~ ~ ~ ~ ~ ~   ",
"  * { ~ ~ ~ { { ~ { ~ ~ ^ ~ ^ ^ ^ ~ ^ ^ { ^ ^ ^ ^ ^ ^ ^ ^ ^ ^ ^ ^ ^ ^ ^ ^ ^ ^ ^ ^ ^ ^ ^ ^ ^ / { / ^ ^ { ^ ^ ^ 1 ^ ^ ^ ^ ^ ^ ^ ^ ( 8 ^ ^ ^ ^ ^ ^ a / / ^ ^ ^ ^ ^ ^ 7 3 ^ ^ ^ ^ ^ ^ ^ ^ ^ ^ ^ ^ ^ ^ ^ ^ ^ ^ ^ ^ ^ ^ / / ^ { ^ ^ ^ ^ ^ ^ ^ ^ ^ ^ ^ ^ ^ ^ ^ ^ ^ ^ ^ ^ ^ ^ ^ ( 2 ^ ^ ^ ^ ^ ^ ^ ^ ^ ^ ^ ^ ^ ^ ^ ^ ^ 2 ^ ^ ^ ^ ^ ^ ^ ^ ^ ^ ( { { ^ ^ { ^ ^ ^ ^ ^ { ^ ^ { { ^ ^ ^ ^ ^ { ^ ^ ^ ^ ^ ^ { ^ ^ ^ ^ ^ ^ { ^ { ^ ^ ^ ^ [ ^ ^ ^ ^ ^ ^ ^ ^ ^ ^ ^ ^ ^ ^ ^ ^ ^ ^ ^ ^ ^ ^ ^ ^ ^ ^ ^ ^ ^ { ^ ^ ^ ^ ^ ^ ^ ^ ^ ~ ~ ~ { { ~ ~ ~ ~ ~ ~   ",
". * { ^ ~ ~ { { ~ ~ ~ ~ ^ 0 ^ ^ ^ ^ ^ ^ { ~ ^ ^ ^ ~ ^ { { ^ ^ ^ ^ ^ ^ ^ ^ { ^ ^ ^ ^ ^ ^ ^ c ^ { ^ ^ ^ { ^ ^ ^ ^ ^ ^ ^ ^ ^ ( ^ ^ ^ ^ ^ 5 ^ ^ ^ ^ ^ / / / ^ ^ ^ ^ ^ ^ ^ ^ ^ ^ ^ ^ ^ ^ ^ ^ ^ ^ ^ ^ ^ 5 / / ^ ^ ^ ^ 5 / / / { ^ ^ ^ ^ ^ ^ ^ ^ ^ ^ ^ ^ ^ ^ ^ ^ ^ ^ ^ ^ ^ ^ [ | / ~ ^ ~ ~ ^ ^ ^ ^ ^ ^ ~ ~ ~ ^ ^ ^ ^ ^ ^ { ^ ^ ^ ^ ^ ^ ^ ^ ^ { { ^ { { ^ ^ 8 ^ ^ { ^ ^ ^ ^ ^ ^ ^ ^ ^ ^ ^ ^ ^ ^ ^ ^ ^ ^ ^ ^ { ^ ^ { ^ { ^ ^ ^ ^ ^ ^ ^ ^ ^ ^ ^ ^ ^ ^ ^ ^ ^ ^ ^ ^ ^ { { ^ ^ ^ ^ ^ ^ ^ { { ^ { { ^ { ^ ^ ^ ^ { ^ ^ ~ ~ ~ { { ~ { ~ ~ ~ ~   ",
". - { ^ ~ ~ { { ~ ~ ~ ~ ~ ^ ^ ^ ^ ^ ^ ^ ^ ^ ^ ^ ^ ^ ^ { { ^ ^ ^ ^ ^ ^ ^ ^ ^ ^ ^ ^ ^ ^ ^ ^ / ^ ^ ^ ^ ^ { ^ ^ ^ ^ ^ ^ ^ ^ 2 / ^ { ^ 0 ^ ^ ^ ^ ^ ^ ^ 4 / / / / / ^ ^ ^ ^ ^ ^ ^ ^ ^ ^ ^ ^ ^ ^ ^ ^ ^ ^ ^ b / ^ ^ ^ ^ ^ 1 ^ ^ ^ ^ ^ ^ ^ ^ ^ ^ ^ ^ ^ ^ ^ ^ ^ ^ ^ ^ ^ ^ ^ ^ ^ ~ / / } ~ ^ ^ ^ ^ ^ ^ ^ ^ ^ ^ ^ ^ ^ ^ ^ ^ ^ { ^ ^ ^ ^ ^ ^ ^ ^ ^ ^ { / { { ^ 8 4 ^ ^ { ^ ^ { ^ ^ ^ ^ ^ ^ ^ ^ ^ ^ ^ ^ { { ^ { ^ { ^ ^ { ^ { ^ { ^ ^ ^ ^ ^ ^ ^ ^ ^ ^ ^ ^ ^ ^ ^ ^ { ^ ^ { ^ ^ ^ ^ ^ ^ { ^ { { ^ { { ^ { ^ ^ ^ ^ { ^ ^ ^ ^ ~ { ~ ~ { { ~ ~ {   ",
". - { ~ ~ ~ ~ { ~ ~ ~ ~ ~ ~ ~ ~ ~ ^ ^ ^ ^ ^ ^ ^ ^ ^ ^ { ^ ^ ^ ^ ^ ^ ^ ^ ^ ^ ^ ^ ^ ^ ^ ^ ^ ^ ^ ^ ^ { { { ^ ^ / / a ^ ^ ^ | / { 6 1 1 1 ^ ^ ^ ^ ^ ^ | / / / / ^ ^ ^ ^ ^ ^ ^ ^ ^ ^ ^ ^ ^ ^ ^ ^ ^ ^ ^ ^ ^ ^ ^ ^ ^ ^ ^ ^ ^ ^ ^ ^ ^ ^ ^ ^ ^ ^ ^ ^ ^ ^ ^ ^ ^ ^ ^ ^ ^ ^ ^ ^ ^ ~ ~ { ~ ^ ~ ^ ^ ^ ^ ^ ^ ^ ^ ^ ^ ^ ^ ^ ^ ^ ^ ^ ^ ^ ^ ^ ^ ^ ^ ^ ^ ^ { ^ { { ^ 3 / ^ ^ ^ ^ ^ { ^ ^ ^ ^ ^ ^ ^ ^ ^ ^ ^ ^ { { ^ { { { ^ { { ^ ^ ^ { ^ ^ ^ ^ ^ { ^ ^ ^ ^ ^ ^ ^ ^ ^ ^ ^ ^ ^ { ^ ^ ^ ^ ^ ^ ^ ^ { ^ ^ { { ^ { ^ ^ ^ ^ ^ ^ ^ ^ ^ ~ { ~ ~ { { ~ ~ {   ",
"% & { ~ ~ ~ { { ~ ~ ~ ~ ~ ~ ~ ~ ~ ~ ^ ^ ^ ^ ^ ^ ^ ^ ^ ^ ^ ^ ^ ^ ^ ^ ^ ^ ^ ^ ^ ^ ^ ^ b ^ ^ ^ / ^ ^ ^ ^ ^ ^ ^ / / / ^ ^ ^ ^ 4 / / 6 3 ( ^ ^ ^ ^ ^ ^ ^ ^ / b ^ ^ ^ 9 ^ 5 ^ ^ ^ { ^ ^ ^ ^ ^ ^ ^ ^ ^ ^ ^ ^ { ^ ^ ^ ^ ^ ^ ^ ^ ^ ^ ^ ^ ^ ^ ^ ^ ^ ^ ^ ^ ^ { ^ ^ ^ ^ ^ ~ ~ ~ ~ ~ ~ ~ ~ ^ ^ ^ ^ ^ ^ ^ ^ ^ ^ ^ ^ ^ ^ ^ ^ ^ 7 5 ^ ^ ^ ^ ^ ^ ^ ^ ^ ^ { ^ { { ^ / / ( ^ ^ ^ ^ { ^ ^ ^ { ^ ^ { ^ ^ ^ ^ ^ { { ^ { { { ^ { { { { ^ { ^ ^ ^ ^ ^ { ^ ^ ^ ^ ^ ^ ^ ^ ^ ^ ^ ^ { { ^ ^ ^ ^ ^ ^ ^ ^ { ^ ^ { ^ ^ ^ ^ ^ ^ ^ ^ ^ ^ ~ ^ ~ ~ ~ ~ { { ~ ~ ~   ",
". & ~ ~ ~ ~ { { ~ ~ ~ ^ ~ ~ ~ ~ ~ ~ ~ ^ ^ ^ ^ ^ ^ ^ ^ { { ^ ^ ^ ^ ^ ^ 1 ^ ^ ^ ^ ^ ^ 5 3 8 a / ^ ^ | 4 ^ ^ ^ / / / / ^ ^ 1 / / b c 1 ^ ^ ^ ^ ^ ^ ^ ^ [ 6 ^ ^ ^ ^ / / 4 ^ ^ ^ ^ ^ ^ ^ ^ ^ ^ ^ ^ ^ ^ ^ ^ ^ ^ ^ b ^ ^ ^ { ^ ^ ^ ^ ^ ^ ^ ^ ^ ^ ^ ^ ^ ^ ^ ^ ^ ^ ^ ^ ^ ~ ~ ~ ^ ^ ^ ^ ^ ~ ^ ^ ^ ^ ^ ^ ^ ^ ^ ^ ^ ^ ^ a / / ^ ^ ^ ^ ^ ^ ^ ^ ^ ^ ^ { ^ ^ ^ ^ / / ^ ^ ^ ^ ^ { ^ ^ ^ { ^ ^ { ^ ^ ^ ^ ^ { { { { { { ^ { { { { ^ ^ ^ ^ ^ ^ ^ { ^ ^ ^ ^ ^ ^ ^ ^ ^ ^ ^ ^ ^ { ^ ^ ^ ^ ^ ^ ^ ^ ^ ^ ^ { ^ ^ ^ ^ ^ ^ ^ ^ ^ ^ ~ ~ ^ ~ ~ ~ ~ ~ ~ < ~ % ",
"% - ~ ~ ~ ~ { { ~ ~ ~ ~ ~ ~ ~ ^ ^ ~ ^ ^ ^ ^ ^ ^ ^ ^ ^ { { ^ ^ ^ ^ ^ ^ a / / ^ ^ ^ ^ ^ ^ ^ ( 2 ^ ^ / 4 3 { ^ / / / / ^ ^ ^ { / / 7 [ 1 ^ ^ ^ ^ ^ ^ ^ ^ ^ ^ { ^ / / / 5 ^ ^ ^ ^ ^ ^ ^ ^ ^ ^ { ^ ^ ^ ^ ^ ^ ^ ^ / ^ ^ ^ { ^ ^ ^ ^ ~ ^ ^ ^ ^ ^ ^ ^ ^ ^ ^ ^ ^ ^ ^ ^ / 4 ~ ~ ~ ~ ~ ^ ^ ^ ^ ^ ^ ^ ~ ^ ^ ^ ^ ^ ^ ^ / / / | ^ 1 ^ ^ ^ ^ ^ ^ ^ ^ { ^ ^ ^ ^ ^ ^ ^ ^ ^ ^ ^ ^ ^ ^ ^ ^ ^ ^ ^ ^ ^ ^ ^ ^ ^ { { { { { { ^ ^ { { { ^ ^ ^ ^ ^ ^ ^ { ^ ^ ^ ^ ^ ^ ^ ^ ^ ^ { ^ { { ^ ^ ^ ^ ^ ^ ^ ^ ^ ^ ^ ^ ^ ^ ^ ^ ^ ^ ^ ^ ^ ^ ~ ~ ^ ~ ~ ~ ~ ~ ~ / ^ % ",
"% * ~ ~ ~ ~ { ~ ~ ~ ~ ^ ^ ^ ^ ~ ~ ~ ^ ^ ~ ^ ^ ^ ^ ^ ^ / { ^ ^ ^ 1 ( ^ ^ ^ / ^ ^ ^ ^ ^ ^ ^ ^ 5 ^ / / { / { / / / / / / ^ ^ { / / / [ 6 ^ ^ ^ ^ ^ ^ ^ ^ ^ ^ { ^ 7 [ ^ ^ ^ ^ ^ ^ ^ / ^ ^ ^ ^ ^ ^ ^ ^ ^ ^ ^ ^ ^ ^ ^ ^ ^ { ^ ^ ^ ^ ^ ^ ^ ^ ^ ^ ~ ^ ^ ^ ^ ^ ^ ^ ^ ^ 3 a ~ ~ ~ ~ ^ ^ ~ ^ ^ ^ ^ ^ ^ ^ ^ ^ ^ ^ ^ ^ ^ 4 5 / / 0 ^ ^ ^ { ^ ^ ^ ^ { ^ ^ ^ ^ ^ ^ ^ ^ ^ ^ ^ ^ ^ ^ ^ ^ / 2 ^ { ^ ^ ^ ^ ^ { { { ^ { ^ ^ ^ ^ ^ { ^ ^ ^ ^ ^ ^ ^ { ^ ^ ^ ^ ^ ^ ^ ^ ^ ^ { ^ ^ { ^ ^ ^ ^ ^ ^ ^ ^ ^ { ^ ^ ^ ^ ^ ^ ^ ^ ^ ^ ^ ^ ^ { ^ ~ ~ ~ ~ ~ / ~ ~ % ",
"  * ~ ~ ~ ~ ~ ~ ~ ~ { ^ ^ ^ ^ ^ ~ ~ ~ ~ { ^ ^ ^ ^ ^ ^ { { ^ ^ ^ ^ ^ ^ ^ ^ ^ ^ ^ ^ ^ ^ ^ ^ ^ 7 ^ { / { / / / / / / / / ^ c / / / / / 1 ^ 5 ^ ^ ^ ^ ^ ^ ^ ^ { ^ ^ ^ ^ ^ ^ ^ ^ ^ 5 / ^ ^ ^ ^ { ^ ^ ^ ^ ^ ^ ^ ^ ^ ^ ^ { { ^ ^ ^ ^ ^ ^ ^ ^ ^ ^ ~ ^ ^ ^ ^ ~ ~ ~ ~ ~ ~ ~ ~ ~ ~ ^ ^ ^ ^ ^ ^ ^ ^ ^ ^ ^ ^ ^ ^ ^ ^ ^ ^ ^ ^ 8 2 ^ ^ ^ ^ { ^ ^ ^ ^ { ^ ^ ^ ^ ^ ^ ^ ^ ^ ^ ^ ^ ^ ^ ^ / / / ^ { ^ ^ ^ ^ ^ / { { ^ { ^ ^ ^ ^ ^ { ^ ^ ^ ^ ^ ^ ^ { ^ ^ ^ ^ ^ ^ ^ ^ ^ ^ { ^ ^ { ^ ^ ^ ^ ^ ^ ^ ^ ^ { ^ ^ ^ ^ ^ ^ ^ ^ ^ ^ ^ ^ ^ { ~ ~ ~ ~ ~ ~ ~ ~ ~   ",
"  * ^ ~ ~ ~ ~ { ~ ~ ~ ^ ~ ~ ^ ^ ~ ~ ~ ^ { ^ ^ ^ ^ ^ ^ { { ^ ^ ^ ^ ^ ^ ^ ^ ^ ^ { ^ ^ [ ^ ^ ^ ^ { { 5 { / ^ / / / / / / ^ 9 / / / ^ 6 ^ 5 7 1 ^ ^ ^ ^ ^ ^ { { ^ ^ ^ ^ ^ ^ ^ ^ ^ ^ { ^ ^ ^ ^ { ^ ^ ^ ^ ^ ^ ^ ^ ^ ^ ^ { { ^ ^ ^ ^ ^ ^ ^ ^ ^ ~ ^ ^ ^ ^ ^ ~ ~ ~ ~ ^ ^ ~ ~ ~ ~ ^ ^ ^ ^ ^ ^ ~ ~ ^ ^ ^ ^ ^ ^ ^ ^ ~ ^ ^ ^ ^ ^ ^ { ^ ^ ^ ^ ^ ^ { { ^ ^ ^ ^ ^ ^ ^ ^ ^ ^ ^ ^ ^ ^ ^ / / / ^ ^ ^ ^ [ ^ ^ ( ^ { { { ^ ^ ^ ^ ^ { ^ ^ ^ ^ ^ ^ ^ { ^ ^ ^ ^ ^ ^ ^ ^ ^ ^ { ^ ^ { ^ ^ ^ ^ ^ ^ ^ ^ { { { ^ ^ ^ ^ ^ ^ ^ ^ ^ ^ ^ ^ ^ ~ ~ ~ { { { ~ ~ ~   ",
"  * { ~ ~ ~ ~ { ~ ~ ~ ~ ~ ~ ~ ~ ~ ^ ^ ^ { ^ ^ ^ ^ ^ ^ { { ^ ^ ^ ^ ^ ^ ^ ^ ^ ^ { ^ ^ ^ ^ ^ ^ ^ { { / / / b / / / / / / ^ / b / / ^ ^ 1 4 4 c ^ ^ ^ ^ ^ ^ ^ { ^ ^ ^ ^ ^ ^ ^ ^ ^ { ^ ^ ^ ^ { { ^ ^ ^ ^ ^ ^ ^ ^ ^ ^ ^ { ^ ^ ^ ^ ^ ^ ^ ^ ^ ~ ^ ^ ^ ^ ^ ~ ~ ~ ~ ~ ^ ^ ^ ^ { ^ ^ ^ ^ ^ ^ ^ ~ ~ ^ ^ ^ ^ ^ ^ ^ ~ ~ ^ ^ ^ ^ ^ ^ { ^ ^ ^ ^ ^ ^ ^ { ^ ^ { a ^ ^ ^ ^ ^ ^ ^ ^ { ^ ^ ^ / / ^ ^ b b 8 ^ ^ { { { { { ^ ^ { ^ { { ^ ^ ^ ^ ^ ^ ^ { ^ ^ ^ ^ ^ ^ ^ ^ ^ ^ { ^ ^ { ^ ^ ^ ^ ^ ^ ^ ^ { { { { ^ ^ ^ ^ ^ ^ ^ ^ ^ ^ ^ ^ ~ ~ ~ { { ~ ~ ~ ~   ",
". * ~ ~ ~ ~ { ~ ~ { ~ ^ ~ ~ ~ ~ ^ ~ ^ ^ ^ ^ ^ ^ ^ ^ ^ { { ^ ^ ^ ^ ^ ^ ^ ^ ^ ^ ^ ^ ^ ^ ( / | / ^ 2 ^ { / / / { / / / / / / / / / 9 ^ ^ / / / 7 ^ ^ ^ ^ ^ ^ ^ ^ ^ ^ ^ ^ ^ ^ ^ ^ { ^ ^ ^ ^ { ^ ^ ^ ^ ^ ^ ^ ^ ^ ^ ^ { { ^ ^ ^ ^ ^ ^ ^ ^ ^ ^ ^ ^ ^ ^ ~ ~ ~ ~ ^ ^ ^ ^ ^ ^ ^ ^ ^ ^ ^ ^ ^ / / { 6 ^ ^ ^ ^ ^ ^ ^ ^ ^ ^ ^ ^ ^ ^ ^ ^ ^ ^ ^ ^ ^ ^ ^ ^ ^ { ^ ^ ^ ^ ^ ^ ^ ^ ^ { ^ ^ ^ ^ { ^ ^ ^ ( c ^ ^ ^ ^ ^ ^ { ^ ^ ^ ^ { { ^ ^ ^ ^ ^ ^ ^ { ^ ^ ^ ^ ^ ^ ^ ^ ^ ^ { ^ ^ { ^ ^ ^ ^ ^ ^ ^ ^ { { ^ { ^ ^ ^ ^ ^ ^ ^ ^ ^ ^ ^ ^ ~ ~ ~ { ^ ~ ~ { ~   ",
". * ~ ~ ~ ~ { ~ ~ { ^ ^ ^ ~ ~ ^ ^ ^ ^ ^ ^ ^ ^ ~ ^ ^ ^ { ^ ^ ^ ^ ^ ^ ^ ^ ^ ^ ^ ^ ^ ^ ^ ^ / / ^ ^ ^ ^ ^ ^ ( { { / / / / / / { / / / ^ ^ a / / / 7 ^ ^ ^ ^ ^ ^ ^ ^ ^ ^ ^ ^ ^ ^ ^ ^ ^ ^ ^ ^ { ^ ^ ^ ^ ^ { ^ ^ ^ ^ ^ { ^ ^ ^ ^ ^ ^ ^ 1 7 ^ ^ ^ ^ ^ ^ ^ ^ ^ ^ ^ ^ ^ ~ ~ ^ ^ ^ ^ ^ ^ ^ ^ / | { / / ^ ^ ^ ^ ^ ^ ^ ^ ^ ^ ^ ^ ^ ^ ^ ^ ^ ^ ^ ^ ^ ^ ^ ^ ^ ^ ^ { ^ ^ ^ ^ ^ ^ ^ ^ ^ ^ ^ ^ ^ ^ ^ ^ ^ 2 5 ^ ^ ^ ^ { ^ ^ { { { { ^ ^ ^ ^ ^ ^ ^ ^ ^ ^ ^ ^ ^ ^ ^ ^ ^ ^ { ^ ^ ^ ^ ^ ^ ^ ^ ^ ^ { { ^ { { ^ ^ ^ ^ ^ ^ ^ ^ ^ ~ ^ ^ ^ ^ ^ ~ ^ ~ ~ ~ ~   ",
". * ~ ~ ~ { { ~ ~ ^ ^ ^ ^ ~ ^ ^ ^ ^ ~ ~ 7 ~ ^ ~ ~ ~ ^ ^ ^ ^ ^ ^ ^ ^ ^ ^ ^ ^ ^ ^ ^ ^ ^ ^ ^ ^ ^ ^ 1 ^ 1 ^ ^ { / / / / / / / { / / / ^ ^ ^ / / / 3 ^ ^ ^ ^ ^ ^ ^ ^ ^ ^ ^ ^ ^ ^ ^ { ^ ^ ^ ^ ^ ^ ^ ^ ^ ^ { ^ ^ ^ ^ ^ ^ ^ ^ ^ ^ ^ ^ ^ ^ 6 ^ ^ ^ ^ ^ ^ ^ ^ ^ ^ ^ ^ ^ ~ ~ ~ ~ ~ ^ ^ ^ ^ ^ / / { / | ^ ^ ^ ^ ^ ^ ^ ^ ^ ^ ^ ^ ^ ^ ^ ^ ^ ^ ^ ^ ^ ^ ^ ^ ^ ^ ^ ^ ^ ^ { ^ ^ ^ ^ ^ ^ ^ ^ { ^ ^ { ^ 6 / | ( ^ { { { ^ ^ { { { ^ ^ ^ ^ ^ ^ ^ ^ { ^ { ^ ^ ^ ^ ^ ^ ^ ^ { ^ ^ { ^ ^ ^ ^ ^ ^ ^ { { ^ { { ^ ^ ^ ^ ^ ^ ^ ^ ^ ~ ^ ^ ^ ^ { { ~ ^ ~ ~ ~   ",
". * ~ ~ < < ~ ~ ~ ^ { ^ ~ ~ ^ ^ ^ ^ ~ ~ ~ ^ ^ ^ ~ ~ ^ ^ ^ ^ ^ ^ ^ ^ ^ ^ ^ ^ ^ ^ ^ ^ ^ ^ ^ ^ ^ ^ { ^ ^ ^ ^ ^ 1 / / / / / / / / / / ^ ^ ^ 5 / / ^ ^ ^ ^ ^ ^ ^ ^ ^ ^ ^ ^ ^ ^ { ^ ^ ^ ^ { ^ / ^ ^ ^ ^ ^ { ^ 7 ^ ^ ^ ^ ^ { ^ ^ ^ ^ ^ ^ ^ ^ ~ ~ ^ ^ ^ ^ ^ ^ ^ ^ ^ ^ ~ ^ ~ ~ ~ ^ ^ ^ ^ ^ ^ ^ { ^ ^ ^ ^ ^ ^ ^ ~ ^ ^ ^ ^ ^ ^ ^ ^ ^ ^ ^ ^ ^ ^ ^ ^ ^ ^ ^ ^ ^ { ^ ^ { ^ ^ ^ ^ ^ ^ ^ ^ ^ ^ ^ ^ a / 0 ( { 5 { { { ^ ^ { { { ^ ^ ^ ^ ^ ^ ^ ^ ^ ^ { ^ ^ ^ ^ ^ ^ ^ ^ { ^ ^ { ^ ^ ^ ^ ^ ^ ^ { { ^ { { ^ ^ ^ ^ ^ ^ ^ ^ ^ ^ ~ ^ ^ { { ~ ^ ~ ~ ~ ~   ",
". * { ~ ~ ~ ~ ~ ~ ~ { ~ ^ ^ ^ ^ ^ ^ ~ ~ ^ ^ ^ ^ ~ ~ ^ ^ ^ ^ ^ ^ ^ ^ ^ ^ ^ ^ ^ ^ ^ ^ ^ ^ ^ ^ ^ ^ { ^ ( ^ ^ ^ { | / / / / / / 3 / / ^ ^ ^ { ^ ^ ^ ^ ^ ^ ^ { ^ ^ ^ ^ ^ ^ ^ ^ { ^ ^ ^ ^ { ^ ^ ^ ^ ^ ^ ^ ^ ^ / ^ ^ / / { { ^ ^ ^ ^ ^ ^ ^ ^ ^ ~ ~ ^ ^ ~ ~ ^ ^ ^ ^ ^ ~ ~ ^ ^ ~ ^ ^ ^ ^ ^ ^ ^ { ^ ^ ^ / / / 5 ^ ^ ^ ^ ^ ^ ^ ^ ^ a ^ ^ ^ ^ ^ ^ ^ ^ ^ ^ ^ ^ { ^ ^ ^ ^ ^ ^ ^ ^ ^ ^ ^ ^ ^ [ / / / ^ ^ 7 0 { { { ^ { { { { { ^ ^ ^ ^ ^ ^ ^ ^ ^ ^ ^ { ^ ^ ^ ^ ^ { { ^ ^ { ^ ^ ^ ^ ^ ^ ^ { { ^ { { ^ ^ ^ ^ ^ ^ ^ ^ ^ ^ ^ ^ ^ { ~ ~ ~ ~ ~ ~ ~ . ",
". * ~ ~ ~ ~ { ~ ~ ~ { ~ ~ ^ ^ ^ ^ ^ ^ ^ ^ ^ ^ ^ ^ ^ ^ ^ ^ ^ ^ ^ ^ ^ ^ ^ ^ ^ ^ ^ ^ ^ ^ ^ ^ ^ ^ ^ ^ ^ { ^ ^ { { b / / / / 6 | ^ / / ^ ^ ^ { ^ ^ ^ ^ ^ ^ ^ ^ ^ ^ ^ ^ { ^ ^ ^ { ^ ^ ^ ^ { ^ ^ ^ ^ ^ 2 ^ ^ ^ ^ ^ ^ / 3 { { ^ ^ ^ ^ ~ ~ ~ ^ ^ ^ ^ ^ ^ ~ ~ ~ ^ ^ ^ ^ ^ ^ ^ ^ ^ ^ ^ ^ ^ ^ ^ ^ ^ ^ ^ ^ ^ / { / b ^ ^ ^ ^ ^ ^ ^ ^ 6 3 / 3 / a ^ ^ ^ ^ ^ ^ ^ ^ ^ ^ ^ ^ ^ ^ ^ ^ ^ ^ ^ ^ ^ { / | ( ^ ^ 2 ^ { { { ^ { { ^ { ^ ^ ^ ^ ^ ^ ^ ^ ^ ^ ^ ^ ^ ^ ^ ^ ^ ^ { { ^ ^ { ^ ^ ^ ^ ^ ^ ^ { { ^ ^ ^ ^ ^ ^ ^ ^ ^ ^ ^ ^ ^ ^ ^ ^ { ~ ~ ~ { { ~ ~ @ ",
". & ~ ~ ~ ~ { ~ ~ ^ ^ ~ ~ ^ ^ ^ ~ ^ ^ ^ ^ ^ ^ ^ ^ ^ ^ ^ ^ ^ ^ ^ ^ ^ ^ ^ ^ ^ ^ ^ ^ ^ ^ ^ ^ ^ { ^ ^ ^ { ^ ^ { { 5 0 / | 7 / [ ^ 7 ^ ^ ^ ^ { { ^ ^ ^ ^ ^ ^ ^ ^ ^ ^ ^ { ^ ^ ^ { ^ ^ ^ ^ { ^ { ^ ^ ^ ^ { ^ { ^ ^ ^ ^ 2 { { / ^ ~ ~ ~ ~ ^ ^ ^ ^ ^ ^ ^ ~ ~ ^ ^ ^ ^ ^ ^ ^ ^ ^ ^ ^ ^ ^ ^ ^ ^ ^ ^ ^ ^ ^ ^ / { / / / 2 ^ ^ ^ ^ ^ ^ ^ ^ 7 ^ 7 / / ^ ^ ^ ^ ^ ^ ^ ^ ^ ^ ^ ^ ^ ^ ^ ^ ^ ^ ^ ^ 2 { 4 2 ( ^ ^ ^ { { { ^ ^ ^ ^ { ^ ^ ^ ^ ^ ^ ^ ^ ^ ^ { ^ { ^ ^ ^ ^ ^ ^ { ^ ^ { ^ ^ ^ ^ ^ ^ ^ { { ^ ^ ^ ^ ^ ^ ^ ^ ^ ^ ^ { ^ ^ ^ ^ ~ ~ ~ ~ ~ ~ ~ ~ @ ",
". & { ~ ~ ~ { ~ ~ { ^ ^ ^ ^ ^ ^ ^ ^ ^ ^ ^ ^ 7 ^ ^ ^ ^ ^ ^ ^ ^ ^ ^ ^ ^ ^ ^ ^ ^ ^ ^ ( ^ ^ ^ ^ ^ ^ { { ^ ^ ^ ^ ^ ^ { ^ 8 ^ 1 ( ^ ^ ^ ^ ^ ^ 2 { ^ ^ ^ ^ ^ ^ ^ ^ ^ ^ ^ { ^ ^ ^ { ^ ^ ^ ^ { / { ^ ^ ^ ^ ^ ^ ^ ^ 3 ^ ^ ^ { / / ^ ~ ~ ~ ~ ^ ^ ^ ^ ^ ^ ^ ^ ^ ^ ^ ^ ^ ^ ^ ^ ^ ^ ^ ^ ^ ^ 8 ^ ^ ^ { ^ ^ ^ ^ ^ { / / / / ^ 8 ^ ^ ^ ^ ^ ^ ^ ^ ^ 0 { ^ ^ ^ ^ ^ ^ ^ ^ ^ ^ ^ ^ ^ ^ ^ ^ ^ ^ ^ ^ ^ { / { / b 5 ^ ^ ^ { ^ { ^ ^ ^ ^ ^ ^ ^ ^ ^ ^ ^ { ^ ^ ^ ^ ^ ^ ^ ^ ^ { { ^ ^ { ^ ^ ^ ^ ^ ^ ^ { { ^ ^ ^ ^ ^ ^ ^ ^ ^ ^ ^ { ^ ^ ^ ^ { ~ ~ ~ ~ ~ ~ ~ + ",
". & { ~ ~ ~ { ~ ~ { ~ ^ ~ ~ ~ ^ ^ ^ ^ ^ ^ ^ ^ ^ ^ ^ 1 ^ / 8 5 ^ ^ ^ ^ ^ ^ ^ ^ ^ ^ ^ ^ ^ ^ ^ ^ ^ { { ^ ^ ^ ^ ^ ^ { ^ ^ ^ ^ ^ ^ ^ ^ ^ ^ ^ 2 { ^ ^ ^ ^ ^ ^ ^ ^ ^ ^ { { ^ ^ ^ { ^ ^ ^ ^ { / / ( ^ ^ ^ ^ { ^ ^ ^ ^ ^ ^ { / / ^ ~ ~ ~ ^ ^ ^ ^ ^ ^ ^ ^ ^ ^ ^ ^ ^ ^ ^ ^ ^ ^ ^ ^ ^ 7 ^ ^ [ ^ ^ { ^ ^ ^ ^ | { / / / / / / / ^ ^ ^ ^ ^ ^ ^ ^ ^ { ^ ^ ^ ^ ^ ^ ^ ^ ^ ^ ^ ^ ^ ^ ^ ^ ^ ^ 5 ( 5 / / { / b 8 ^ ^ ^ ^ ^ ^ ^ ^ ^ ^ ^ ^ { ^ ^ ^ ^ ^ ^ ^ ^ ^ ^ ^ ^ ^ ^ ^ ^ ^ ^ { ^ ^ ^ ^ ^ ^ ^ { { ^ ^ ^ ^ ^ ^ ^ ^ { ^ ^ { ^ ^ ^ ^ { ^ ~ ~ { ~ ~ ]   ",
". * { ~ ~ ~ { ~ ~ { ~ ~ ~ ~ ~ / / ^ 2 ~ ~ 1 ^ ^ ^ ^ ^ ^ / ^ ^ ^ ^ ^ ^ ^ ^ ^ ^ ^ ^ ^ ^ ^ ^ ^ 1 [ ^ ^ ^ 2 { 5 ^ ^ { ^ ^ ^ / / ( ^ ^ ^ ^ ^ ^ ^ ^ ^ ^ ^ ^ ^ ^ ^ ^ ^ ^ { ^ ^ ^ { ^ ^ ^ ^ { / / ^ ^ ^ ^ ^ ^ ^ ^ ^ ^ ^ ^ ^ 4 8 ^ { ^ ^ ^ ^ ^ ^ ^ ^ ^ ^ ^ ^ ~ ^ ^ ^ ^ ^ ^ { ^ ^ ^ 2 / 4 ^ ^ ^ { ^ ^ ^ ^ / / / / / / / / / ^ ^ ^ ^ ^ ^ ^ ^ ^ { ^ ^ ^ ^ ^ ^ ^ ^ ^ { ^ ^ { ^ a ^ { / / ^ ^ { / / | 0 ^ ^ ^ ^ { ^ ^ ^ ^ ^ ^ ^ ^ { ^ ^ ^ ^ ^ ^ ^ ^ ^ ^ ^ ^ ^ ^ { ^ ^ ^ ^ ^ ^ ^ ^ ^ ^ ^ { { ^ ^ ^ ^ ^ ^ ^ ^ ^ ^ ^ ^ ^ ^ ^ ^ { ^ { ~ { ~ ~ ~   ",
"  * { ~ ~ ~ { ~ ~ { ~ { ^ ~ ~ / / ^ ^ ~ ~ / / ^ ^ ^ ^ ^ ^ ^ ^ ^ ^ ^ ^ ^ ^ ^ ^ ^ ^ ^ ^ ^ ^ / ( 1 ( 6 8 ^ { 1 { ^ ^ ^ ^ ^ ^ 2 7 2 4 ^ ^ ^ ^ ^ ^ ^ ^ ^ ^ ^ ^ ^ ^ ^ ^ { ^ ^ ^ { ^ ^ ^ ^ { / { ^ ^ ^ ^ ^ ^ ^ ^ ^ ^ ^ { ^ 4 ^ ^ { ^ { ^ ^ ^ ^ ^ ^ ^ ^ ^ ^ ~ ^ ^ ^ ^ ^ ^ ^ ^ ^ ^ ^ 5 2 2 ^ ^ { ^ ^ ^ ^ / / / / / / / / ^ ^ { ^ ^ ^ ^ ^ ^ ^ ^ ^ ^ ^ ^ ^ ^ ^ ^ ^ { ^ ^ { ^ / ^ { / ^ ^ ^ { / / | / ^ ^ ^ { { ^ ^ ^ ^ ^ ^ ^ ^ { ^ ^ ^ ^ { ^ ^ ^ ^ ^ ^ ^ ^ ^ { ^ ^ ^ { ^ ^ ^ ^ ^ ^ ^ { { ^ ^ { ^ ~ { { ^ { ^ ^ ^ ^ ^ ^ ^ { ^ { ~ { ~ ~ ~   ",
"  * ~ ~ ~ ~ { ~ ~ { ^ ^ ^ 1 ^ / 2 ^ ^ ~ / ^ ~ ^ ^ ^ ^ ^ ^ ^ ^ ^ ^ ^ ^ ^ ^ ^ ^ ^ ^ ^ ^ ^ ^ / / a ^ ^ ^ b { ^ { ^ ^ ^ ^ ^ ^ ^ { ^ ^ ^ ^ ^ ^ ^ ^ ^ ^ ^ ^ ^ ^ ^ ^ ^ { ^ ^ ^ { { ^ ^ ^ ^ { / { ^ ^ ^ ^ { ^ ^ ^ ^ ^ ^ ^ / / 1 ^ { ^ { ^ ^ ^ ^ ^ ^ ^ ^ ^ ~ ~ ~ ^ ^ ^ ^ ^ ^ ^ ^ ^ ^ ^ ^ ^ ^ 1 { ^ ^ ^ ^ 3 { / / / / / / { ^ ^ ^ ^ ^ ^ ^ ^ ^ ^ ^ ^ ^ 3 ^ ^ ^ ^ ^ ^ ^ ^ { / 5 2 ^ ^ ^ ^ [ { / | ^ ( { ^ ^ ^ { ^ ^ { ^ ^ ^ ^ ^ ^ ^ ^ ^ ^ { ^ { ^ ^ ^ ^ ^ ^ ^ { ^ ^ ^ { ^ ^ ^ ^ ^ ^ ^ { { ^ { { ^ ~ { { ~ ^ ^ ^ ^ ^ ^ ^ ^ ^ ^ ~ ~ { ~ { ~   ",
"  * { ~ ~ ~ ~ ~ ~ { ^ ^ 2 c [ 1 ^ ^ ^ ~ / ~ ^ { ^ ^ ^ ^ ^ ^ ^ ^ ^ ^ ^ ^ ^ ^ ^ ^ ^ ^ ^ ^ ^ 2 / [ | 1 ^ 0 { ^ { { ^ ^ ^ ^ ^ ^ { ^ ^ ^ ^ ^ ^ ^ ^ { ^ ^ ^ ^ ^ ^ ^ ^ ^ ^ ^ ^ ^ ^ ^ ^ ^ { { 8 { ^ ^ ^ ^ { { ^ { ^ ^ ^ ^ { { ^ ^ { ^ { ^ ^ ^ ^ ^ ^ ^ ~ ~ ~ ^ ^ ^ ^ ^ ^ ^ { ^ ^ ^ ^ ^ ^ ^ ^ [ { 7 ^ ^ 8 / / / / / / / / { 4 7 ^ 7 ^ ^ ~ ^ ^ ^ ^ ^ / / ^ ^ ^ ^ ^ ^ ^ { { / / ^ ^ ^ ^ ^ b / / { ^ { { ^ ^ ^ { ^ ^ { ^ ^ ^ ^ ^ ^ { ^ ^ ^ ^ ^ { ^ ^ ^ ^ ^ ^ ^ { ^ ^ ^ { ^ ^ ^ ^ ^ ^ ^ { { ^ ^ { ^ ^ ^ { ~ ^ ^ ^ ^ ^ ^ ~ ^ ^ ^ ~ ~ ~ ~ { ~ . ",
"  & { ~ { ~ ~ ~ ~ { ^ ^ ^ 7 3 ^ ^ ^ 1 / / ^ ^ { ^ ~ ^ ^ ^ ^ ^ ^ ^ ^ ^ ^ ^ ^ { ^ ^ ^ ^ ^ ^ { ^ ^ { { { / { ^ { { ^ ^ | ^ ^ ^ { / / { ^ ^ ^ ^ ^ ^ ^ ^ ^ ^ ^ ^ ^ ^ ^ ^ ^ ^ { { { ^ ^ { { ^ { ^ ^ ^ ^ { ^ ^ ^ ^ ^ ^ ^ { { ^ ^ { ^ { ^ ^ ^ ^ ^ ^ ^ ^ ^ ^ ^ ^ ^ ^ ^ ^ ^ { ^ ^ ^ ^ ^ ^ ^ ^ 2 { / ^ ^ / / / / b b { / / / / / / / | 5 7 ^ ^ ^ ^ ^ { / ^ ^ ^ ^ ^ ^ ^ ^ { ^ ( b { ( 8 ^ 1 ^ ^ ^ ^ { ^ ^ ^ ^ ^ ^ ^ ^ { ^ ^ ^ { ^ { ^ ^ ^ ^ ^ { ^ ^ ^ ^ ^ ^ ^ ^ ^ ^ ^ { ^ ^ ^ ^ ^ ^ ^ { { ^ ^ { ^ ^ ^ ^ ^ / / ^ ^ ~ ~ ~ ~ ^ ^ ~ ~ ~ ~ { ~ . ",
"  & { ~ { ~ ~ ~ ~ { ^ ^ ^ 7 / / ( / b b 4 ^ ^ { ^ ^ ^ ^ ^ ^ ^ ^ ^ ^ ^ ^ ^ ^ { ^ ^ ^ ^ ^ ^ { { ^ { { { ^ { ^ { { { ^ ^ ^ ^ ^ { / / ^ ^ ^ ^ ^ ^ ^ ^ ^ ^ ^ ^ ^ ^ ^ ^ ^ ^ ^ ^ ^ { ^ { { { { { / ^ ^ ^ { ^ ^ ^ ^ ^ { ^ { ^ ^ { { ^ ^ ^ ^ ^ { ^ ^ ^ { ^ ^ ^ ^ ^ ^ ^ ^ ^ { ^ ^ ^ ^ ^ ^ ^ ^ ^ { ^ ^ / / / / / / / / / / / / / / / { ^ ^ ^ ^ ^ ^ ^ { ^ ^ ^ ^ ^ ^ ^ ^ ^ / / / / { / [ ^ ^ ^ ^ ^ ^ { ^ ^ ^ ^ ^ ^ ^ ^ ^ ^ ^ ^ { ^ ^ ^ ^ ^ ^ ^ { ^ ^ ^ ^ ^ ^ ^ ^ ^ ^ ^ ^ ^ ^ ^ ^ ^ ^ ^ { { ^ ^ ^ ^ ^ ^ ^ ^ ^ ^ ^ ^ ~ ~ { ~ ^ ^ ~ ~ ~ ~ { ~   ",
"  & ~ ~ ~ ~ ~ ~ ~ { ~ ^ / / / ^ ~ / } ^ ^ ^ ^ ^ ^ ^ ^ ^ ^ ^ ~ ^ ~ ^ ^ ^ ^ ^ { ^ ^ ^ ^ ^ ^ { { ^ { ^ { ^ { ^ { ^ ^ ^ ^ ^ ^ ^ ^ ^ ^ ^ ^ ^ ^ ^ ^ ^ ^ ^ { ^ ^ { ^ ^ ^ ^ ^ ^ { ^ { ^ { { ^ { { / / 9 / / / ^ ^ ^ ^ { ^ { ^ ^ { { ~ ^ ^ ^ ^ ^ ^ ^ ^ ^ ^ ^ ^ ^ ^ ^ ^ ^ ^ { ^ ^ ^ ^ ^ ^ ^ ^ ^ { ^ ^ / b / / / / / / / / / / / / [ ^ ^ ^ ^ ^ ^ ^ ^ { ^ ^ ^ { { { ^ ^ ^ ^ / / / / / / 7 | { ^ ^ ^ { ^ ^ ^ ^ { ^ ^ ^ ^ { ^ ^ ^ ^ { ^ ^ ^ ^ { { ^ ^ { ^ ^ ^ ^ ^ ^ ^ ^ { ^ ^ ^ ^ ^ ^ ^ ^ ^ ^ ^ ^ ^ ~ ^ ^ ^ ^ ^ ^ ~ ~ ~ { ^ { { ~ ~ ~ ~ { ~   ",
"  * ~ ~ ~ ~ ~ ~ { { ~ < / / 5 ^ ^ [ ~ ^ ~ ^ ^ { ~ ^ ^ ^ ~ ^ ^ ~ ^ ^ ^ ^ ^ ^ { ^ ^ ^ ^ ^ ^ { { ^ { ^ { ^ ^ ^ ^ ^ ^ ^ ^ ^ ^ ^ ^ ^ ^ ^ ^ ^ ^ ^ { ^ ^ ^ ^ ^ ^ ^ ^ ^ { ^ ^ ^ ^ ^ ^ { { { ^ { { / / / / / / / 1 ^ ^ { ^ ^ { ^ ^ ~ ^ ^ ^ ^ ^ ^ ^ ^ ^ ^ ^ ^ ^ ^ ^ ^ / c { { ^ ^ ^ ^ ^ ^ ^ ^ ^ { ^ ^ 7 / / / / b { / / 2 / / / 7 ^ ^ { ^ ^ ^ ^ ^ ^ ^ { ^ ^ ^ ^ { ^ ^ ^ ^ / / / / / / a 2 / / ( ^ { { ^ ^ ^ ^ ^ ^ ^ ^ { ^ ^ { ^ { ^ ^ ^ ^ { { ^ ^ ^ ^ ^ ^ ^ ^ ^ ^ ^ { ^ ^ ^ ^ ^ ^ ^ ^ ^ { ^ ^ ^ ~ ^ { ^ ^ ^ ^ ^ ~ ^ ^ ^ { { ~ ~ { ~ ~ ~   ",
"  & ~ ~ ~ { ~ ~ ~ { / / ~ ^ ^ ^ ^ ^ ^ ^ ^ ^ ^ { ^ ^ ^ ~ ~ ~ ~ ~ ^ ^ ^ ^ ^ ~ { ^ ^ ^ ^ ^ ^ ^ { ~ { ^ { / { ^ ^ ^ ^ ^ ^ ^ ^ { ^ ^ ^ ( | ^ ^ ^ { ^ ^ { ^ ^ ^ ^ ^ ^ ^ ^ ^ ^ ^ ^ ^ { ^ { ^ { ^ / / / / / { / / / ^ { ^ { { ^ ^ ^ ^ ^ ~ ~ ^ ^ ^ ^ ^ ^ ^ ^ ^ ^ ^ ^ / / { { ^ ^ ^ ^ ^ ^ ^ ^ ^ ^ ^ ^ ^ [ b / / / / 0 [ 3 6 ^ { 5 ^ ^ { ^ ^ ^ ^ ^ ^ ^ ^ ^ ^ ^ ^ ^ ^ ^ ^ ^ ( 2 ^ ^ 7 / | ^ ^ / ^ ^ { { ^ ^ ^ ^ ^ ^ ^ ^ { ^ ^ { ^ { ^ ^ ^ ^ { { ^ ^ ^ ^ ^ ^ ^ { ^ ^ ^ { ^ ^ ^ ^ ^ ^ ^ { ^ ^ ^ ^ ~ ^ ~ { ~ ^ ^ ^ ^ ^ ^ ~ ~ { { ~ ~ ~ ~ ~ ~ . ",
". & ~ { ~ { ~ / { { / ] ~ ~ ^ ^ ^ ^ ^ ^ ^ ~ ~ { ^ ^ ^ ~ ^ ~ ~ ^ ^ ^ ^ ^ ^ ^ { ^ ^ ^ ^ ^ ^ { { ~ { ^ { ^ ^ { ^ ^ ^ ^ ^ ^ ^ ^ { ^ ^ / [ ^ ^ ^ { ^ { { ^ ^ ^ ^ ^ ^ ^ ^ ^ ^ ^ { ^ ^ ^ { { { ^ / / / / { { / / / ^ { ^ { { ^ ^ { ^ ^ ^ ^ ^ ^ ( ^ ^ ^ ^ ^ ^ ^ ^ ^ / / { { ^ ^ ^ ^ ^ ^ ^ ^ ^ ^ ^ ^ ^ b / | 3 / / 2 { / / / { ^ ^ 2 { ^ ^ ^ ^ ^ ^ ^ ^ 5 ^ ^ ^ ^ ^ ^ ^ ^ ^ ^ ^ ^ ^ ^ / ^ ^ ^ { ^ ^ { ^ ^ ^ { ^ ^ ^ { { { ^ { ^ ^ ^ ^ { ^ { ^ ^ ^ { ^ ^ ^ ^ { ^ ^ ^ ^ ^ ^ ^ ^ ^ ^ ^ ^ ^ ^ ^ ^ ~ ~ ~ { ~ ^ ^ ^ ~ ^ { ~ ~ ~ { ~ ~ ~ ~ ~ ~ . ",
". & ~ { ~ { ~ ~ { { ~ < ~ ~ ~ ~ ^ ^ ^ ^ ^ ~ ~ { ^ ^ ^ ^ / ^ ~ ^ ^ ~ ^ ^ ^ ^ { ^ ^ ^ ^ ^ ^ { ^ ~ { { { ^ ^ { { { ^ ^ ^ ^ ^ ^ { ^ ^ 2 ^ / 9 ^ { ^ { { ^ ^ ^ ^ ^ ^ ^ ^ ^ ^ ^ ^ ^ ^ ^ ^ { { ^ b / / [ / { ^ ^ 7 ^ { ^ { { ^ ^ { ^ ^ ^ ^ ^ ^ ^ ^ ^ ^ ^ ^ ^ ^ ^ ^ ^ / { ^ ^ ^ ^ ^ ^ ^ ^ ^ ^ { ^ ^ ^ ^ { | 7 / { / { | / / { 7 ( { ^ ^ ^ ^ ^ ^ ^ ^ ^ 3 ^ ^ ^ ^ ^ ^ ^ ^ ^ ^ ^ ^ ^ ^ ^ { { ^ { ^ { { ^ { ^ { ^ ^ ^ ^ { { ^ { ^ ^ ^ ^ { ^ ^ ^ ^ ^ { ^ ^ ^ ^ { ^ ^ ^ ^ ^ ^ ^ ^ ^ ^ ^ ^ ^ ^ ^ ^ ^ ~ { { ^ ^ ^ ~ ~ ~ { ^ ~ { ~ ~ { ~ { ~ { . ",
". & ~ { ~ { ~ ~ { { ~ ~ ~ ~ ~ ~ ^ ^ ^ ^ ~ ~ ^ { ^ ^ ^ ^ / ( 2 { ~ ~ ^ ^ ^ ^ { ^ ^ ^ ^ ^ ^ { ^ ^ ^ { ^ ^ { { { ^ ^ { ^ ^ ^ { { ^ ^ ^ ^ ^ / ^ { ^ { { ^ ^ ^ { ^ ^ ^ 5 ^ ^ ^ { ^ ^ ^ ^ { { ^ / / ^ ^ ^ { ^ ^ ^ ^ { ^ { { ^ ^ { ^ ~ ^ ^ ~ ^ ^ ^ ^ ^ ^ ^ ^ ^ ^ ^ ^ / / 7 ^ ^ ^ ^ ^ ^ ^ ^ ^ { ^ ^ ^ ^ { { ^ / { 2 { / / / { / / 3 ^ ^ ^ ^ ^ ^ 1 ^ ^ ( ^ ^ ^ ^ ^ ^ ^ ^ ^ ^ ^ ^ ^ ^ ^ { { ^ { ^ { { ^ { { { { ^ ^ ^ ^ { ^ ^ ^ ^ ^ ^ ^ ^ { ^ ^ ^ { ^ ^ { { { ^ ^ ^ ^ ^ ^ ^ ^ ^ ^ ^ { ^ ^ ^ ^ ^ ~ ~ { ^ ^ ^ ~ ~ ~ { ^ { { { ~ ~ ~ { ~ {   ",
". & ~ { ~ { ] ~ { { { ~ ~ ~ ~ ~ ~ ^ ^ ^ ~ ~ ~ ~ ^ ^ ^ 4 / 8 { { ^ ~ ~ ~ ^ ^ ~ ~ ~ ^ ^ ^ ^ { ^ ^ ^ { ^ ^ { ^ { ^ ^ { ^ ^ ^ { ^ ^ ^ ^ ^ { { ^ { { ~ { ^ ^ ^ { ^ ^ { ^ ^ ^ ^ { ^ ^ ^ ^ { ^ ^ ^ ^ ^ ^ { ^ ^ ^ ^ ( { ^ { { ^ { { ^ ^ ~ ^ ~ ^ ^ ^ ^ ^ ^ ~ ~ ^ ^ ^ ^ / { / ^ ^ ^ ( ^ ^ { ^ ^ { ^ ^ ^ ^ { { ^ 1 ^ b / / / / { / ^ ^ ^ ^ ^ ^ ^ ^ ^ ^ ^ ^ ^ { ^ ^ ^ ^ ^ ^ ^ ^ ^ ^ ^ ^ ^ ^ ^ { { ^ { { ^ { { { ^ ^ ^ ^ ^ ^ ^ { ^ ^ ^ ^ ^ ^ { ^ ^ ^ ^ ^ ^ { { { ^ ^ ^ ^ ^ ^ ^ ^ ^ ^ ^ ^ { { { ^ ~ ~ { { ^ ^ { / ~ { { ^ { { { ~ { ~ ~ ~ ~ . ",
". & ~ { ~ { < ~ { { } ~ ~ ~ ~ ~ ^ ^ ^ ^ ~ ~ ~ ^ ^ ^ ^ ^ [ / { { 1 ^ ~ ~ ~ ^ { ~ ~ ^ ^ ^ ^ ^ ^ ^ { { ^ { { ^ { ^ ^ { ^ ^ ^ ^ ^ ^ ^ ^ ^ { ^ ^ { ^ ^ { ^ { ^ { ^ ^ { 3 4 ^ ^ { ^ ^ ^ ^ { ^ ^ ^ ^ ^ ^ { { ^ ^ ^ ^ { ^ { { ^ { { ^ ^ ^ ^ ^ { ^ ^ ^ ^ ^ ~ ^ ^ ^ ^ ^ / { / / ^ ^ / 6 ^ ^ ^ ^ { ^ ^ ^ ^ ^ ^ ^ ^ ^ 2 / { / / { ^ ^ ^ ^ a / c ^ ^ ^ c ^ ^ ^ ^ ^ ^ ^ ^ ^ ^ ^ ^ ^ ^ ^ ^ ^ { ^ ^ { ^ { ^ ^ { { ^ ^ ^ ^ ^ ^ ^ ^ ^ ^ ^ ^ ^ ^ ^ { ^ ^ ^ ^ ^ ^ { { ^ ^ ^ ^ ^ ^ ^ ^ ^ { ^ ^ ^ { ^ { ~ ~ ^ { { ^ ^ ~ ~ ~ { { ^ { { { ~ { ~ ~ ~ { . ",
". & ~ { ~ { / / { { / ~ ~ / ~ ^ ^ ^ ^ ~ ~ ^ { ^ ^ ~ ^ ^ ^ / ( ^ ^ ^ ^ ~ ^ ^ { ~ ^ ^ ^ ^ ^ ^ { ^ { ^ ^ { ^ ^ ^ ^ ^ ^ ^ ^ ^ ^ ^ ^ ^ ^ ^ { ^ ^ { ^ ^ { ^ { { ^ ^ ^ { ( ^ ^ { { { ^ ^ ^ { ^ ^ ^ ^ ^ ^ { { ^ ^ ^ ^ { ^ { { { { { ^ ~ ^ ^ ^ ^ ^ ^ ^ ^ ^ ^ ^ ^ ^ ^ ^ ^ { / / ^ ^ / / / | 2 ^ ^ ^ ^ ^ ^ { ^ { ^ ^ ^ / / / / { 4 2 7 ^ ^ ^ { ^ { 0 / ^ ^ ^ ^ ^ ^ ^ ^ { ^ ^ ^ ^ ^ ^ ^ ^ { ^ ^ { ^ ^ ^ ^ ^ { ^ ^ ^ ^ ^ { ^ ^ ^ ^ ^ ^ { ^ ^ { ^ ^ ^ ^ ^ ^ ^ ^ ^ ^ ^ ^ ^ ^ ^ ^ ^ { ^ ^ { { ~ { ~ ~ ^ ^ ^ ^ ^ ^ ~ ~ { { ~ { { { ~ { ~ { ~ { . ",
". & ~ { ~ { / / { { ~ ~ ~ ~ 1 ^ ^ ~ ^ ^ ^ ^ { ^ ^ ^ ^ ^ ^ : { ^ ^ ^ ^ ^ ^ ^ { ^ ^ ^ ^ ^ ^ ^ ^ ^ { ^ ^ { ^ ^ ^ { ^ ^ ^ ^ ^ ~ ~ ~ ^ ^ ^ ^ 8 / { ^ ^ { ^ { { ^ ^ { ^ ^ ^ ^ { ^ ^ ^ { ^ { ^ ^ ^ ^ ^ ^ { { ^ ^ ^ ^ { ^ { { { { { ~ ^ ~ ^ ^ ^ ^ ^ ^ ^ ^ ^ ^ ^ ^ ^ ^ ^ { ^ | | ^ ^ [ / 3 / ^ { ^ ^ ^ ^ { ^ { ^ { ^ ^ ^ ^ ^ a 8 ^ ^ ^ 5 / ^ ^ { a / ^ ^ ^ ^ ^ ^ ^ ^ { { ^ ^ { ^ ^ ^ ^ { ^ ^ { ^ ^ ^ ^ { { ^ ^ ^ ^ ^ { ^ ^ ^ ^ ^ ^ { ^ ^ ^ ^ ^ ^ ^ ^ ^ ^ { ^ ^ ^ ^ ^ ^ ^ ^ ^ { ^ ^ { { { ~ ^ ~ ~ { ~ ~ ~ ~ ~ ^ ~ { ~ ~ ~ { ~ { ~ ~ ~ ~   ",
". & ~ { ~ { ~ ] ~ ~ ~ ~ ~ ~ ^ ^ ^ ~ ~ ~ ~ ^ { ^ ^ ~ ^ ^ ^ ~ { ^ ^ ^ ^ ^ ^ ^ { ^ ^ ^ ^ ^ ^ ^ { ^ { ^ ^ { ^ ^ ^ { ^ ^ ^ ^ ^ ^ { ^ ^ ^ ^ { 5 / { { ^ { { ^ { ^ ^ { { ^ ^ ^ { ^ ^ ^ { ^ ^ { ^ ^ ^ ^ ^ { { ^ ^ ^ ^ { ^ { ^ ^ { ^ ^ ^ ^ ^ ^ ^ ^ ^ ^ ~ ^ ^ ^ ^ ^ ^ ^ ^ ^ 8 [ / ~ ^ ^ ^ ^ / / { ^ ^ ^ ^ { ^ { ^ { ^ ^ ^ ~ ~ { ^ ^ ^ ^ / / ^ ^ { ^ | ~ ^ ^ ^ ^ ^ ^ ^ ^ { ^ ^ { ^ ^ ^ ^ ^ ^ ^ ^ ^ { { ^ { { ^ ^ ^ ^ ^ ^ ^ { { ^ ^ ^ { ^ { ^ ^ ^ ^ ^ ^ { { { ^ ^ ^ ^ ^ ^ ^ ^ ^ ^ ^ ~ ^ { { ~ ^ ^ ~ ~ ~ ~ ~ ~ ~ ^ ~ { ~ { ~ { ~ { ~ ~ ~ ~   ",
". & ~ { ~ { ~ / { ~ ~ ~ ~ ~ ~ ~ ~ ~ ~ ~ ~ ~ { ^ ^ ~ ~ ~ ~ ~ { ~ ^ ^ ^ ^ ^ ^ { ^ ^ ^ ^ ^ ~ { ^ ^ { ^ ^ ^ ^ ^ { ^ { ^ ^ ^ ^ ^ ^ ^ ^ ^ ^ ^ ^ ^ { { ^ { { ^ { ^ ^ { ^ ^ ^ ^ { ^ ^ ^ { ^ ^ ^ ^ ^ ^ ^ ^ { ^ ^ ^ ^ ^ { ^ { ^ ^ { ^ ^ ^ ^ ^ ^ ^ ^ ^ ^ ^ ~ ^ ^ ^ ^ ^ ^ ~ ^ ^ ^ } ~ ^ ^ ^ ~ ~ / { / ^ ^ ^ { ^ ^ ^ { ^ ^ ^ ^ ~ { ^ ^ ^ ^ ] / 2 { { / ^ ^ ^ ^ ~ ^ ^ ^ ^ ^ { ^ ^ { { ~ ^ ^ ^ ^ ^ { ^ { { ^ { { ^ ^ ^ ^ { ^ ^ { { ^ ^ ^ { ^ { ^ ^ ^ ^ ^ ^ { { { ^ ^ ^ ^ ^ ^ ^ ^ ^ ^ ^ ^ { { { ~ ^ ^ ~ { ~ ~ ~ ^ ^ { ^ { ~ { ~ ~ ~ ~ { ~ ~ ~   ",
"  & ~ { ~ { ~ ~ { ~ ~ ~ ~ ~ ~ ~ ~ ~ ~ ~ ~ ~ ~ ~ ~ ~ ^ ^ ~ ~ ~ ~ ^ ^ ~ ~ ^ ~ ~ ~ ^ ^ ^ ^ ^ { ~ ^ { ^ ^ ^ ^ ^ { ^ ^ ^ ^ ^ ^ ~ ^ ~ ^ ^ ^ ^ ^ ^ ^ { ~ { ^ ^ { ^ ^ ^ ^ ^ ^ { { { ^ ^ { ^ ^ { ^ ^ ^ ^ ^ { ^ ^ ^ ^ { { { { ~ ^ { ^ ^ ^ ~ ~ ~ ^ ^ ^ ^ ^ ^ ^ ^ ^ ^ ^ ^ ~ ~ ^ { ~ ~ ^ ^ ^ ~ ^ 7 { / ^ ^ ^ ^ ^ { ^ { ^ ^ ^ ^ ^ ^ ^ ^ ^ 8 ~ { / 2 { b ^ ^ ^ ~ ~ ^ ~ ^ ^ ^ ^ ^ ^ ~ { ^ ^ ^ ^ ^ ^ { ^ ^ { ^ ^ { ^ { ^ ^ { ^ ^ ^ { ^ ^ ^ ^ ^ { ^ ^ ^ ^ ^ ^ { { { ^ ^ ^ ^ ^ ^ ^ ^ ^ ^ ^ ^ { { { ~ { ~ ~ ] { ~ ~ { ^ { ~ { ~ { ~ { ~ { { ~ ~ { . ",
"  & ~ { ~ { ~ ~ { ~ ~ ~ ~ ~ ~ ~ ~ ~ ~ ~ ~ ~ ~ ~ ~ ^ ^ ~ ~ ~ ~ ~ ^ ~ ~ ~ ~ ~ ~ ~ ^ ^ ^ ^ ^ { ^ ^ { ~ ^ ^ ^ ^ ^ { ^ ^ ^ ^ ^ { ~ ^ ~ ^ ^ ^ ^ ^ ^ ^ ^ { ^ ^ ^ ^ ^ { ~ ^ ^ { { { ^ ^ { ^ ^ { ^ ^ ^ ^ { { ^ ^ ^ ^ { { ^ ^ ~ ^ { ^ ^ ~ ~ ~ ~ { ^ ^ ~ ^ ^ ^ ^ ^ ^ ^ ~ ~ ~ ^ ^ ^ ^ ^ ^ ^ ^ ^ ^ { / ~ ^ ^ ^ ^ ^ ^ { ^ ^ ^ ^ 5 ^ ^ ^ ^ ^ ~ ~ ~ : { / < ~ ~ ~ ~ ~ ~ ^ ^ ^ ^ ^ ~ { { ^ ^ ^ ^ ^ ^ ^ ^ { ^ ^ ^ ^ ^ { ^ ^ { { ^ { { ^ ^ ^ { ^ ~ { ^ ^ ^ ^ ^ { ^ { ^ ^ ^ ^ ^ ^ ^ ^ ^ ~ ^ ^ { ~ { ~ ^ ~ { ~ ~ ~ ~ ~ ^ { ~ { ~ { ~ { ~ ~ { { { { . ",
"  & ~ { ~ { ~ { { ~ ~ ~ ~ ~ ~ ~ ~ ~ ~ ~ ~ ~ { ~ ~ ^ ^ ^ ~ ~ ~ ^ ^ ^ ^ ^ ~ ^ ~ ^ ^ ^ ^ ^ ^ { ^ ^ { ^ ^ ^ ^ ^ ^ { ^ ^ ^ ^ ^ ^ ~ ~ ~ ^ ^ ^ ^ ^ ^ ^ ^ { ^ ^ ^ ^ ^ ^ ^ ^ ^ ^ ^ { 8 ^ { ^ ^ { ^ ^ ^ ^ { 6 ^ 1 / ^ { { ^ ^ { ^ { ^ ^ ^ ^ ~ ~ { ^ ~ ~ ~ ^ ^ ~ ^ ^ ^ ~ ~ { ~ ~ ^ ^ ^ ^ ^ ~ ~ ~ ~ ] ~ ^ ^ ^ ^ ^ { { ^ ^ ^ ^ ^ { ^ ^ ^ ^ ~ ~ } / / ] { ^ ^ ~ ~ ~ ~ ~ ^ ^ { ^ ~ ~ { { ^ ^ { ^ ^ ^ ^ { ^ { ^ { ^ ^ ^ ^ { { ^ ^ ^ ^ ^ ^ { ^ ^ { ^ ^ ^ ^ ^ { ^ { ^ ^ ^ ^ ^ ^ ^ ^ ^ ~ ^ ^ { ~ { ~ ^ ~ { ~ ~ ~ ~ ^ ^ { ~ { ~ ~ ~ ~ ~ ~ ~ { { { . ",
". & ~ ~ ~ { ~ { { ~ ~ ~ ~ ~ ~ ~ ~ ~ ~ ~ ~ ~ { ~ ~ ^ ^ ^ ^ ^ ~ ^ ^ ^ ^ ^ ^ ^ ^ ^ ^ ^ ^ ^ ^ ^ ^ ^ { ^ ^ ^ ^ ^ { { ^ ^ ^ ^ ^ ^ ^ ^ ^ ^ ^ ^ ^ ^ ^ ^ ~ { ^ { ^ ^ ^ { ^ ^ { { 8 a ( ^ ^ ^ ^ ^ ^ ^ ^ ^ { ^ ^ ^ ^ ^ { { ^ ^ { ^ { ^ ^ ^ ^ ^ ~ { ^ ^ ~ ~ ~ ~ ~ ^ ^ ~ ~ ~ { ~ ~ ^ ^ ^ ^ ^ ~ ~ ~ ~ ~ ~ ^ ^ ^ ^ { { { ^ ^ ^ ^ ^ { ^ ^ ^ ^ 5 / / : ~ ~ { ^ ^ ~ ~ ~ ~ ~ { ~ ~ ~ ~ ^ { { ^ ^ { ^ ^ ^ ^ { ^ { ^ { ^ { ^ ^ { { ^ ^ ^ ^ ~ ~ { ^ ^ { ~ ^ ^ ^ ^ { ^ { ^ ^ ^ ^ ^ ^ ^ ^ ^ ^ ^ ^ ~ ~ ~ ^ ^ ~ { ~ ~ ~ ~ ^ ^ ~ ~ { ~ ~ ~ ~ ~ { ~ { { { . ",
"  & ~ { ~ { ~ { ~ ~ ~ ~ ~ ~ ~ ~ ~ ~ 2 ~ ~ ~ { ~ ~ ^ ^ ^ ^ ^ ^ ^ ^ ^ ^ ^ ^ ~ { ^ ^ ^ ^ ^ { ^ ^ ^ { ^ ^ ^ ^ ^ ^ ^ ^ ^ ^ ^ ^ ^ ^ ^ ^ ^ ~ ~ ~ ^ { ^ ~ { ~ { ^ { ^ { ^ ^ { { [ { ^ { ^ ^ ^ { ^ ^ ^ { { ^ ^ ^ ^ ^ ^ ^ ^ { ^ ^ ^ ^ ^ ^ ^ ^ ^ { ^ ^ ^ ~ ~ ~ ~ ^ ^ ~ ~ ~ { ^ ^ ^ ^ ^ ^ ^ ^ ~ { ~ ~ ~ ^ ^ { ^ { { { ^ ^ ^ ^ ^ { ^ ^ ^ / / < / 3 ^ ~ ~ ~ ^ ~ ~ ~ ~ ~ { ~ ~ ~ ^ ^ { { ^ ^ { ~ ~ ^ ^ { ^ ^ ^ ^ ^ { ^ ^ { { ^ { ^ ^ ~ ~ { ^ { { ^ ^ ^ ^ ^ { ^ { ^ ^ ^ ^ ^ b ^ ^ ^ ^ ^ ^ ~ ~ ~ ^ ~ ~ ~ ~ ~ ~ ~ ~ ~ { { { ~ ~ ~ ~ ~ { ~ { { ~   ",
"  * ~ { ~ { ~ ~ ~ ~ ~ ~ ~ ~ ~ ~ ~ ~ 1 ^ ~ ~ ~ ~ ~ ~ ~ ~ ~ ^ ^ ^ ^ ^ ^ ^ ^ ^ ^ ^ ^ ~ ^ ^ { ^ ^ ^ { ^ ^ ^ ^ ^ ^ ^ ^ { ^ ^ ^ ^ ^ ^ ^ ~ { ~ ~ ^ { ^ ~ { ~ ^ ^ { ^ { { ^ ^ { / { ^ ^ ^ ^ ^ { ^ ^ ^ ^ { ^ ^ ^ ^ ^ { ^ ^ ^ ^ ^ ^ ~ ~ ^ ~ ^ ^ ^ ~ ^ ^ ~ ~ ~ ~ ^ ^ ~ ~ { { ^ ^ ^ { ^ ^ ^ ~ ~ { ~ ~ ~ ^ ^ { ^ { { { ^ ^ ^ ^ ^ { ^ ^ ^ / / / / / 7 ~ ~ ~ ~ ~ ~ ~ ~ ~ { ~ ~ ~ ^ ^ ^ ^ ^ ^ { ~ ~ ~ ^ ^ ^ ^ ^ ^ ^ ^ ^ ^ { ^ ~ ^ ^ ^ ^ ^ { ^ { { ^ ^ ^ ^ ^ { ^ ^ ^ ^ ^ 2 c ^ { ^ ^ ^ ^ ^ ^ ~ ~ ~ ~ ~ ~ { ~ ~ ~ ~ ~ { { { ~ ~ ~ ~ ~ ~ { { { {   ",
"  * ~ { ~ { ~ { ~ ~ ~ ~ ~ ~ ~ ~ ~ ~ ^ ^ ^ ^ ^ ^ ~ ~ ~ ~ ~ ~ { ^ ^ ^ ~ ^ ^ ^ { ^ ^ ~ ~ ~ { ^ ~ ^ { ^ ^ ^ ^ ^ ^ ~ ^ ^ ^ ^ ^ ~ ~ ~ ^ ^ ^ ^ ~ ~ { ^ ~ { ~ ^ ^ { ^ { ^ ^ { { / ( ^ ^ ^ ^ ^ { ^ ^ ^ ^ { 3 ^ ^ ^ ^ { ^ { { ^ ^ ^ ~ ~ ~ ~ ^ ^ ^ ~ ~ ~ ^ ^ ^ ~ ^ { ^ ^ { { ^ ^ ^ ^ ^ ^ ^ ~ ~ { ~ { ~ ^ ^ { ^ { ^ ^ ^ ^ ^ ^ ^ { ^ ^ ^ 1 b 7 ] ^ ^ ^ ~ ^ ~ ~ ~ ~ ~ ~ ~ ~ ^ ~ ~ ~ ^ ^ ^ { { ~ ^ ~ { { ^ ^ ^ ~ ^ { ^ ^ ^ ^ ^ ^ ^ ^ ^ ^ { ^ { ^ ^ ^ ^ ^ ^ { ^ { ~ ^ ^ ^ ^ ^ { ^ ^ { ~ ^ ~ ~ ~ ~ ~ ~ { { ~ ~ ~ ~ ~ { { { ~ { ~ ~ ~ ~ { { { {   ",
"  * ~ ~ ~ ~ ~ { { ~ ~ ~ ~ ~ ~ ~ ~ ~ ~ ~ { ~ ~ { ~ ~ ~ ~ ~ ~ { ~ ~ ~ ~ ~ ~ ~ { ~ ~ { ~ ~ { ~ ~ ^ { ~ ~ ~ ~ ~ ~ { ^ ^ ~ ~ ^ ~ ~ ~ ~ ^ ^ ^ ^ ~ ~ { ^ ^ ^ { ^ ^ ^ ^ ^ ^ { { ^ ^ ^ ^ ^ ^ ^ { ^ ^ ^ ^ { | ^ ^ ^ ^ { ^ { { ^ ^ { ~ ~ ~ ~ ~ ^ ~ ~ ~ ~ ^ ^ ^ ~ ~ ^ ^ ^ { ^ ^ ~ ~ ^ { ~ ~ { ~ { ~ { ~ ^ { { ^ { { ^ ^ ^ ^ ^ ^ ^ ^ ~ ~ ~ ~ ~ / ^ ^ ^ ~ ~ ~ ~ { / / ~ ~ ^ ^ ^ ~ ~ ^ ^ ^ { ^ ^ ^ ^ { { ^ ^ ^ ^ ^ { ^ ^ ^ ^ ^ ^ ^ ^ ^ ^ { ^ { ^ ^ ^ ^ ^ ^ { ^ ^ ^ ^ ^ ^ ^ ^ { ~ ~ ~ ~ ~ ~ ~ { ~ ~ / / { ~ ~ ~ ~ ~ { { { ~ ~ ~ ~ ~ ~ { { { { . ",
". * ~ ~ ~ ~ ~ { { ~ ~ ~ ~ ~ ~ ~ ~ ~ ~ : / / { ~ ~ ~ ~ ~ ~ { { ~ ~ ~ ~ ~ ~ ~ { ~ ~ ~ ~ ~ ~ ~ ~ ~ { ~ ~ ~ ^ ^ ^ { ^ ^ ~ ~ ~ ~ ~ ~ ~ ~ ~ ~ ^ ^ ^ ^ { ^ ^ { ^ ^ ^ ^ ^ ^ { { ^ ^ ^ { ^ b ~ ^ ^ ^ ^ ^ { ~ ~ ^ { ^ { ^ { { ~ ^ { ^ ^ ~ ~ ~ ~ ~ ^ ^ ^ ~ ~ ~ ~ ~ ~ ~ ~ { ^ ^ ~ ^ ^ { ~ ~ { ~ { ~ { ~ ^ { { ^ { { ^ ^ ~ ~ ^ ^ { ^ ^ ^ ~ ~ ~ ~ ~ ~ 2 ~ ~ ~ { ~ / / / ~ ^ ^ ^ ~ ~ ~ ~ ^ ^ ~ ^ { ~ { { ^ ^ ^ ^ ~ { ~ ~ ^ ^ ^ ^ ^ ^ ^ ^ { ^ { ^ ^ ^ ~ ^ ^ { ^ { ^ ^ ^ ^ ^ ^ ^ ~ ~ ~ ~ ~ ~ ~ { ~ ~ / / { { ~ ~ ~ ~ { ~ ~ ~ { ~ { ~ ~ { { { { . ",
". * { ~ ~ { ~ { ~ ~ ~ ~ ~ ~ ~ ~ ~ ~ ~ < / / { { ~ ~ ~ ~ ~ { { ~ ~ ~ ~ ~ ~ ~ { ~ { ~ ~ ~ { ~ ~ ~ { ~ ^ { ^ ^ ^ { ^ ~ ~ ~ ~ ~ ~ ~ ~ ~ [ ( ^ ~ { ~ { ~ ~ { ~ ~ ~ ~ ^ ^ ^ { ^ { ^ ^ ^ { ^ ^ ^ 5 ^ ^ { ~ ~ ~ { ^ ^ 3 { { ~ { { ~ ^ ~ ~ ~ ~ ~ ^ ^ ^ ^ ~ ~ ~ ~ ~ ~ ~ : ^ ^ ^ ^ ~ ~ ~ ~ { ~ { ~ ~ ~ ^ { ^ ^ ^ { ^ ~ ~ ~ ~ ~ [ ^ ~ ~ ^ ~ ~ ~ ~ ~ ] ~ ~ ^ ~ ^ ^ / / ~ ~ ^ ^ ^ ~ ~ { ~ ^ ^ ^ ~ { { ^ { ~ ^ { ~ { ~ ^ ^ ^ { ^ ^ ^ ^ { { ^ { ^ ~ ~ ~ ~ ^ { ^ { ^ ^ ^ ^ ~ ~ ~ ~ ~ ~ ~ ~ ~ ~ { ~ ~ : { { / { ~ ~ ~ { { ~ { { ~ { ~ ~ ~ { ~ { . ",
". * { ~ ~ { ~ : ~ ~ ~ ~ ~ ~ ~ ~ ~ } ~ ~ / < ~ ~ ~ ~ ~ ~ ~ { ~ ~ ~ ~ ~ ~ ^ ~ { ~ { ~ ~ ~ { ~ ~ ~ { ~ ~ { ~ ~ ^ { ~ ~ ~ ^ 3 ~ ~ ~ ~ ~ 2 2 ~ ~ ^ { ~ ~ ~ { ~ ~ ~ { ~ ~ ~ ~ ~ { ~ ~ ~ { ~ ~ ~ 7 ~ ~ { ~ ~ ~ { ~ { < / / ^ { { ~ ~ / ~ ~ ~ ^ ^ ^ ^ ^ ^ ~ { ~ ~ ~ ~ ~ ~ ^ ^ ^ ~ ~ ~ { ~ ~ { ~ ~ ~ ^ { ^ ^ ^ ~ ~ ~ ~ ^ ~ < 5 ^ ~ ~ } ~ ~ ~ < / / / / ~ ~ ~ ^ ^ ^ ~ ~ ^ ^ ~ ~ ~ { ~ ^ ~ ~ ~ { { ~ { { ~ ~ ^ ~ ~ ^ ^ ^ { ~ ^ ^ ~ ~ { ^ { ~ ~ ~ ~ ^ ^ { ^ ~ ~ ~ ^ ~ ~ ~ ~ ~ ~ ~ ~ ~ ~ ~ { ~ ~ ~ { { : ~ ~ ~ ~ { { ~ { { ~ ~ ~ ~ { { { ~ . ",
". * { ~ { { ~ { { ~ ~ / ~ ~ { ~ ~ ~ ~ ~ ~ _ ~ ~ ~ ~ ~ ~ ~ { ~ ~ ~ ~ ~ ~ ~ ~ ~ ~ ~ ~ ~ ~ { ~ ~ ~ { ~ { { ~ ^ ~ { ~ ~ ^ ^ ^ ~ ~ ~ ~ ~ { ~ ~ { ^ { ~ ~ ~ ~ ~ ~ ~ { ~ ~ ~ { ~ ~ ~ ~ ~ { ~ ~ ~ ^ ~ { { ~ ~ ~ { ~ { ~ { < / { { ~ ~ ~ ~ ~ ^ ^ ^ ^ ^ ^ ^ ~ { ~ ~ ~ ~ ~ ~ ~ ^ ~ ~ ~ ~ { ~ ~ { ^ ~ ~ ^ { ^ ~ ~ ~ ~ ~ ~ ~ < / } ^ ~ < / / < ~ / / / / / ~ ~ ~ / / ^ ^ ~ ~ ^ ^ ~ ~ ~ { ~ ~ ~ ~ { { ~ ~ ~ ~ ~ ^ ^ ^ ~ ^ ^ { ~ ~ ~ ~ ~ { ^ { ~ ~ ^ ^ ^ ^ { ^ ~ ~ ~ { ~ ~ { ~ ~ ~ ~ ~ ~ ~ ~ { { ~ { { < { ~ ~ ~ ~ { { ~ { ~ ~ { ~ { { { { { . ",
". * { ~ { { / { ~ ~ ~ ~ ~ ~ / ~ ~ ~ ~ ~ < < { ~ ~ ~ ~ ~ ~ { ~ ~ ~ ~ ~ ~ ~ ~ ~ < ~ ~ ~ ~ { ~ ~ ~ { ~ { { ~ ~ ~ ~ ~ ~ ~ ~ ~ ~ ~ ~ ~ ~ { ~ ~ ~ { { { ~ ~ { ~ ~ ~ { ~ ~ ~ { ~ ~ ^ ^ ~ ~ { ~ { ~ ~ { { { ~ ~ ~ ~ ~ ~ { / / ] ~ ~ ~ ~ ~ ~ ~ ^ ^ ^ ^ ^ ~ ~ { { / / ~ { ^ ~ ^ ~ ~ ~ ~ { ~ ~ { ~ ~ ~ ^ { ~ ~ ^ ~ ~ ~ ~ ~ _ < ~ ~ ~ ~ / / : ~ _ / / / / ^ ^ [ b 2 ^ ~ ~ ~ ^ ~ ~ ~ ~ ~ ~ ~ ~ ~ ^ { ~ ~ ~ ~ ~ ~ ^ ^ ~ ~ ~ ~ ~ ~ ~ ~ { { ~ { ~ ~ ~ ~ ~ { { ~ { ~ ~ ~ ~ ~ ~ ~ ~ ~ { ~ ~ ~ ~ { { ~ ~ { ^ { ~ ~ ~ { { { ~ { ~ ~ ~ ~ ~ { { { { . ",
". * { ~ { { ] { / ~ ~ ~ ~ ~ / < ~ ~ ~ ~ / / : ~ ~ ~ ~ ~ ~ { ~ ~ ~ ~ ~ ~ ~ ~ ~ ~ ~ ~ ~ ~ { ~ ~ ~ { ~ { ~ ~ ~ ~ ~ ~ ~ ~ ~ ~ { ~ ~ ~ ~ { { ~ ~ ~ ~ ~ ~ ~ ~ ~ ~ ~ { ~ ~ ~ { ~ ^ ^ ^ ~ ~ { ~ ~ ~ ~ ~ ~ { ~ ~ ~ ~ { ~ { / ~ { ~ ~ ~ { ~ ~ ~ ~ ^ ^ ^ ~ ~ ~ ~ < / / ~ { ^ ^ ^ ~ ~ ~ ~ ~ ~ ~ { ~ ~ ^ ^ { ~ ^ ^ ^ ~ / / ^ ~ ~ ~ ~ ~ ~ ~ < : ~ ^ / / { ~ ~ ~ ^ ~ ~ : : ~ { ~ ^ ~ ~ ~ { ~ ~ ~ { ^ ^ ~ ~ { ~ ~ ~ ~ ~ ~ ~ ~ ~ ~ ^ ~ ~ ~ / / { ~ ~ ~ ~ ~ ~ { ~ ~ ~ ~ ~ ~ ~ ~ ~ ~ ~ { ~ ~ ~ ~ { { ~ ~ { ~ ^ ~ ~ ~ { { ~ ~ { ~ ~ ~ ~ ~ { { { { . ",
"  * { ~ ~ { ~ { : < } ~ ~ { / } ] ~ ~ ~ ~ : / ~ ~ ~ { ~ ~ { ~ ~ ~ ~ ~ ~ ~ ~ ~ ~ ~ ~ ~ ~ { ~ ~ ~ { ~ { ~ ~ { ~ ~ ~ ~ ~ ~ ~ { ~ ~ ~ ~ { { ~ ~ ~ ~ ~ ~ ~ ~ ~ { ~ { ~ ~ ~ { ~ ^ ^ { ~ : { ~ ~ ~ ~ ~ ~ ~ ~ ~ ~ ~ { / { { ~ { ~ ~ ~ ~ ~ ~ ~ ~ ~ ^ ~ ~ ~ ~ { ~ 4 / ~ ~ ^ 7 8 ~ ~ ~ ~ ~ ^ { { { ~ ^ ~ { ~ ^ ~ ~ ~ ~ ] ~ ~ ~ ~ ^ ~ ~ ~ ~ ~ ~ { { / ^ ~ ~ 6 ^ ~ ~ { { ~ { ~ { ~ ~ ~ ~ ~ ~ ~ { ^ ~ ~ ~ { ~ ~ ~ ~ ~ ~ ~ ~ ~ ~ ~ ~ ~ { / / { ~ ~ ~ ~ ~ ~ { ~ ^ ^ ~ ~ ~ ~ ~ ~ ~ ~ { ~ ~ ~ ~ ~ ~ ~ { { ~ ~ ~ ~ ~ { { ~ ~ { ~ ~ ~ ~ ~ ~ { { { . ",
"  * { : / { / { { ~ : < ~ / ~ ~ ~ ~ ~ ~ ~ : ~ ~ ~ ~ { ~ ~ { ~ ~ ~ ~ ~ ~ ~ ~ ~ ~ ~ ~ ~ { { ~ ~ ^ ~ ~ { ~ ~ { { ~ ~ ~ ~ ~ ~ { ~ ~ ~ ~ { ~ ~ ~ ~ ~ { ~ { { ~ { ~ { ~ ~ { ~ { ~ ~ { { ] { ~ ~ ~ ~ ~ { { ~ ~ ~ ~ { / { { ~ { ~ ] < ~ ~ ~ ~ ~ ~ ~ ~ ~ ~ ~ ^ ^ ^ / ~ { 2 ^ ~ : { ~ ^ 8 / / { { ~ ^ ~ { ~ ~ ~ { ~ ~ ~ ~ ~ ~ ~ ^ ^ ~ ~ ~ ~ ~ ~ ~ ~ ^ ^ { < ^ ^ / ~ { ^ ^ ~ { ~ / ~ ~ ~ ~ ~ { ^ ^ ~ ~ ~ ~ ~ ~ ~ ~ ~ { { ~ ~ ~ ~ { { ~ _ { ~ ~ ~ ~ ~ ~ { ~ { ~ ~ ~ ~ ~ ~ ~ ~ ~ ~ ~ ~ ~ ^ ~ ~ ~ ~ { < ~ ~ ~ ~ { { ~ ~ { ~ ~ ~ ~ ~ ~ { { { . ",
". & ~ ~ / / / { ] ~ ~ ~ ~ / { ~ ~ ~ ~ ~ ~ { ~ ~ ~ ~ { ~ ~ { ~ ~ ~ ~ ~ ~ ~ ~ ~ ~ ~ ~ ~ { ] / < ~ ~ ~ { ~ ~ ~ ~ ~ ~ ~ ~ ~ ~ ~ < ~ ~ ~ { ~ ~ ~ ~ ~ { ~ { ~ ~ { / { ~ { { { { ~ ~ { { ~ ] ~ ~ ~ ~ { ] ~ ~ ~ ~ ^ { / { { ~ { ~ ~ ~ ~ { ~ ~ ~ ~ ~ ~ ~ ~ ~ ~ ~ ^ ^ ~ { ~ ^ 7 ~ { ] { ^ ^ / { { ~ ~ ~ { ~ ~ ~ { / / / < ~ ~ ~ ^ ^ ~ ^ ^ ~ ^ ^ ~ ~ ~ ~ ^ ~ ~ ^ ^ { ^ ^ ^ ~ { / / ^ ^ ^ ~ ~ { ^ ~ ~ { { ~ ~ ~ ~ ~ ~ ~ { { { / / / { ~ ~ ~ / / ~ ~ ~ ~ { ~ { ~ ~ { / ~ ~ ~ ~ ~ ~ ~ ~ ~ ~ ^ ^ ^ 0 { / / ~ ~ ~ ~ ~ ~ ~ ~ ~ ~ ~ ~ ~ ~ { { {   ",
"  * ~ ~ / / / / { ~ ~ ~ ~ ~ ~ ~ ~ ~ ~ ~ ~ { ~ ~ ~ ~ ~ ~ ~ { ~ ~ ~ ~ ~ ~ ~ ~ ~ ~ ~ ~ ~ { / / / { { / ~ ~ ~ ~ ~ ~ ~ ~ ~ ~ ~ ~ ~ ~ ~ ~ ~ ~ ~ ~ { ~ { ~ ~ ~ ~ / { ~ ~ { { { { ~ { { { ~ { ~ ~ ~ ~ { / { ~ ~ ~ ~ { / { { ~ ~ ~ ~ ~ ~ { ~ ~ ~ ~ ~ ~ ~ ~ ~ ~ { ^ ~ ~ { ~ ^ ^ ~ < / { ^ { { { ~ ~ ~ ~ { ~ ^ ~ { / / / ~ ~ ~ ~ ~ ^ ~ ~ ^ ~ ~ ^ ^ ~ ~ ^ ^ ~ ~ ^ ^ { ^ ^ ^ ~ { { { ^ ^ { ~ ~ { ^ { ~ { { ~ ~ ~ ~ ~ ~ ~ { { { ~ / / { ~ ~ { / ~ ~ ~ ~ { { ~ ~ ~ ~ ~ ~ } ~ ~ ~ ~ ~ ~ ~ ~ / ~ ^ / { { < / ~ ~ ~ ~ ~ { ~ { ~ ~ ~ ~ ~ { { { {   ",
". * { ~ ~ / / { < ~ ~ ~ ~ ~ ~ ~ ~ ~ ~ ~ ~ ~ ~ ~ ~ ~ ~ ~ ~ { ~ ~ ~ ~ ~ ~ ~ ~ ~ ~ ~ ~ ~ / / / / : { { { ~ ~ ~ ~ ~ ~ ~ ~ ~ ~ ~ ~ ~ ~ ~ ~ ~ ~ ~ { ~ ~ ~ ~ ~ { ~ { ~ ~ ~ ~ { { ~ ~ { { ~ { ~ ~ ^ ~ ~ ~ < ~ ~ ~ { / : { { { ~ ~ ~ / ~ ~ ~ ~ ~ ~ ~ ~ ~ ~ ~ { { ~ ~ { { ~ ^ / / { / ^ ^ { { { ~ ~ ~ ~ { ~ ~ { { / / / ~ ~ ~ ~ ~ ^ ~ ~ ~ ~ ~ ^ ^ ~ ^ ^ ^ ^ ~ ^ ^ { ~ { ^ ^ { / { ^ { ~ ~ ~ { ~ { ~ { { ~ { ~ ~ ~ ~ ~ { { { ~ ~ : / ~ ~ ~ ~ ~ ~ ~ ~ ~ ~ ~ ~ ~ ~ ~ ~ ~ / ~ ~ ~ ~ ~ ~ ~ ] ~ ^ < { { { ~ ~ ~ < ] ~ { ~ { ~ ~ ~ ~ ~ { { { {   ",
"  * ~ { < / / { < ~ ~ ~ ~ ~ { / ~ ~ ~ ~ < ~ ~ ~ ~ { ~ ~ ~ { ~ ~ ~ ~ ~ ~ ~ ~ ~ ~ ~ ~ ~ ] { / / ~ { ~ { ~ ~ ~ ~ ~ ~ ~ ~ ~ ~ ~ ~ ~ ~ ~ { ~ ~ ~ { ~ ~ ~ ~ ~ { { { ~ { ~ ~ ~ { ~ { ~ ~ ~ { ~ { ~ ~ ~ { ~ < { / { / / { { ~ ~ ~ ~ / ~ ~ ~ ~ ~ ~ ~ ~ ~ ~ ~ { ~ ~ ~ { { ~ ~ / / { 4 / ~ { { { ~ ~ ~ ~ { ~ ~ ~ ~ ~ } / ~ ~ ~ ~ ~ ^ ~ ~ ~ ~ ~ ~ ~ ~ ~ ~ ^ ^ ^ ^ ^ { ~ { ~ { { ^ { ~ ^ ^ ~ ~ { { { ^ ~ ~ ~ { ~ ~ ~ ~ ~ { ~ ~ ~ ~ ~ ~ ~ ~ { ~ ~ ~ ~ ~ ~ ~ ~ { ~ ~ ~ ~ ~ ~ / ~ ~ ~ { ~ ~ ~ ~ ~ { { { ~ ~ ~ ~ ~ ~ ~ { ~ { ~ ~ ~ ~ ~ ~ { { { . ",
". > ~ ~ ~ ~ ~ { ~ ~ ~ ~ ~ ~ ~ ~ ~ ~ ~ ^ ~ ~ ~ ~ ~ { ~ ~ ~ { ~ ~ ~ ~ ~ ~ ~ ~ ~ ~ < ~ { / { ~ ~ ~ { ^ ~ ~ ~ ~ ~ ~ ~ ~ ~ ~ ~ ~ ~ ~ ~ ~ { ~ ~ ~ { ~ ~ ~ ~ ~ { { ~ ~ ~ ~ ^ ~ { ~ { ~ ~ ~ { ~ ~ ~ ~ ~ { ~ : ] / { / _ { { ~ ~ ^ ~ / ~ ~ ~ ~ ~ ~ ~ ~ ~ ~ ~ { ~ ~ ~ { { { ~ < 9 { / / { { { { ~ ~ ~ ~ { ~ ~ { ~ ~ ~ / ~ ~ ~ ~ ~ ~ ~ ~ ~ ~ ~ ~ ~ ~ ~ ~ ~ { ^ ^ ^ { ~ { ~ { { { ^ ~ { ^ ~ ~ { { { ^ { ~ ~ { ~ ~ ~ ~ ~ { ~ ~ ~ ~ ~ ~ ~ ~ { ~ ~ ~ ~ ~ ~ ~ { { ~ ~ ~ ~ ~ ~ ~ ~ ~ ~ { ~ ~ ^ ~ ~ { { { ~ ~ ~ ~ ~ { { { / { _ ~ ~ ~ ~ { { { { . ",
". * ~ ~ ~ ~ ~ { ~ ~ ~ ~ ~ ~ ~ ~ ~ ~ ~ ~ ~ { / ~ ~ ~ ~ ~ ~ { ~ ~ ~ ~ ~ ~ ~ ~ ~ ~ ~ ~ { ~ { ~ ~ ~ { ~ { ~ ~ ~ ~ ~ ~ ~ ~ ~ ~ ~ ~ ~ ~ ~ { ~ ~ ~ { ~ ~ ~ ~ ~ ~ ~ ~ ~ ~ ~ ^ ~ ~ ~ { ~ ~ ~ ~ ~ ~ ~ ~ ~ { { ~ ~ : { ~ { { { ~ ~ ~ { { ~ ~ ~ ~ ~ ~ ~ ~ ~ ~ ~ ~ ~ ~ { { { { ~ ^ ^ { ~ ^ { ~ ~ { ~ { ~ ~ { ~ ~ ~ ~ ~ ~ ~ ~ ~ ~ ~ ~ ~ ~ ~ ~ ~ ~ ~ ~ ~ ~ ~ ~ < / / ^ ~ < { ~ { { { ~ ~ { ~ ^ ~ { { { ~ { ~ ~ ~ ~ ~ ~ ~ ~ { ~ ~ ~ ~ ~ ~ ~ ~ { ~ ~ ~ ~ ~ { { { { ~ ~ ~ ~ ~ ~ ~ ~ ~ ~ { ~ ~ ^ ~ ~ { { { ~ ~ ~ ~ ~ ~ { { / { ~ ~ ~ ~ { { { { { . ",
". * { { ~ ~ ~ { ~ ~ ~ ~ ~ { / / ~ ~ ~ ^ ^ { ~ ~ ~ ~ ~ { ~ { ~ ~ ~ ~ ~ ~ ~ ~ ~ ~ ~ ~ { ~ { ~ ~ ~ { ~ { ~ { ~ { { ~ ~ ~ ~ ~ ~ ~ ~ ~ ~ { ~ { ~ ~ ~ ~ ~ ~ ~ ~ { ~ ~ ~ { ~ ~ { ~ ~ _ ~ ~ ~ ~ ~ ~ ~ { { { ~ ~ ~ { ~ { { { ~ { ~ ~ ~ ~ ~ ~ ~ ~ ~ ~ ~ ~ ~ ~ ~ ~ ~ ~ { { { ~ ~ ^ { ~ ^ ~ ~ { { ~ ~ ~ ~ { ~ ~ ~ ~ ~ ^ ~ ~ ~ ~ ~ ~ ~ ~ ~ ~ ~ ~ ~ ~ ~ ~ ~ : / / / / / ~ { ~ ^ { ^ ^ ~ ~ ^ ^ ~ { { { ~ { ~ ~ ~ ~ ~ ~ ~ ~ { ~ ~ ~ ~ ~ ~ ~ ~ { ~ ~ ~ ~ ~ { { ~ ~ ~ ~ ~ ~ ~ ~ ~ ~ ~ ~ ~ ~ ~ ~ ~ ~ { { { ~ ~ ~ ~ ~ ~ { / : { ~ ~ ~ ~ { { { { ~   ",
"  . .   @ @   .             @ @     .     .               .                         .   .       .   . #     @                       .   .         .     . .     % .     .             .       . # @       .   . . .   . +                           .       . .       % . % %       .                                 %             % % % %     + @ @ m.  % .   % . .           . .       .   .             .           .             $ @                                       #                   . @   .     + # . .   . .   "};
